;FLAVOR:Marlin
;TIME:879
;Filament used: 0.4548m
;Layer height: 0.1
;Generated with Cura_SteamEngine 3.1.0
M190 S60
M104 S200
M109 S200
M82 ; absolute extrusion mode
G28 ;Home
G1 Z15.0 F6000 ;Move the platform down 15mm
;Prime the extruder
G92 E0
G1 F200 E3
G92 E0
;LAYER_COUNT:84
;LAYER:-9
M107
G0 F3600 X51.956 Y43.405 Z0.36
G1 F1350 X52.266 Y43.05 E0.05643
G1 X52.566 Y42.73 E0.10895
G1 X53.022 Y42.283 E0.18541
G1 X53.146 Y42.171 E0.20542
G1 X53.479 Y41.896 E0.25713
G1 X53.855 Y41.608 E0.31384
G1 X54.371 Y41.247 E0.38924
G1 X54.511 Y41.158 E0.40911
G1 X54.919 Y40.921 E0.4656
G1 X55.335 Y40.701 E0.52195
G1 X55.864 Y40.449 E0.59211
G1 X56.062 Y40.364 E0.61791
G1 X56.347 Y40.256 E0.6544
G1 X56.774 Y40.108 E0.70851
G1 X57.498 Y39.895 E0.79888
G1 X57.667 Y39.854 E0.8197
G1 X58.13 Y39.762 E0.87622
G1 X58.433 Y39.713 E0.91297
G1 X59.173 Y39.622 E1.00224
G1 X59.365 Y39.608 E1.0253
G1 X59.818 Y39.594 E1.07956
G1 X60.282 Y39.598 E1.13512
G1 X61.076 Y39.643 E1.23034
G1 X61.545 Y39.708 E1.28704
G1 X61.866 Y39.762 E1.32601
G1 X62.573 Y39.914 E1.4126
G1 X62.804 Y39.975 E1.44121
G1 X63.514 Y40.206 E1.53061
G1 X64.198 Y40.476 E1.61866
G1 X64.679 Y40.707 E1.68255
G1 X65.042 Y40.901 E1.73183
G1 X65.697 Y41.291 E1.82311
G1 X65.867 Y41.404 E1.84755
G1 X66.24 Y41.677 E1.90289
G1 X66.583 Y41.947 E1.95516
G1 X67.047 Y42.347 E2.02851
G1 X67.207 Y42.497 E2.05477
G1 X67.427 Y42.719 E2.0922
G1 X67.811 Y43.138 E2.16025
G1 X68.213 Y43.619 E2.23531
G1 X68.328 Y43.768 E2.25785
G1 X68.592 Y44.149 E2.31335
G1 X68.843 Y44.539 E2.36888
G1 X69.137 Y45.04 E2.43843
G1 X69.235 Y45.223 E2.46329
G1 X69.414 Y45.597 E2.51293
G1 X69.6 Y46.023 E2.56859
G1 X69.834 Y46.637 E2.64727
G1 X69.893 Y46.812 E2.66938
G1 X70.1 Y47.572 E2.7637
G1 X70.234 Y48.2 E2.84058
G1 X72.128 Y59.387 E4.19914
G1 X72.282 Y60.041 E4.27959
G1 X72.56 Y60.764 E4.37234
G1 X72.705 Y61.083 E4.41429
G1 X73.023 Y61.89 E4.51815
G1 X73.09 Y62.078 E4.54205
G1 X73.277 Y62.665 E4.61581
G1 X73.328 Y62.845 E4.63821
G1 X73.569 Y63.839 E4.76068
G1 X73.704 Y64.634 E4.85723
G1 X73.798 Y65.516 E4.96344
G1 X73.811 Y65.689 E4.98421
G1 X73.838 Y66.348 E5.06319
G1 X73.813 Y67.42 E5.19158
G1 X73.742 Y68.21 E5.28655
G1 X73.552 Y69.38 E5.42848
G1 X73.401 Y70.025 E5.5078
G1 X73.061 Y71.148 E5.64829
G1 X72.759 Y71.928 E5.74844
G1 X72.309 Y72.897 E5.87636
G1 X71.931 Y73.583 E5.97015
G1 X71.452 Y74.339 E6.07731
G1 X70.962 Y75.019 E6.17767
G1 X70.314 Y75.797 E6.2989
G1 X69.77 Y76.371 E6.39359
G1 X69.622 Y76.515 E6.41832
G1 X68.865 Y77.198 E6.5404
G1 X68.218 Y77.705 E6.63882
G1 X67.512 Y78.192 E6.74151
G1 X67.342 Y78.302 E6.76576
G1 X66.674 Y78.694 E6.8585
G1 X65.724 Y79.171 E6.98578
G1 X65.131 Y79.423 E7.06293
G1 X64.956 Y79.491 E7.08541
G1 X64.008 Y79.817 E7.20544
G1 X63.205 Y80.033 E7.30501
G1 X62.328 Y80.212 E7.41218
G1 X62.175 Y80.238 E7.43077
G1 X61.532 Y80.325 E7.50846
G1 X61.375 Y80.341 E7.52735
G1 X60.333 Y80.406 E7.65236
G1 X59.527 Y80.401 E7.74887
G1 X58.468 Y80.325 E7.876
G1 X57.672 Y80.212 E7.97226
G1 X56.646 Y79.997 E8.09778
G1 X55.869 Y79.778 E8.19444
G1 X55.044 Y79.491 E8.29903
G1 X54.276 Y79.171 E8.39865
G1 X53.326 Y78.694 E8.52594
G1 X52.658 Y78.302 E8.61867
G1 X52.488 Y78.192 E8.64292
G1 X51.673 Y77.624 E8.76187
G1 X51.135 Y77.198 E8.84403
G1 X50.378 Y76.515 E8.96611
G1 X50.23 Y76.371 E8.99084
G1 X49.686 Y75.797 E9.08553
G1 X49.038 Y75.019 E9.20677
G1 X48.548 Y74.339 E9.30712
G1 X48.069 Y73.583 E9.41428
G1 X47.691 Y72.897 E9.50807
G1 X47.609 Y72.731 E9.53024
G1 X47.241 Y71.928 E9.636
G1 X47.177 Y71.776 E9.65575
G1 X46.904 Y71.045 E9.74918
G1 X46.636 Y70.165 E9.85933
G1 X46.421 Y69.241 E9.97292
G1 X46.258 Y68.21 E10.0979
G1 X46.194 Y67.544 E10.17801
G1 X46.161 Y66.509 E10.302
G1 X46.188 Y65.703 E10.39856
G1 X46.296 Y64.634 E10.52721
G1 X46.428 Y63.854 E10.62194
G1 X46.672 Y62.845 E10.74623
G1 X46.91 Y62.078 E10.84239
G1 X46.972 Y61.903 E10.86462
G1 X47.352 Y60.952 E10.98724
G1 X47.439 Y60.766 E11.01183
G1 X47.687 Y60.142 E11.09223
G1 X47.872 Y59.389 E11.18507
G1 X49.764 Y48.208 E12.54288
G1 X49.9 Y47.572 E12.62075
G1 X49.983 Y47.248 E12.6608
G1 X50.198 Y46.545 E12.74882
G1 X50.409 Y45.999 E12.81891
G1 X50.56 Y45.657 E12.86368
G1 X50.898 Y44.974 E12.95492
G1 X50.981 Y44.823 E12.97555
G1 X51.227 Y44.424 E13.03168
G1 X51.477 Y44.048 E13.08574
G1 X51.835 Y43.556 E13.1586
G1 X51.956 Y43.405 E13.18177
G0 F3600 X52.8 Y42.5
G1 F1350 X52.8 Y78.385 E17.47851
G0 F3600 X54.4 Y79.222
G1 F1350 X54.4 Y41.228 E22.02778
G0 F3600 X56 Y40.39
G1 F1350 X56 Y79.814 E26.74827
G0 F3600 X57.6 Y80.196
G1 F1350 X57.6 Y39.87 E31.57676
G0 F3600 X59.2 Y39.62
G1 F1350 X59.2 Y80.377 E36.45686
G0 F3600 X60.8 Y80.377
G1 F1350 X60.8 Y39.628 E41.33601
G0 F3600 X62.4 Y39.877
G1 F1350 X62.4 Y80.198 E46.1639
G0 F3600 X64 Y79.82
G1 F1350 X64 Y40.398 E50.88415
G0 F3600 X65.6 Y41.234
G1 F1350 X65.6 Y79.224 E55.43294
G0 F3600 X67.2 Y78.386
G1 F1350 X67.2 Y42.491 E59.73088
G0 F3600 X68.8 Y44.473
G1 F1350 X68.8 Y77.249 E63.65537
G0 F3600 X70.4 Y75.694
G1 F1350 X70.4 Y49.181 E66.82994
G0 F3600 X72 Y58.631
G1 F1350 X72 Y73.458 E68.60527
G0 F3600 X73.6 Y69.085
G1 F1350 X73.6 Y64.022 E69.2115
G0 F3600 X51.2 Y77.249
G1 F1350 X51.2 Y44.467 E73.1367
G0 F3600 X49.6 Y49.177
G1 F1350 X49.6 Y75.693 E76.31163
G0 F3600 X48 Y73.457
G1 F1350 X48 Y58.632 E78.08672
G0 F3600 X46.4 Y64.019
G1 F1350 X46.4 Y69.108 E78.69606
G0 F3600 X51.955 Y43.405
;TIME_ELAPSED:32.244822
;LAYER:-8
M140 S60
G0 X51.955 Y43.405 Z0.51
;TYPE:SUPPORT
G1 F1350 X51.926 Y43.441 E78.69837
G1 X73.773 Y65.287 E80.23976
G1 X73.797 Y65.515 E80.2512
G1 X73.81 Y65.688 E80.25985
G1 X73.837 Y66.347 E80.29276
G1 X73.828 Y66.757 E80.31322
G1 X51.333 Y44.262 E81.90036
G1 X51.226 Y44.423 E81.91001
G1 X50.98 Y44.822 E81.93339
G1 X50.896 Y44.974 E81.94205
G1 X50.808 Y45.151 E81.95192
G1 X73.751 Y68.095 E83.5707
G1 X73.741 Y68.21 E83.57646
G1 X73.561 Y69.319 E83.63252
G1 X50.361 Y46.118 E85.26944
G1 X50.197 Y46.544 E85.29221
G1 X50.003 Y47.175 E85.32515
G1 X73.273 Y70.445 E86.96697
G1 X73.06 Y71.148 E87.00362
G1 X72.921 Y71.507 E87.02282
G1 X49.742 Y48.328 E88.65823
G1 X49.537 Y49.537 E88.7194
G1 X72.495 Y72.495 E90.33922
G1 X72.309 Y72.896 E90.36127
G1 X72.015 Y73.429 E90.39164
G1 X49.333 Y50.747 E91.99198
G1 X49.128 Y51.956 E92.05315
G1 X71.474 Y74.302 E93.62978
G1 X71.451 Y74.338 E93.63192
G1 X70.962 Y75.018 E93.6737
G1 X70.878 Y75.12 E93.68029
G1 X48.924 Y53.166 E95.22927
G1 X48.719 Y54.376 E95.2905
G1 X70.229 Y75.886 E96.80814
G1 X69.77 Y76.37 E96.84142
G1 X69.621 Y76.514 E96.85176
G1 X69.527 Y76.598 E96.85805
G1 X48.514 Y55.585 E98.34063
G1 X48.31 Y56.795 E98.40185
G1 X68.778 Y77.264 E99.84601
G1 X68.218 Y77.704 E99.88154
G1 X67.973 Y77.872 E99.89636
G1 X48.105 Y58.004 E101.29816
G1 X47.9 Y59.214 E101.35938
G1 X67.117 Y78.431 E102.71525
G1 X66.673 Y78.693 E102.74097
G1 X66.202 Y78.93 E102.76727
G1 X47.608 Y60.336 E104.07918
G1 X47.439 Y60.765 E104.10218
G1 X47.352 Y60.951 E104.11243
G1 X47.196 Y61.338 E104.13325
G1 X65.235 Y79.377 E105.40599
G1 X65.131 Y79.422 E105.41165
G1 X64.956 Y79.49 E105.42101
G1 X64.194 Y79.751 E105.4612
G1 X46.817 Y62.373 E106.68728
G1 X46.671 Y62.844 E106.71188
G1 X46.516 Y63.486 E106.74483
G1 X63.085 Y80.056 E107.91389
G1 X62.328 Y80.211 E107.95244
G1 X62.175 Y80.237 E107.96019
G1 X61.89 Y80.275 E107.97453
G1 X46.291 Y64.676 E109.07513
G1 X46.187 Y65.702 E109.12658
G1 X46.178 Y65.977 E109.1403
G1 X60.589 Y80.388 E110.15708
G1 X60.333 Y80.405 E110.16988
G1 X59.527 Y80.4 E110.21009
G1 X59.16 Y80.373 E110.22845
G1 X46.188 Y67.402 E111.14366
G1 X46.193 Y67.542 E111.15065
G1 X46.258 Y68.209 E111.18408
G1 X46.384 Y69.012 E111.22463
G1 X57.56 Y80.188 E112.01316
G1 X56.646 Y79.996 E112.05975
G1 X55.868 Y79.777 E112.10008
G1 X55.664 Y79.705 E112.11087
G1 X46.859 Y70.901 E112.73208
G1 X46.903 Y71.044 E112.73954
G1 X47.176 Y71.775 E112.77847
G1 X47.241 Y71.927 E112.78672
G1 X47.609 Y72.73 E112.83079
G1 X47.69 Y72.896 E112.84
G1 X47.996 Y73.452 E112.87166
G1 X53.11 Y78.566 E113.23248
G1 X52.657 Y78.301 E113.25867
G1 X52.487 Y78.191 E113.26877
G1 X51.672 Y77.623 E113.31833
G1 X51.135 Y77.197 E113.35253
G1 X50.377 Y76.513 E113.40347
G1 X50.23 Y76.37 E113.4137
G1 X49.685 Y75.796 E113.45319
G1 X49.037 Y75.018 E113.5037
G1 X48.548 Y74.338 E113.54549
G1 X48.068 Y73.582 E113.59016
G0 F3600 X73.514 Y63.614
G1 F1350 X73.326 Y62.844 E113.62971
G1 X73.276 Y62.665 E113.63898
G1 X73.089 Y62.078 E113.66972
G1 X73.022 Y61.889 E113.67972
G1 X72.904 Y61.591 E113.69571
G1 X53.331 Y42.017 E115.07673
G1 X53.478 Y41.896 E115.08623
G1 X53.853 Y41.608 E115.10982
G1 X54.138 Y41.41 E115.12713
G1 X72.131 Y59.404 E116.39667
G1 X72.127 Y59.387 E116.39754
G1 X71.842 Y57.699 E116.48294
G1 X55.013 Y40.871 E117.67029
G1 X55.333 Y40.701 E117.68836
G1 X55.863 Y40.448 E117.71766
G1 X55.962 Y40.406 E117.72303
G1 X71.554 Y55.997 E118.82309
G1 X71.265 Y54.295 E118.90922
G1 X57.009 Y40.038 E119.9151
G1 X57.497 Y39.894 E119.94048
G1 X57.665 Y39.853 E119.94911
G1 X58.129 Y39.762 E119.9727
G1 X58.144 Y39.759 E119.97346
G1 X70.977 Y52.592 E120.8789
G1 X70.689 Y50.89 E120.96502
G1 X59.406 Y39.607 E121.76109
G1 X59.816 Y39.593 E121.78156
G1 X60.28 Y39.597 E121.80471
G1 X60.843 Y39.63 E121.83285
G1 X70.4 Y49.187 E122.50715
G1 X70.233 Y48.199 E122.55714
G1 X70.099 Y47.572 E122.58912
G1 X70.061 Y47.434 E122.59627
G1 X62.532 Y39.905 E123.12748
G1 X62.572 Y39.914 E123.12952
G1 X62.803 Y39.974 E123.14143
G1 X63.513 Y40.206 E123.17869
G1 X64.196 Y40.476 E123.21534
G1 X64.678 Y40.707 E123.242
G1 X64.83 Y40.788 E123.25059
G1 X65.041 Y40.901 E123.26254
G1 X65.695 Y41.29 E123.3005
G1 X65.866 Y41.404 E123.31075
G1 X66.238 Y41.676 E123.33374
G1 X66.582 Y41.946 E123.35556
G1 X67.046 Y42.347 E123.38616
G1 X67.206 Y42.497 E123.3971
G1 X67.426 Y42.718 E123.41266
G1 X67.81 Y43.137 E123.44101
G1 X68.212 Y43.619 E123.47232
G1 X68.327 Y43.767 E123.48168
G1 X68.59 Y44.148 E123.50477
G1 X68.842 Y44.539 E123.52798
G1 X69.136 Y45.039 E123.55692
G0 F3600 X69.201 Y45.159
G1 F1350 X64.83 Y40.788 E123.86532
G0 F3600 X52.598 Y42.698
G1 F1350 X73.514 Y63.614 E125.34105
G0 F3600 X51.955 Y43.405
G1 F1350 X52.265 Y43.05 E125.36457
G1 X52.565 Y42.729 E125.38649
G1 X52.598 Y42.698 E125.38874
G0 F3600 X51.87 Y43.2
;TIME_ELAPSED:75.178067
;LAYER:-7
G0 X51.87 Y43.2 Z0.61
G1 F1800 X52.119 Y42.915 E125.39504
G1 X52.227 Y42.8 E125.39766
G1 X67.775 Y42.8 E125.65623
G1 X67.65 Y42.664 E125.6593
G1 X67.393 Y42.4 E125.66542
G1 X52.617 Y42.4 E125.91115
G1 X52.882 Y42.14 E125.91732
G1 X53.006 Y42.028 E125.9201
G1 X53.04 Y42 E125.92084
G1 X66.949 Y42 E126.15214
G1 X66.624 Y41.723 E126.15924
G1 X66.465 Y41.6 E126.16259
G1 X53.538 Y41.6 E126.37756
G1 X53.741 Y41.444 E126.38182
G1 X54.09 Y41.2 E126.3889
G1 X65.918 Y41.2 E126.5856
G1 X65.815 Y41.128 E126.58769
G1 X65.273 Y40.8 E126.59823
G1 X54.73 Y40.8 E126.77356
G1 X54.817 Y40.749 E126.77524
G1 X55.249 Y40.521 E126.78336
G1 X55.503 Y40.4 E126.78804
G1 X64.514 Y40.4 E126.93789
G1 X64.476 Y40.381 E126.9386
G1 X64.264 Y40.286 E126.94246
G1 X63.698 Y40.06 E126.9526
G1 X63.527 Y40 E126.95561
G1 X56.473 Y40 E127.07292
G1 X56.844 Y39.875 E127.07943
G1 X57.46 Y39.698 E127.09009
G1 X57.919 Y39.6 E127.0979
G1 X57.965 Y39.59 E127.09868
G1 X58.397 Y39.516 E127.10597
G1 X59.167 Y39.422 E127.11887
G1 X59.354 Y39.408 E127.12199
G1 X59.813 Y39.393 E127.12962
G1 X60.292 Y39.397 E127.13759
G1 X60.926 Y39.428 E127.14815
G1 X61.481 Y39.496 E127.15744
G1 X61.903 Y39.564 E127.16455
G0 F3600 X62.071 Y39.6
G1 F1800 X57.919 Y39.6 E127.2336
G0 F3600 X51.87 Y43.2
G1 F1800 X68.126 Y43.2 E127.50394
G1 X68.362 Y43.483 E127.51007
G1 X68.452 Y43.6 E127.51252
G1 X51.557 Y43.6 E127.79349
G1 X51.316 Y43.931 E127.8003
G1 X51.27 Y44 E127.80167
G1 X68.733 Y44 E128.09209
G1 X68.759 Y44.038 E128.09285
G1 X68.993 Y44.4 E128.10002
G1 X51.008 Y44.4 E128.39911
G1 X50.802 Y44.734 E128.40564
G1 X50.766 Y44.8 E128.40689
G1 X69.23 Y44.8 E128.71395
G1 X69.314 Y44.944 E128.71672
G1 X69.408 Y45.119 E128.72002
G1 X69.447 Y45.2 E128.72152
G1 X50.561 Y45.2 E129.03559
G1 X50.443 Y45.436 E129.03998
G1 X50.37 Y45.6 E129.04296
G1 X69.635 Y45.6 E129.36334
G1 X69.786 Y45.95 E129.36968
G1 X69.806 Y46 E129.37058
G1 X50.195 Y46 E129.69671
G1 X50.04 Y46.4 E129.70384
G1 X69.958 Y46.4 E130.03508
G1 X70.018 Y46.557 E130.03788
G1 X70.082 Y46.747 E130.04121
G1 X70.098 Y46.8 E130.04213
G1 X49.912 Y46.8 E130.37783
G1 X49.79 Y47.2 E130.38478
G1 X70.21 Y47.2 E130.72437
G1 X70.292 Y47.518 E130.72983
G1 X70.31 Y47.6 E130.73122
G1 X49.69 Y47.6 E131.07414
G1 X49.684 Y47.621 E131.0745
G1 X49.604 Y48 E131.08094
G1 X70.395 Y48 E131.4267
G1 X70.449 Y48.257 E131.43106
G1 X70.474 Y48.4 E131.43348
G1 X49.529 Y48.4 E131.78179
G1 X49.461 Y48.8 E131.78854
G1 X70.541 Y48.8 E132.1391
G1 X70.609 Y49.2 E132.14585
G1 X49.394 Y49.2 E132.49866
G1 X49.326 Y49.6 E132.50541
G1 X70.677 Y49.6 E132.86047
G1 X70.744 Y50 E132.86722
G1 X49.258 Y50 E133.22453
G1 X49.191 Y50.4 E133.23128
G1 X70.812 Y50.4 E133.59084
G1 X70.879 Y50.8 E133.59758
G1 X49.123 Y50.8 E133.95938
G1 X49.055 Y51.2 E133.96613
G1 X70.947 Y51.2 E134.3302
G1 X71.015 Y51.6 E134.33695
G1 X48.988 Y51.6 E134.70326
G1 X48.92 Y52 E134.71
G1 X71.082 Y52 E135.07856
G1 X71.15 Y52.4 E135.08531
G1 X48.852 Y52.4 E135.45612
G1 X48.784 Y52.8 E135.46287
G1 X71.218 Y52.8 E135.83595
G1 X71.285 Y53.2 E135.84269
G1 X48.717 Y53.2 E136.218
G1 X48.649 Y53.6 E136.22475
G1 X71.353 Y53.6 E136.60232
G1 X71.42 Y54 E136.60906
G1 X48.581 Y54 E136.98888
G1 X48.514 Y54.4 E136.99562
G1 X71.488 Y54.4 E137.37768
G1 X71.556 Y54.8 E137.38443
G1 X48.446 Y54.8 E137.76875
G1 X48.378 Y55.2 E137.7755
G1 X71.623 Y55.2 E138.16206
G1 X71.691 Y55.6 E138.16881
G1 X48.311 Y55.6 E138.55762
G1 X48.243 Y56 E138.56437
G1 X71.759 Y56 E138.95544
G1 X71.826 Y56.4 E138.96219
G1 X48.175 Y56.4 E139.3555
G1 X48.108 Y56.8 E139.36225
G1 X71.894 Y56.8 E139.75781
G1 X71.962 Y57.2 E139.76456
G1 X48.04 Y57.2 E140.16238
G1 X47.972 Y57.6 E140.16913
G1 X72.029 Y57.6 E140.5692
G1 X72.097 Y58 E140.57595
G1 X47.905 Y58 E140.97826
G1 X47.837 Y58.4 E140.98501
G1 X72.164 Y58.4 E141.38957
G1 X72.232 Y58.8 E141.39632
G1 X47.769 Y58.8 E141.80314
G1 X47.702 Y59.2 E141.80988
G1 X72.3 Y59.2 E142.21895
G1 X72.324 Y59.347 E142.22143
G1 X72.384 Y59.6 E142.22575
G1 X47.614 Y59.6 E142.63768
G1 X47.515 Y60 E142.64453
G1 X72.481 Y60 E143.05972
G1 X72.635 Y60.4 E143.06684
G1 X47.369 Y60.4 E143.48702
G1 X47.255 Y60.687 E143.49215
G1 X47.204 Y60.8 E143.49422
G1 X72.797 Y60.8 E143.91983
G1 X72.893 Y61.014 E143.92373
G1 X72.967 Y61.2 E143.92706
G1 X47.035 Y61.2 E144.35831
G1 X46.88 Y61.6 E144.36544
G1 X73.125 Y61.6 E144.8019
G1 X73.212 Y61.822 E144.80587
G1 X73.276 Y62 E144.80901
G1 X46.724 Y62 E145.25057
G0 F3600 X46.722 Y62.005
G1 F1800 X46.6 Y62.4 E145.25745
G1 X73.401 Y62.4 E145.70315
G1 X73.519 Y62.783 E145.70982
G1 X73.524 Y62.8 E145.71011
G1 X46.476 Y62.8 E146.15992
G1 X46.38 Y63.2 E146.16676
G1 X73.62 Y63.2 E146.61976
G1 X73.717 Y63.6 E146.62661
G1 X46.284 Y63.6 E147.08282
G1 X46.232 Y63.812 E147.08645
G1 X46.201 Y64 E147.08962
G1 X73.8 Y64 E147.54859
G1 X73.868 Y64.4 E147.55534
G1 X46.133 Y64.4 E148.01658
G1 X46.095 Y64.619 E148.02027
G1 X46.077 Y64.8 E148.0233
G1 X73.923 Y64.8 E148.48638
G1 X73.966 Y65.2 E148.49307
G1 X46.037 Y65.2 E148.95753
G1 X45.997 Y65.6 E148.96421
G1 X74.005 Y65.6 E149.42999
G1 X74.011 Y65.681 E149.43134
G1 X74.025 Y66 E149.43665
G1 X45.978 Y66 E149.90307
G1 X45.964 Y66.4 E149.90973
G1 X74.036 Y66.4 E150.37657
G1 X74.027 Y66.8 E150.38322
G1 X45.968 Y66.8 E150.84985
G1 X45.979 Y67.2 E150.8565
G1 X74.018 Y67.2 E151.32279
G1 X74.013 Y67.419 E151.32643
G1 X73.997 Y67.6 E151.32946
G1 X45.997 Y67.6 E151.7951
G1 X46.035 Y68 E151.80178
G1 X73.961 Y68 E152.26619
G1 X73.941 Y68.236 E152.27013
G1 X73.915 Y68.4 E152.27289
G1 X46.083 Y68.4 E152.73574
G1 X46.147 Y68.8 E152.74248
G1 X73.851 Y68.8 E153.2032
G1 X73.788 Y69.2 E153.20993
G1 X46.21 Y69.2 E153.66855
G1 X46.221 Y69.266 E153.66967
G1 X46.253 Y69.426 E153.67238
G1 X46.294 Y69.6 E153.67535
G1 X73.7 Y69.6 E154.13112
G1 X73.607 Y70 E154.13795
G1 X46.389 Y70 E154.59058
G1 X46.443 Y70.224 E154.59441
G1 X46.497 Y70.4 E154.59748
G1 X73.502 Y70.4 E155.04657
G1 X73.379 Y70.8 E155.05353
G1 X46.621 Y70.8 E155.49852
G1 X46.745 Y71.2 E155.50548
