;FLAVOR:Marlin
;TIME:2585
;Filament used: 1.66156m
;Layer height: 0.1
;Generated with Cura_SteamEngine 3.1.0
M190 S65
M104 S200
M109 S200
M82 ; absolute extrusion mode
G28 ;Home
G1 Z15.0 F6000 ;Move the platform down 15mm
;Prime the extruder
G92 E0
G1 F200 E3
G92 E0
;LAYER_COUNT:105
;LAYER:-9
M107
G0 F3600 X28.785 Y31.308 Z0.36
G1 F1350 X29.776 Y30.473 E0.15516
G1 X30.013 Y30.292 E0.19087
G1 X30.783 Y29.743 E0.3041
G1 X30.95 Y29.634 E0.32798
G1 X32.009 Y29.002 E0.47565
G1 X32.272 Y28.862 E0.51132
G1 X33.146 Y28.432 E0.62795
G1 X33.284 Y28.371 E0.64602
G1 X34.513 Y27.888 E0.80413
G1 X34.835 Y27.78 E0.84479
G1 X35.712 Y27.516 E0.95446
G1 X35.894 Y27.469 E0.97696
G1 X37.196 Y27.195 E1.13628
G1 X37.517 Y27.144 E1.17519
G1 X38.422 Y27.029 E1.28443
G1 X38.603 Y27.014 E1.30617
G1 X39.908 Y26.957 E1.46258
G1 X40.138 Y26.958 E1.49012
G1 X41.276 Y27.005 E1.62649
G1 X42.221 Y27.108 E1.74032
G1 X42.547 Y27.155 E1.77975
G1 X43.53 Y27.334 E1.89939
G1 X43.707 Y27.374 E1.92112
G1 X45.026 Y27.736 E2.08489
G1 X45.363 Y27.849 E2.12745
G1 X46.199 Y28.154 E2.234
G1 X46.38 Y28.229 E2.25746
G1 X47.602 Y28.799 E2.41891
G1 X47.917 Y28.967 E2.46166
G1 X48.688 Y29.406 E2.56789
G1 X48.86 Y29.513 E2.59215
G1 X50.063 Y30.35 E2.76763
G1 X50.318 Y30.548 E2.80628
G1 X51.002 Y31.114 E2.91259
G1 X51.157 Y31.255 E2.93767
G1 X52.097 Y32.178 E3.09541
G1 X52.295 Y32.393 E3.13041
G1 X52.923 Y33.117 E3.24517
G1 X53.022 Y33.241 E3.26417
G1 X53.809 Y34.325 E3.42456
G1 X53.965 Y34.564 E3.45874
G1 X54.452 Y35.36 E3.57047
G1 X54.55 Y35.535 E3.59448
G1 X55.141 Y36.719 E3.75293
G1 X55.267 Y37.007 E3.79057
G1 X55.607 Y37.848 E3.89919
G1 X55.667 Y38.014 E3.92032
G1 X55.94 Y38.889 E4.03007
G1 X56.179 Y39.515 E4.11031
G1 X56.501 Y40.116 E4.19195
G1 X56.898 Y40.673 E4.27385
G1 X57.361 Y41.175 E4.35562
G1 X57.883 Y41.615 E4.43736
G1 X58.458 Y41.984 E4.51917
G1 X59.073 Y42.279 E4.60084
G1 X59.721 Y42.494 E4.68259
G1 X60.391 Y42.624 E4.76431
G1 X61.073 Y42.67 E4.84615
G1 X61.754 Y42.629 E4.92784
G1 X62.425 Y42.502 E5.00961
G1 X63.075 Y42.292 E5.0914
G1 X63.693 Y42.002 E5.17314
G1 X64.269 Y41.636 E5.25485
G1 X64.795 Y41.2 E5.33666
G1 X65.259 Y40.703 E5.41807
G1 X65.609 Y40.228 E5.48872
G1 X66.164 Y39.446 E5.60353
G1 X66.261 Y39.321 E5.62248
G1 X67.098 Y38.328 E5.77798
G1 X67.406 Y37.997 E5.83212
G1 X68.069 Y37.329 E5.94481
G1 X68.202 Y37.205 E5.96658
G1 X69.194 Y36.361 E6.12253
G1 X69.545 Y36.089 E6.1757
G1 X70.311 Y35.539 E6.28862
G1 X70.452 Y35.446 E6.30884
G1 X71.61 Y34.753 E6.47043
G1 X71.981 Y34.554 E6.52084
G1 X72.812 Y34.144 E6.63179
G1 X73.002 Y34.06 E6.65666
G1 X74.234 Y33.578 E6.81507
G1 X74.505 Y33.484 E6.84941
G1 X75.507 Y33.18 E6.97479
G1 X75.699 Y33.13 E6.99854
G1 X76.979 Y32.858 E7.15523
G1 X77.309 Y32.802 E7.19531
G1 X78.316 Y32.671 E7.3169
G1 X78.503 Y32.654 E7.33938
G1 X79.837 Y32.594 E7.49927
G1 X80.233 Y32.595 E7.54669
G1 X81.205 Y32.63 E7.66315
G1 X81.397 Y32.645 E7.68621
G1 X82.709 Y32.805 E7.84446
G1 X83.035 Y32.86 E7.88405
G1 X84.04 Y33.065 E8.00686
G1 X84.228 Y33.112 E8.03007
G1 X85.486 Y33.482 E8.18707
G1 X85.869 Y33.614 E8.23558
G1 X86.756 Y33.955 E8.34936
G1 X86.928 Y34.029 E8.37178
G1 X88.101 Y34.596 E8.52778
G1 X88.495 Y34.811 E8.58153
G1 X89.296 Y35.282 E8.69279
G1 X89.437 Y35.373 E8.71288
G1 X90.545 Y36.158 E8.87547
G1 X90.901 Y36.439 E8.92978
G1 X91.588 Y37.014 E9.03704
G1 X91.741 Y37.153 E9.0618
G1 X92.641 Y38.046 E9.2136
G1 X92.931 Y38.361 E9.26487
G1 X93.651 Y39.207 E9.39789
G1 X94.428 Y40.282 E9.55671
G1 X94.658 Y40.632 E9.60685
G1 X95.159 Y41.459 E9.72263
G1 X95.251 Y41.627 E9.74556
G1 X95.836 Y42.811 E9.90369
G1 X95.997 Y43.175 E9.95135
G1 X96.365 Y44.106 E10.07122
G1 X96.42 Y44.264 E10.09125
G1 X96.765 Y45.396 E10.23294
G1 X96.904 Y45.934 E10.29948
G1 X97.156 Y47.134 E10.4463
G1 X98.883 Y57.357 E11.68771
G1 X99.035 Y58.008 E11.76775
G1 X99.24 Y58.569 E11.83927
G1 X99.46 Y59.095 E11.90753
G1 X99.701 Y59.774 E11.99381
G1 X99.949 Y60.545 E12.09078
G1 X100.237 Y61.564 E12.21757
G1 X100.284 Y61.755 E12.24112
G1 X100.444 Y62.523 E12.33506
G1 X100.6 Y63.419 E12.44395
G1 X100.726 Y64.339 E12.55514
G1 X100.747 Y64.534 E12.57862
G1 X100.804 Y65.339 E12.67525
G1 X100.834 Y66.092 E12.76548
G1 X100.84 Y67.122 E12.88882
G1 X100.835 Y67.299 E12.91002
G1 X100.785 Y68.086 E13.00444
G1 X100.703 Y68.949 E13.10824
G1 X100.568 Y69.969 E13.23143
G1 X100.375 Y70.938 E13.34974
G1 X100.186 Y71.742 E13.44863
G1 X99.898 Y72.791 E13.57888
G1 X99.634 Y73.556 E13.67578
G1 X99.339 Y74.335 E13.77552
G1 X98.895 Y75.38 E13.91147
G1 X98.487 Y76.186 E14.01964
G1 X98.097 Y76.903 E14.11737
G1 X97.613 Y77.723 E14.23138
G1 X97.095 Y78.487 E14.3419
G1 X96.589 Y79.183 E14.44493
G1 X95.945 Y79.999 E14.5694
G1 X95.338 Y80.677 E14.67836
G1 X94.797 Y81.242 E14.77203
G1 X94.034 Y81.985 E14.89955
G1 X93.908 Y82.099 E14.91989
G1 X93.225 Y82.674 E15.02679
G1 X92.617 Y83.156 E15.11969
G1 X91.717 Y83.814 E15.25319
G1 X91.032 Y84.251 E15.35048
G1 X90.287 Y84.694 E15.45426
G1 X89.422 Y85.166 E15.57225
G1 X89.278 Y85.239 E15.59158
G1 X88.48 Y85.605 E15.6967
G1 X87.731 Y85.923 E15.79413
G1 X86.847 Y86.26 E15.90741
G1 X86.691 Y86.314 E15.92717
G1 X85.942 Y86.545 E16.02102
G1 X85.142 Y86.765 E16.12037
G1 X84.168 Y86.997 E16.24025
G1 X83.165 Y87.168 E16.36208
G1 X82.449 Y87.265 E16.4486
G1 X81.368 Y87.373 E16.57868
G1 X80.454 Y87.405 E16.68818
G1 X79.613 Y87.406 E16.78888
G1 X78.585 Y87.369 E16.91205
G1 X77.58 Y87.27 E17.03297
G1 X76.766 Y87.158 E17.13135
G1 X75.671 Y86.963 E17.26453
G1 X74.831 Y86.757 E17.36809
G1 X74.033 Y86.536 E17.46723
G1 X73.108 Y86.245 E17.58334
G1 X72.18 Y85.886 E17.70248
G1 X71.424 Y85.563 E17.80092
G1 X70.434 Y85.094 E17.93208
G1 X69.695 Y84.684 E18.03328
G1 X68.957 Y84.243 E18.13622
G1 X68.164 Y83.731 E18.24924
G1 X68.024 Y83.634 E18.26963
G1 X67.307 Y83.096 E18.37696
G1 X66.752 Y82.656 E18.46177
G1 X65.843 Y81.873 E18.60542
G1 X65.245 Y81.286 E18.70575
G1 X64.595 Y80.6 E18.81891
G1 X64.116 Y80.131 E18.89918
G1 X63.571 Y79.719 E18.98098
G1 X62.981 Y79.379 E19.06252
G1 X62.35 Y79.115 E19.14442
G1 X61.692 Y78.934 E19.22613
G1 X61.016 Y78.836 E19.30792
G1 X60.333 Y78.826 E19.38971
G1 X59.655 Y78.9 E19.47137
G1 X58.991 Y79.06 E19.55315
G1 X58.352 Y79.303 E19.63501
G1 X57.75 Y79.624 E19.7167
G1 X57.193 Y80.019 E19.79846
G1 X56.69 Y80.48 E19.88015
G1 X56.249 Y81.002 E19.96198
G1 X55.877 Y81.577 E20.04398
G1 X55.569 Y82.225 E20.12988
G1 X55.211 Y83.125 E20.24586
G1 X55.09 Y83.391 E20.28085
G1 X54.673 Y84.239 E20.394
G1 X54.59 Y84.392 E20.41484
G1 X53.995 Y85.386 E20.55355
G1 X53.803 Y85.683 E20.5959
G1 X53.218 Y86.506 E20.7168
G1 X53.077 Y86.685 E20.74408
G1 X52.247 Y87.66 E20.8974
G1 X52.012 Y87.909 E20.93839
G1 X51.373 Y88.547 E21.04651
G1 X51.215 Y88.692 E21.07219
G1 X50.224 Y89.527 E21.22735
G1 X49.987 Y89.708 E21.26306
G1 X49.217 Y90.257 E21.37629
G1 X49.05 Y90.366 E21.40017
G1 X48.053 Y90.961 E21.53919
G1 X47.778 Y91.112 E21.57676
G1 X46.853 Y91.568 E21.70024
G1 X46.716 Y91.629 E21.7182
G1 X45.49 Y92.111 E21.87593
G1 X45.165 Y92.22 E21.91697
G1 X44.288 Y92.484 E22.02664
G1 X44.106 Y92.531 E22.04914
G1 X42.804 Y92.805 E22.20846
G1 X42.482 Y92.856 E22.24749
G1 X41.578 Y92.971 E22.35661
G1 X41.397 Y92.986 E22.37835
G1 X40.092 Y93.043 E22.53476
G1 X39.831 Y93.042 E22.56601
G1 X38.845 Y93.006 E22.68415
G1 X38.676 Y92.993 E22.70444
G1 X37.406 Y92.84 E22.85761
G1 X37.098 Y92.788 E22.89501
G1 X36.163 Y92.598 E23.00925
G1 X36.01 Y92.56 E23.02813
G1 X34.716 Y92.182 E23.18954
G1 X34.413 Y92.075 E23.22802
G1 X33.554 Y91.746 E23.33816
G1 X33.391 Y91.675 E23.35945
G1 X32.199 Y91.099 E23.51796
G1 X31.927 Y90.951 E23.55504
G1 X31.137 Y90.487 E23.66474
G1 X30.96 Y90.373 E23.68995
G1 X29.946 Y89.658 E23.83851
G1 X29.779 Y89.531 E23.86363
G1 X28.993 Y88.881 E23.98576
G1 X28.843 Y88.745 E24.01
G1 X27.896 Y87.814 E24.16901
G1 X27.705 Y87.607 E24.20273
G1 X27.064 Y86.868 E24.31987
G1 X26.978 Y86.759 E24.33649
G1 X26.175 Y85.651 E24.50034
G1 X26.024 Y85.419 E24.53348
G1 X25.549 Y84.641 E24.64263
G1 X25.442 Y84.448 E24.66905
G1 X24.858 Y83.28 E24.82541
G1 X24.733 Y82.993 E24.86289
G1 X24.393 Y82.152 E24.97151
G1 X24.332 Y81.983 E24.99302
G1 X23.94 Y80.712 E25.15228
G1 X23.832 Y80.26 E25.20792
G1 X23.646 Y79.615 E25.2883
G1 X23.375 Y78.988 E25.37009
G1 X23.027 Y78.4 E25.4519
G1 X22.608 Y77.862 E25.53355
G1 X22.126 Y77.38 E25.61517
G1 X21.584 Y76.962 E25.69712
G1 X20.996 Y76.616 E25.77881
G1 X20.368 Y76.348 E25.86057
G1 X19.74 Y76.168 E25.93879
G1 X19.252 Y76.05 E25.99891
G1 X18.264 Y75.753 E26.12243
G1 X18.052 Y75.679 E26.14932
G1 X16.884 Y75.215 E26.2998
G1 X16.603 Y75.087 E26.33678
G1 X15.761 Y74.673 E26.44912
G1 X15.608 Y74.59 E26.46996
G1 X14.488 Y73.916 E26.62648
G1 X14.233 Y73.745 E26.66324
G1 X13.49 Y73.215 E26.77252
G1 X13.312 Y73.075 E26.79964
G1 X12.34 Y72.247 E26.95252
G1 X12.085 Y72.006 E26.99453
G1 X11.452 Y71.372 E27.10181
G1 X11.308 Y71.215 E27.12731
G1 X10.473 Y70.224 E27.28248
G1 X10.29 Y69.984 E27.31862
G1 X9.74 Y69.213 E27.43202
G1 X9.634 Y69.05 E27.4553
G1 X9.04 Y68.057 E27.59384
G1 X8.862 Y67.728 E27.63863
G1 X8.432 Y66.854 E27.75526
G1 X8.365 Y66.702 E27.77515
G1 X7.888 Y65.487 E27.93144
G1 X7.773 Y65.142 E27.97498
G1 X7.515 Y64.285 E28.08215
G1 X7.467 Y64.098 E28.10526
G1 X7.193 Y62.796 E28.26458
G1 X7.142 Y62.472 E28.30385
G1 X7.029 Y61.577 E28.41186
G1 X7.012 Y61.378 E28.43578
G1 X6.957 Y60.101 E28.58882
G1 X6.957 Y59.848 E28.61912
G1 X6.993 Y58.855 E28.73809
G1 X7.007 Y58.676 E28.75959
G1 X7.16 Y57.406 E28.91276
G1 X7.212 Y57.098 E28.95016
G1 X7.402 Y56.163 E29.0644
G1 X7.438 Y56.017 E29.0824
G1 X7.818 Y54.716 E29.24469
G1 X7.924 Y54.416 E29.28279
G1 X8.25 Y53.563 E29.39213
G1 X8.321 Y53.399 E29.41353
G1 X8.897 Y52.206 E29.57215
G1 X9.049 Y51.927 E29.61019
G1 X9.509 Y51.144 E29.71893
G1 X9.627 Y50.96 E29.7451
G1 X10.342 Y49.946 E29.89366
G1 X10.469 Y49.779 E29.91878
G1 X11.114 Y48.998 E30.04006
G1 X11.255 Y48.843 E30.06515
G1 X12.178 Y47.903 E30.22289
G1 X12.393 Y47.705 E30.25789
G1 X13.117 Y47.077 E30.37265
G1 X13.241 Y46.978 E30.39165
G1 X14.325 Y46.191 E30.55204
G1 X14.564 Y46.035 E30.58622
G1 X15.36 Y45.548 E30.69795
G1 X15.542 Y45.447 E30.72287
G1 X16.718 Y44.859 E30.8803
G1 X16.995 Y44.738 E30.91649
G1 X17.848 Y44.393 E31.02667
G1 X18.014 Y44.333 E31.0478
G1 X19.274 Y43.944 E31.2057
G1 X19.515 Y43.882 E31.23549
G1 X19.741 Y43.832 E31.26321
G1 X20.385 Y43.646 E31.34347
G1 X21.012 Y43.375 E31.42526
G1 X21.6 Y43.027 E31.50707
G1 X22.138 Y42.608 E31.58872
G1 X22.62 Y42.126 E31.67034
G1 X23.038 Y41.584 E31.75229
G1 X23.384 Y40.996 E31.83398
G1 X23.652 Y40.368 E31.91574
G1 X23.832 Y39.741 E31.99384
G1 X23.95 Y39.252 E32.05408
G1 X24.246 Y38.267 E32.17723
G1 X24.321 Y38.052 E32.20449
G1 X24.785 Y36.883 E32.35509
G1 X24.91 Y36.609 E32.39115
G1 X25.327 Y35.761 E32.5043
G1 X25.41 Y35.608 E32.52514
G1 X26.084 Y34.488 E32.68165
G1 X26.253 Y34.236 E32.71798
G1 X26.782 Y33.494 E32.82709
G1 X26.925 Y33.312 E32.85481
G1 X27.746 Y32.347 E33.00651
G1 X27.99 Y32.089 E33.04903
G1 X28.628 Y31.452 E33.15698
G1 X28.785 Y31.308 E33.18249
G0 F3600 X28.8 Y31.295
G1 F1350 X28.8 Y88.702 E40.0562
G0 F3600 X30.4 Y89.978
G1 F1350 X30.4 Y30.016 E47.23584
G0 F3600 X32 Y29.007
G1 F1350 X32 Y90.99 E54.65747
G0 F3600 X33.6 Y91.763
G1 F1350 X33.6 Y28.246 E62.26277
G0 F3600 X35.2 Y27.67
G1 F1350 X35.2 Y92.323 E70.00409
G0 F3600 X36.8 Y92.727
G1 F1350 X36.8 Y27.278 E77.84073
G0 F3600 X38.4 Y27.031
G1 F1350 X38.4 Y92.959 E85.73471
G0 F3600 X40 Y93.042
G1 F1350 X40 Y26.958 E93.64738
G0 F3600 X41.6 Y27.041
G1 F1350 X41.6 Y92.969 E101.54137
G0 F3600 X43.2 Y92.722
G1 F1350 X43.2 Y27.274 E109.37788
G0 F3600 X44.8 Y27.674
G1 F1350 X44.8 Y92.33 E117.11956
G0 F3600 X46.4 Y91.754
G1 F1350 X46.4 Y28.239 E124.72463
G0 F3600 X48 Y29.015
G1 F1350 X48 Y90.991 E132.14542
G0 F3600 X49.6 Y89.984
G1 F1350 X49.6 Y30.028 E139.32434
G0 F3600 X51.2 Y31.298
G1 F1350 X51.2 Y88.705 E146.19805
G0 F3600 X52.8 Y87.011
G1 F1350 X52.8 Y32.976 E152.66801
G0 F3600 X54.4 Y35.276
G1 F1350 X54.4 Y84.71 E158.58706
G0 F3600 X56 Y81.387
G1 F1350 X56 Y39.047 E163.65671
G0 F3600 X57.6 Y41.377
G1 F1350 X57.6 Y79.731 E168.24908
G0 F3600 X59.2 Y79.01
G1 F1350 X59.2 Y42.322 E172.64197
G0 F3600 X60.8 Y42.652
G1 F1350 X60.8 Y78.832 E176.97404
G0 F3600 X62.4 Y79.135
G1 F1350 X62.4 Y42.506 E181.35986
G0 F3600 X64 Y41.806
G1 F1350 X64 Y80.043 E185.93823
G0 F3600 X65.6 Y81.634
G1 F1350 X65.6 Y40.24 E190.8946
G0 F3600 X67.2 Y38.218
G1 F1350 X67.2 Y83.011 E196.25796
G0 F3600 X68.8 Y84.141
G1 F1350 X68.8 Y36.696 E201.93886
G0 F3600 X70.4 Y35.48
G1 F1350 X70.4 Y85.075 E207.87719
G0 F3600 X72 Y85.809
G1 F1350 X72 Y34.544 E214.01548
G0 F3600 X73.6 Y33.826
G1 F1350 X73.6 Y86.399 E220.31038
G0 F3600 X75.2 Y86.847
G1 F1350 X75.2 Y33.273 E226.72515
G0 F3600 X76.8 Y32.896
G1 F1350 X76.8 Y87.162 E233.22277
G0 F3600 X78.4 Y87.35
G1 F1350 X78.4 Y32.663 E239.7708
G0 F3600 X80 Y32.595
G1 F1350 X80 Y87.406 E246.33367
G0 F3600 X81.6 Y87.35
G1 F1350 X81.6 Y32.67 E252.88086
G0 F3600 X83.2 Y32.894
G1 F1350 X83.2 Y87.163 E259.37884
G0 F3600 X84.8 Y86.847
G1 F1350 X84.8 Y33.281 E265.79265
G0 F3600 X86.4 Y33.819
G1 F1350 X86.4 Y86.404 E272.08899
G0 F3600 X88 Y85.809
G1 F1350 X88 Y34.548 E278.2268
G0 F3600 X89.6 Y35.489
G1 F1350 X89.6 Y85.069 E284.16334
G0 F3600 X91.2 Y84.144
G1 F1350 X91.2 Y36.69 E289.84531
G0 F3600 X92.8 Y38.219
G1 F1350 X92.8 Y83.011 E295.20855
G0 F3600 X94.4 Y81.629
G1 F1350 X94.4 Y40.244 E300.16384
G0 F3600 X96 Y43.183
G1 F1350 X96 Y79.93 E304.5638
G0 F3600 X97.6 Y77.743
G1 F1350 X97.6 Y49.763 E307.91403
G0 F3600 X99.2 Y58.46
G1 F1350 X99.2 Y74.663 E309.85412
G0 F3600 X100.8 Y67.85
G1 F1350 X100.8 Y65.283 E310.16148
G0 F3600 X27.2 Y87.024
G1 F1350 X27.2 Y32.988 E316.63156
G0 F3600 X25.6 Y35.292
G1 F1350 X25.6 Y84.724 E322.55038
G0 F3600 X24 Y80.906
G1 F1350 X24 Y39.085 E327.55788
G0 F3600 X22.4 Y42.346
G1 F1350 X22.4 Y77.654 E331.78553
G0 F3600 X20.8 Y76.532
G1 F1350 X20.8 Y43.466 E335.74474
G0 F3600 X19.2 Y43.966
G1 F1350 X19.2 Y76.034 E339.58445
G0 F3600 X17.6 Y75.499
G1 F1350 X17.6 Y44.493 E343.297
G0 F3600 X16 Y45.218
G1 F1350 X16 Y74.79 E346.83784
G0 F3600 X14.4 Y73.856
G1 F1350 X14.4 Y46.142 E350.15622
G0 F3600 X12.8 Y47.351
G1 F1350 X12.8 Y72.638 E353.184
G0 F3600 X11.2 Y71.086
G1 F1350 X11.2 Y48.903 E355.84011
G0 F3600 X9.6 Y51.002
G1 F1350 X9.6 Y68.993 E357.99429
G0 F3600 X8 Y65.772
G1 F1350 X8 Y54.217 E359.37785
G0 F3600 X21.829 Y42.265
G0 X22.278 Y41.816
G0 X22.67 Y41.233
G0 X28.784 Y31.307
;TIME_ELAPSED:138.717775
;LAYER:-8
M140 S65
G0 X28.784 Y31.307 Z0.51
;TYPE:SUPPORT
G1 F1350 X28.625 Y31.453 E359.38862
G1 X84.167 Y86.996 E363.30744
G1 X83.164 Y87.167 E363.3582
G1 X82.952 Y87.195 E363.36887
G1 X27.919 Y32.162 E367.25174
G1 X27.746 Y32.346 E367.26435
G1 X27.259 Y32.916 E367.30175
G1 X81.683 Y87.34 E371.14166
G1 X81.367 Y87.372 E371.1575
G1 X80.453 Y87.404 E371.20313
G1 X80.333 Y87.404 E371.20912
G1 X26.631 Y33.702 E374.99808
G1 X26.253 Y34.235 E375.03068
G1 X26.083 Y34.487 E375.04585
G1 X26.052 Y34.537 E375.04878
G1 X78.894 Y87.379 E378.77707
G1 X78.585 Y87.368 E378.7925
G1 X77.58 Y87.268 E378.84288
G1 X77.335 Y87.235 E378.85522
G1 X25.521 Y35.421 E382.51098
G1 X25.409 Y35.607 E382.52181
G1 X25.327 Y35.759 E382.53042
G1 X25.036 Y36.35 E382.56329
G1 X75.64 Y86.954 E386.13367
G1 X74.83 Y86.755 E386.17529
G1 X74.033 Y86.535 E386.21654
G1 X73.703 Y86.431 E386.2338
G1 X24.605 Y37.333 E389.69793
G1 X24.32 Y38.051 E389.73647
G1 X24.245 Y38.266 E389.74783
G1 X24.217 Y38.359 E389.75267
G1 X71.415 Y85.557 E393.08275
G1 X70.433 Y85.093 E393.13693
G1 X69.695 Y84.683 E393.17905
G1 X68.957 Y84.241 E393.22197
G1 X68.191 Y83.747 E393.26744
G1 X23.899 Y39.455 E396.39248
G1 X23.831 Y39.74 E396.4071
G1 X23.652 Y40.366 E396.43958
G1 X23.574 Y40.545 E396.44933
G1 X62.064 Y79.035 E399.165
G1 X61.692 Y78.932 E399.18426
G1 X61.016 Y78.835 E399.21833
G1 X60.442 Y78.826 E399.24697
G1 X23.096 Y41.481 E401.8819
G1 X23.037 Y41.583 E401.88778
G1 X22.62 Y42.125 E401.9219
G1 X22.473 Y42.272 E401.93227
G1 X59.207 Y79.006 E404.52405
G1 X58.991 Y79.058 E404.53513
G1 X58.351 Y79.302 E404.56931
G1 X58.18 Y79.393 E404.57897
G1 X21.72 Y42.933 E407.15142
G1 X21.599 Y43.026 E407.15903
G1 X21.011 Y43.374 E407.19312
G1 X20.827 Y43.454 E407.20313
