;FLAVOR:Marlin
;TIME:1084
;Filament used: 0.454005m
;Layer height: 0.1
;Generated with Cura_SteamEngine 3.1.0
M190 S65
M104 S200
M109 S200
M82 ; absolute extrusion mode
G28 ;Home
G1 Z15.0 F6000 ;Move the platform down 15mm
;Prime the extruder
G92 E0
G1 F200 E3
G92 E0
;LAYER_COUNT:105
;LAYER:0
M107
G0 F3600 X43.931 Y44.931 Z0.3
;TYPE:SKIRT
G1 F1800 X44.399 Y44.471 E0.03274
G1 X44.971 Y44.004 E0.06958
G1 X45.411 Y43.697 E0.09635
G1 X45.949 Y43.435 E0.1262
G1 X46.448 Y43.242 E0.15289
G1 X46.962 Y43.087 E0.17968
G1 X47.291 Y43.029 E0.19634
G1 X47.73 Y42.973 E0.21842
G1 X48.465 Y42.955 E0.2551
G1 X52.158 Y43.242 E0.4399
G1 X57.649 Y43.436 E0.71402
G1 X63.108 Y43.318 E0.98644
G1 X65.82 Y43.145 E1.12201
G1 X71.139 Y42.617 E1.38868
G1 X71.676 Y42.604 E1.41548
G1 X72.3 Y42.69 E1.44691
G1 X73.054 Y42.863 E1.4855
G1 X73.566 Y43.022 E1.51225
G1 X74.129 Y43.302 E1.54362
G1 X74.609 Y43.596 E1.5717
G1 X75.045 Y43.909 E1.59848
G1 X75.428 Y44.284 E1.62522
G1 X75.614 Y44.512 E1.6399
G1 X76.174 Y45.262 E1.6866
G1 X76.462 Y45.715 E1.71338
G1 X76.679 Y46.205 E1.74012
G1 X76.787 Y46.566 E1.75891
G1 X76.952 Y47.245 E1.79378
G1 X77.04 Y47.774 E1.82053
G1 X77.047 Y48.326 E1.84807
G1 X76.622 Y54.924 E2.17793
G1 X76.585 Y60.362 E2.44924
G1 X76.857 Y65.844 E2.72307
G1 X77.383 Y71.138 E2.98849
G1 X77.396 Y71.674 E3.01524
G1 X77.321 Y72.248 E3.04412
G1 X77.169 Y72.958 E3.08035
G1 X77.018 Y73.472 E3.10707
G1 X76.697 Y74.119 E3.14311
G1 X76.332 Y74.7 E3.17734
G1 X76.014 Y75.132 E3.2041
G1 X75.598 Y75.542 E3.23324
G1 X75.156 Y75.913 E3.26203
G1 X74.721 Y76.227 E3.2888
G1 X74.22 Y76.482 E3.31684
G1 X73.631 Y76.726 E3.34865
G1 X73.121 Y76.894 E3.37544
G1 X72.709 Y76.971 E3.39635
G1 X72.27 Y77.027 E3.41843
G1 X71.535 Y77.045 E3.45511
G1 X67.842 Y76.758 E3.63991
G1 X62.351 Y76.564 E3.91403
G1 X56.892 Y76.682 E4.18644
G1 X54.18 Y76.855 E4.32202
G1 X48.862 Y77.383 E4.58864
G1 X48.325 Y77.396 E4.61544
G1 X47.756 Y77.322 E4.64407
G1 X47.047 Y77.171 E4.68023
G1 X46.532 Y77.021 E4.70699
G1 X45.958 Y76.745 E4.73877
G1 X45.448 Y76.442 E4.76836
G1 X45.009 Y76.134 E4.79512
G1 X44.517 Y75.647 E4.82966
G1 X44.023 Y75.052 E4.86824
G1 X43.712 Y74.615 E4.895
G1 X43.47 Y74.136 E4.92177
G1 X43.335 Y73.754 E4.94198
G1 X43.088 Y72.902 E4.98624
G1 X42.978 Y72.378 E5.01295
G1 X42.956 Y71.629 E5.05034
G1 X43.243 Y67.837 E5.24006
G1 X43.436 Y62.351 E5.51393
G1 X43.318 Y56.892 E5.78634
G1 X43.145 Y54.176 E5.92212
G1 X42.617 Y48.857 E6.18879
G1 X42.604 Y48.321 E6.21554
G1 X42.691 Y47.694 E6.24712
G1 X42.864 Y46.943 E6.28557
G1 X43.023 Y46.431 E6.31232
G1 X43.311 Y45.856 E6.3444
G1 X43.615 Y45.365 E6.37321
G1 X43.931 Y44.931 E6.39999
G0 F3600 X44.255 Y45.168
G1 F1800 X44.652 Y44.781 E6.42765
G1 X45.224 Y44.314 E6.46449
G1 X45.64 Y44.026 E6.48974
G1 X46.094 Y43.808 E6.51486
G1 X46.593 Y43.615 E6.54156
G1 X47.077 Y43.471 E6.56675
G1 X47.342 Y43.426 E6.58016
G1 X47.781 Y43.37 E6.60224
G1 X48.434 Y43.354 E6.63483
G1 X52.137 Y43.642 E6.82013
G1 X57.643 Y43.836 E7.09499
G1 X63.117 Y43.718 E7.36816
G1 X65.859 Y43.543 E7.50523
G1 X71.179 Y43.015 E7.77195
G1 X71.684 Y43.005 E7.79715
G1 X72.211 Y43.08 E7.82371
G1 X72.965 Y43.253 E7.8623
G1 X73.447 Y43.405 E7.88752
G1 X73.92 Y43.643 E7.91394
G1 X74.4 Y43.937 E7.94202
G1 X74.809 Y44.234 E7.96724
G1 X75.293 Y44.751 E8.00257
G1 X75.853 Y45.501 E8.04926
G1 X76.123 Y45.929 E8.07451
G1 X76.321 Y46.394 E8.09973
G1 X76.399 Y46.66 E8.11356
G1 X76.564 Y47.339 E8.14842
G1 X76.644 Y47.839 E8.17368
G1 X76.647 Y48.301 E8.19673
G1 X76.222 Y54.896 E8.52644
G1 X76.185 Y60.38 E8.80004
G1 X76.457 Y65.864 E9.07398
G1 X76.985 Y71.178 E9.3404
G1 X76.995 Y71.683 E9.3656
G1 X76.93 Y72.164 E9.38981
G1 X76.778 Y72.874 E9.42604
G1 X76.634 Y73.358 E9.45123
G1 X76.359 Y73.906 E9.48182
G1 X75.994 Y74.487 E9.51605
G1 X75.692 Y74.893 E9.5413
G1 X75.341 Y75.236 E9.56578
G1 X74.899 Y75.607 E9.59457
G1 X74.488 Y75.9 E9.61975
G1 X74.067 Y76.112 E9.64327
G1 X73.478 Y76.356 E9.67508
G1 X72.997 Y76.512 E9.7003
G1 X72.658 Y76.574 E9.7175
G1 X72.219 Y76.63 E9.73958
G1 X71.566 Y76.646 E9.77216
G1 X67.863 Y76.358 E9.95747
G1 X62.357 Y76.164 E10.23233
G1 X56.883 Y76.282 E10.50549
G1 X54.141 Y76.457 E10.64257
G1 X48.822 Y76.985 E10.90924
G1 X48.317 Y76.995 E10.93444
G1 X47.839 Y76.931 E10.9585
G1 X47.13 Y76.78 E10.99467
G1 X46.646 Y76.636 E11.01986
G1 X46.163 Y76.401 E11.04666
G1 X45.653 Y76.098 E11.07625
G1 X45.24 Y75.806 E11.10149
G1 X44.825 Y75.391 E11.13077
G1 X44.331 Y74.796 E11.16935
G1 X44.04 Y74.383 E11.19456
G1 X43.817 Y73.929 E11.21979
G1 X43.72 Y73.643 E11.23486
G1 X43.473 Y72.791 E11.27911
G1 X43.371 Y72.296 E11.30433
G1 X43.355 Y71.659 E11.33612
G1 X43.642 Y67.856 E11.52639
G1 X43.836 Y62.357 E11.80091
G1 X43.718 Y56.883 E12.07407
G1 X43.543 Y54.14 E12.2112
G1 X43.015 Y48.818 E12.47802
G1 X43.005 Y48.312 E12.50327
G1 X43.081 Y47.784 E12.52988
G1 X43.254 Y47.033 E12.56833
G1 X43.406 Y46.551 E12.59354
G1 X43.651 Y46.066 E12.62065
G1 X43.955 Y45.575 E12.64946
G1 X44.255 Y45.168 E12.67469
G1 F1500 E6.17469
G0 F3600 X46.371 Y46.608
G0 X47.294 Y47.501
G0 X58.167 Y53.645
G0 X66.612 Y57.616
G0 X66.693 Y57.673
;TYPE:WALL-INNER
G1 F1500 E12.67469
G1 F1800 X66.39 Y58.184 E12.70433
G1 X66.17 Y58.737 E12.73402
G1 X66.039 Y59.318 E12.76373
G1 X66.002 Y59.911 E12.79338
G1 X66.057 Y60.502 E12.82299
G1 X66.204 Y61.08 E12.85274
G1 X66.44 Y61.626 E12.88242
G1 X66.759 Y62.127 E12.91205
G1 X67.105 Y62.522 E12.93825
G1 X72.918 Y70.566 E13.43339
G1 X73.061 Y70.801 E13.44711
G1 X73.147 Y71.019 E13.4588
G1 X73.197 Y71.242 E13.4702
G1 X73.209 Y71.485 E13.48234
G1 X73.182 Y71.717 E13.49399
G1 X73.121 Y71.934 E13.50524
G1 X73.014 Y72.158 E13.51763
G1 X72.888 Y72.341 E13.52871
G1 X72.719 Y72.514 E13.54078
G1 X72.531 Y72.653 E13.55244
G1 X72.328 Y72.756 E13.5638
G1 X72.099 Y72.83 E13.5758
G1 X71.867 Y72.863 E13.58749
G1 X71.636 Y72.858 E13.59902
G1 X71.402 Y72.813 E13.61091
G1 X71.182 Y72.733 E13.62259
G1 X70.962 Y72.61 E13.63516
G1 X62.728 Y67.025 E14.13154
G1 X62.327 Y66.693 E14.15752
G1 X61.816 Y66.39 E14.18715
G1 X61.263 Y66.17 E14.21685
G1 X60.682 Y66.039 E14.24656
G1 X60.089 Y66.002 E14.2762
G1 X59.498 Y66.057 E14.30582
G1 X58.92 Y66.204 E14.33557
G1 X58.374 Y66.44 E14.36525
G1 X57.873 Y66.759 E14.39488
G1 X57.478 Y67.105 E14.42108
G1 X49.423 Y72.926 E14.91689
G1 X49.206 Y73.057 E14.92954
G1 X48.978 Y73.148 E14.94179
G1 X48.758 Y73.197 E14.95303
G1 X48.515 Y73.209 E14.96517
G1 X48.283 Y73.182 E14.97682
G1 X48.066 Y73.121 E14.98807
G1 X47.842 Y73.014 E15.00045
G1 X47.659 Y72.888 E15.01154
G1 X47.486 Y72.719 E15.0236
G1 X47.347 Y72.531 E15.03527
G1 X47.244 Y72.328 E15.04662
G1 X47.17 Y72.099 E15.05863
G1 X47.137 Y71.867 E15.07032
G1 X47.142 Y71.636 E15.08185
G1 X47.187 Y71.402 E15.09374
G1 X47.267 Y71.182 E15.10542
G1 X47.39 Y70.963 E15.11795
G1 X52.975 Y62.728 E15.61437
G1 X53.307 Y62.327 E15.64034
G1 X53.61 Y61.816 E15.66998
G1 X53.83 Y61.263 E15.69967
G1 X53.961 Y60.682 E15.72938
G1 X53.998 Y60.089 E15.75903
G1 X53.943 Y59.498 E15.78864
G1 X53.796 Y58.92 E15.81839
G1 X53.56 Y58.374 E15.84807
G1 X53.241 Y57.873 E15.8777
G1 X52.895 Y57.478 E15.9039
G1 X47.075 Y49.425 E16.39961
G1 X46.942 Y49.205 E16.41243
G1 X46.852 Y48.978 E16.42461
G1 X46.803 Y48.758 E16.43586
G1 X46.791 Y48.515 E16.448
G1 X46.818 Y48.283 E16.45965
G1 X46.879 Y48.066 E16.4709
G1 X46.986 Y47.842 E16.48328
G1 X47.112 Y47.659 E16.49437
G1 X47.281 Y47.486 E16.50643
G1 X47.469 Y47.347 E16.5181
G1 X47.672 Y47.244 E16.52945
G1 X47.901 Y47.17 E16.54146
G1 X48.133 Y47.137 E16.55315
G1 X48.364 Y47.142 E16.56468
G1 X48.598 Y47.187 E16.57657
G1 X48.818 Y47.267 E16.58825
G1 X49.037 Y47.39 E16.60078
G1 X57.272 Y52.975 E17.0972
G1 X57.673 Y53.307 E17.12317
G1 X58.184 Y53.61 E17.15281
G1 X58.737 Y53.83 E17.1825
G1 X59.318 Y53.961 E17.21221
G1 X59.911 Y53.998 E17.24186
G1 X60.502 Y53.943 E17.27147
G1 X61.08 Y53.796 E17.30122
G1 X61.626 Y53.56 E17.3309
G1 X62.127 Y53.241 E17.36053
G1 X62.522 Y52.895 E17.38673
G1 X70.574 Y47.076 E17.88237
G1 X70.798 Y46.94 E17.89544
G1 X71.019 Y46.853 E17.90729
G1 X71.242 Y46.803 E17.91869
G1 X71.485 Y46.791 E17.93083
G1 X71.717 Y46.818 E17.94248
G1 X71.934 Y46.879 E17.95373
G1 X72.158 Y46.986 E17.96611
G1 X72.341 Y47.112 E17.9772
G1 X72.513 Y47.28 E17.98919
G1 X72.653 Y47.469 E18.00093
G1 X72.756 Y47.672 E18.01228
G1 X72.83 Y47.901 E18.02429
G1 X72.863 Y48.133 E18.03598
G1 X72.858 Y48.364 E18.04751
G1 X72.813 Y48.598 E18.0594
G1 X72.733 Y48.818 E18.07108
G1 X72.61 Y49.037 E18.08361
G1 X67.025 Y57.272 E18.58003
G1 X66.693 Y57.673 E18.606
G0 F3600 X67.021 Y57.904
;TYPE:WALL-OUTER
G1 F1800 X66.75 Y58.361 E18.63251
G1 X66.553 Y58.856 E18.65909
G1 X66.436 Y59.375 E18.68563
G1 X66.403 Y59.905 E18.71212
G1 X66.452 Y60.434 E18.73863
G1 X66.584 Y60.95 E18.7652
G1 X66.795 Y61.438 E18.79172
G1 X67.08 Y61.886 E18.81821
G1 X67.414 Y62.267 E18.84349
G1 X73.256 Y70.351 E19.3411
G1 X73.42 Y70.621 E19.35686
G1 X73.532 Y70.904 E19.37204
G1 X73.595 Y71.19 E19.38665
G1 X73.61 Y71.493 E19.40179
G1 X73.575 Y71.796 E19.417
G1 X73.496 Y72.078 E19.43161
G1 X73.363 Y72.356 E19.44699
G1 X73.196 Y72.598 E19.46166
G1 X72.985 Y72.815 E19.47676
G1 X72.742 Y72.994 E19.49182
G1 X72.479 Y73.128 E19.50654
G1 X72.188 Y73.221 E19.52178
G1 X71.892 Y73.264 E19.53671
G1 X71.595 Y73.257 E19.55153
G1 X71.294 Y73.2 E19.56681
G1 X71.014 Y73.098 E19.58168
G1 X70.752 Y72.951 E19.59667
G1 X62.485 Y67.344 E20.09502
G1 X62.096 Y67.021 E20.12025
G1 X61.639 Y66.75 E20.14676
G1 X61.144 Y66.553 E20.17334
G1 X60.625 Y66.436 E20.19988
G1 X60.095 Y66.403 E20.22637
G1 X59.566 Y66.452 E20.25288
G1 X59.05 Y66.584 E20.27945
G1 X58.562 Y66.795 E20.30597
G1 X58.114 Y67.08 E20.33246
G1 X57.733 Y67.414 E20.35774
G1 X49.643 Y73.26 E20.85571
G1 X49.382 Y73.418 E20.87093
G1 X49.096 Y73.532 E20.88629
G1 X48.81 Y73.595 E20.9009
G1 X48.507 Y73.61 E20.91603
G1 X48.204 Y73.575 E20.93125
G1 X47.922 Y73.496 E20.94586
G1 X47.644 Y73.363 E20.96124
G1 X47.402 Y73.196 E20.97591
G1 X47.185 Y72.985 E20.99101
G1 X47.006 Y72.742 E21.00606
G1 X46.872 Y72.479 E21.02079
G1 X46.779 Y72.188 E21.03603
G1 X46.736 Y71.892 E21.05095
G1 X46.743 Y71.595 E21.06577
G1 X46.8 Y71.294 E21.08106
G1 X46.902 Y71.014 E21.09593
G1 X47.049 Y70.753 E21.11087
G1 X52.656 Y62.485 E21.60927
G1 X52.979 Y62.096 E21.63449
G1 X53.25 Y61.639 E21.661
G1 X53.447 Y61.144 E21.68758
G1 X53.564 Y60.625 E21.71412
G1 X53.597 Y60.095 E21.74062
G1 X53.548 Y59.566 E21.76712
G1 X53.416 Y59.05 E21.79369
G1 X53.205 Y58.562 E21.82022
G1 X52.92 Y58.114 E21.84671
G1 X52.586 Y57.733 E21.87199
G1 X46.738 Y49.641 E22.37009
G1 X46.582 Y49.382 E22.38517
G1 X46.468 Y49.096 E22.40053
G1 X46.405 Y48.81 E22.41514
G1 X46.39 Y48.507 E22.43028
G1 X46.425 Y48.204 E22.4455
G1 X46.504 Y47.922 E22.46011
G1 X46.637 Y47.644 E22.47548
G1 X46.804 Y47.402 E22.49015
G1 X47.015 Y47.185 E22.50525
G1 X47.258 Y47.006 E22.52031
G1 X47.521 Y46.872 E22.53504
G1 X47.812 Y46.779 E22.55028
G1 X48.108 Y46.736 E22.5652
G1 X48.405 Y46.743 E22.58002
G1 X48.706 Y46.8 E22.5953
G1 X48.986 Y46.902 E22.61017
G1 X49.247 Y47.049 E22.62512
G1 X57.515 Y52.656 E23.12352
G1 X57.904 Y52.979 E23.14874
G1 X58.361 Y53.25 E23.17525
G1 X58.856 Y53.447 E23.20183
G1 X59.375 Y53.564 E23.22837
G1 X59.905 Y53.597 E23.25486
G1 X60.434 Y53.548 E23.28137
G1 X60.95 Y53.416 E23.30794
G1 X61.438 Y53.205 E23.33447
G1 X61.886 Y52.92 E23.36096
G1 X62.267 Y52.586 E23.38623
G1 X70.354 Y46.742 E23.88402
G1 X70.621 Y46.58 E23.8996
G1 X70.904 Y46.468 E23.91478
G1 X71.19 Y46.405 E23.92939
G1 X71.493 Y46.39 E23.94453
G1 X71.796 Y46.425 E23.95974
G1 X72.078 Y46.504 E23.97436
G1 X72.356 Y46.637 E23.98973
G1 X72.598 Y46.804 E24.0044
G1 X72.814 Y47.014 E24.01943
G1 X72.994 Y47.258 E24.03456
G1 X73.128 Y47.521 E24.04928
G1 X73.221 Y47.812 E24.06452
G1 X73.264 Y48.108 E24.07945
G1 X73.257 Y48.405 E24.09427
G1 X73.2 Y48.706 E24.10955
G1 X73.098 Y48.986 E24.12442
G1 X72.951 Y49.247 E24.13936
G1 X67.344 Y57.515 E24.63776
G1 X67.021 Y57.904 E24.66299
G0 F3600 X66.919 Y58.076
G0 X66.49 Y57.82
G0 X66.373 Y57.448
;TYPE:SKIN
G1 F1800 X66.039 Y58.011 E24.69565
G1 X65.796 Y58.622 E24.72845
G1 X65.651 Y59.263 E24.76124
G1 X65.61 Y59.917 E24.79393
G1 X65.671 Y60.568 E24.82655
G1 X65.834 Y61.207 E24.85945
G1 X66.095 Y61.809 E24.89219
G1 X66.446 Y62.361 E24.92482
G1 X66.8 Y62.765 E24.95162
G1 X72.589 Y70.775 E25.44468
G1 X72.71 Y70.974 E25.4563
G1 X72.774 Y71.137 E25.46504
G1 X72.809 Y71.29 E25.47287
G1 X72.817 Y71.471 E25.48191
G1 X72.797 Y71.643 E25.49055
G1 X72.753 Y71.802 E25.49878
G1 X72.678 Y71.959 E25.50746
G1 X72.588 Y72.089 E25.51535
G1 X72.46 Y72.219 E25.52445
G1 X72.324 Y72.321 E25.53293
G1 X72.177 Y72.396 E25.54116
G1 X72.012 Y72.448 E25.5498
G1 X71.845 Y72.473 E25.55822
G1 X71.678 Y72.468 E25.56656
G1 X71.508 Y72.436 E25.57519
G1 X71.348 Y72.378 E25.58368
G1 X71.161 Y72.273 E25.59438
G1 X62.959 Y66.711 E26.08879
G1 X62.552 Y66.373 E26.11518
G1 X61.989 Y66.039 E26.14784
G1 X61.378 Y65.796 E26.18065
G1 X60.737 Y65.651 E26.21344
G1 X60.083 Y65.61 E26.24613
G1 X59.432 Y65.671 E26.27875
G1 X58.793 Y65.834 E26.31165
G1 X58.191 Y66.095 E26.34438
G1 X57.639 Y66.446 E26.37702
G1 X57.235 Y66.8 E26.40382
G1 X49.21 Y72.6 E26.89781
G1 X49.036 Y72.705 E26.90795
G1 X48.856 Y72.776 E26.9176
G1 X48.711 Y72.809 E26.92502
G1 X48.529 Y72.817 E26.93411
G1 X48.359 Y72.798 E26.94264
G1 X48.201 Y72.753 E26.95084
G1 X48.036 Y72.674 E26.95997
G1 X47.911 Y72.588 E26.96754
G1 X47.781 Y72.46 E26.97664
G1 X47.679 Y72.324 E26.98512
G1 X47.604 Y72.177 E26.99335
G1 X47.552 Y72.012 E27.00198
G1 X47.527 Y71.845 E27.01041
G1 X47.532 Y71.678 E27.01874
G1 X47.564 Y71.508 E27.02737
G1 X47.624 Y71.343 E27.03613
G1 X47.722 Y71.168 E27.04614
G1 X53.289 Y62.959 E27.54098
G1 X53.627 Y62.552 E27.56738
G1 X53.961 Y61.989 E27.60004
G1 X54.204 Y61.378 E27.63284
G1 X54.349 Y60.737 E27.66563
G1 X54.39 Y60.083 E27.69832
G1 X54.329 Y59.432 E27.73094
G1 X54.166 Y58.793 E27.76384
G1 X53.905 Y58.191 E27.79658
G1 X53.554 Y57.639 E27.82921
G1 X53.2 Y57.235 E27.85601
G1 X47.401 Y49.212 E28.34989
G1 X47.295 Y49.035 E28.36018
G1 X47.224 Y48.856 E28.36979
G1 X47.191 Y48.711 E28.37721
G1 X47.183 Y48.529 E28.3863
G1 X47.202 Y48.359 E28.39483
G1 X47.247 Y48.201 E28.40303
G1 X47.326 Y48.036 E28.41216
G1 X47.412 Y47.911 E28.41973
G1 X47.54 Y47.781 E28.42883
G1 X47.676 Y47.679 E28.43731
G1 X47.823 Y47.604 E28.44554
G1 X47.988 Y47.552 E28.45417
G1 X48.155 Y47.527 E28.4626
G1 X48.322 Y47.532 E28.47093
G1 X48.492 Y47.564 E28.47956
G1 X48.657 Y47.624 E28.48832
G1 X48.828 Y47.72 E28.49811
G1 X57.041 Y53.289 E28.99317
G1 X57.448 Y53.627 E29.01956
G1 X58.011 Y53.961 E29.05222
G1 X58.622 Y54.204 E29.08503
G1 X59.263 Y54.349 E29.11782
G1 X59.917 Y54.39 E29.15051
G1 X60.568 Y54.329 E29.18313
G1 X61.207 Y54.166 E29.21603
G1 X61.809 Y53.905 E29.24877
G1 X62.361 Y53.554 E29.2814
G1 X62.765 Y53.2 E29.3082
G1 X70.788 Y47.402 E29.80205
G1 X70.971 Y47.291 E29.81273
G1 X71.137 Y47.226 E29.82162
G1 X71.29 Y47.191 E29.82945
G1 X71.471 Y47.183 E29.83849
G1 X71.641 Y47.202 E29.84703
G1 X71.799 Y47.247 E29.85522
G1 X71.964 Y47.326 E29.86435
G1 X72.089 Y47.412 E29.87192
G1 X72.218 Y47.539 E29.88095
G1 X72.321 Y47.676 E29.8895
G1 X72.396 Y47.823 E29.89773
G1 X72.448 Y47.988 E29.90637
G1 X72.473 Y48.155 E29.91479
G1 X72.468 Y48.322 E29.92312
G1 X72.436 Y48.492 E29.93176
G1 X72.376 Y48.657 E29.94051
G1 X72.28 Y48.828 E29.9503
G1 X66.711 Y57.041 E30.44536
G1 X66.373 Y57.448 E30.47176
G0 F3600 X72.233 Y47.909
G1 F1800 X71.746 Y47.422 E30.50612
G0 F3600 X71.166 Y47.407
G1 F1800 X72.245 Y48.486 E30.58225
G1 X72.315 Y48.556
G0 F3600 X72.045 Y48.852
G1 F1800 X70.804 Y47.611 E30.66981
G1 X70.734 Y47.541
G0 F3600 X70.476 Y47.849
G1 F1800 X71.817 Y49.189 E30.76438
G1 X71.887 Y49.259
G0 F3600 X71.588 Y49.527
G1 F1800 X70.147 Y48.086 E30.86605
G1 X70.077 Y48.016
G0 F3600 X69.819 Y48.323
G1 F1800 X71.359 Y49.863 E30.97471
G1 X71.429 Y49.933
G0 F3600 X71.131 Y50.201
G1 F1800 X69.491 Y48.561 E31.09042
G1 X69.421 Y48.491
G0 F3600 X69.162 Y48.798
G1 F1800 X70.903 Y50.538 E31.21322
G1 X70.973 Y50.608
G0 F3600 X70.674 Y50.875
G1 F1800 X68.834 Y49.035 E31.34304
G1 X68.764 Y48.965
G0 F3600 X68.506 Y49.273
G1 F1800 X70.445 Y51.212 E31.47985
G1 X70.515 Y51.282
G0 F3600 X70.217 Y51.549
