;FLAVOR:Marlin
;TIME:1472
;Filament used: 0.789119m
;Layer height: 0.1
;Generated with Cura_SteamEngine 3.1.0
M190 S60
M104 S200
M109 S200
M82 ; absolute extrusion mode
G28 ;Home
G1 Z15.0 F6000 ;Move the platform down 15mm
;Prime the extruder
G92 E0
G1 F200 E3
G92 E0
;LAYER_COUNT:105
;LAYER:-9
M107
G0 F3600 X37.672 Y52.4 Z0.36
G1 F1350 X38.107 Y52.085 E0.06431
G1 X38.347 Y51.923 E0.09898
G1 X38.981 Y51.544 E0.18742
G1 X39.142 Y51.457 E0.20933
G1 X39.543 Y51.264 E0.26262
G1 X39.873 Y51.12 E0.30573
G1 X40.434 Y50.903 E0.37775
G1 X40.594 Y50.848 E0.39801
G1 X41.035 Y50.719 E0.45303
G1 X41.313 Y50.647 E0.48741
G1 X41.952 Y50.507 E0.56574
G1 X45.514 Y49.88 E0.9988
G1 X46.165 Y49.722 E1.07901
G1 X46.803 Y49.479 E1.16075
G1 X47.405 Y49.157 E1.2425
G1 X47.962 Y48.762 E1.32426
G1 X48.465 Y48.3 E1.40604
G1 X48.904 Y47.777 E1.4878
G1 X49.276 Y47.204 E1.5696
G1 X49.571 Y46.589 E1.65127
G1 X49.785 Y45.945 E1.73252
G1 X49.881 Y45.509 E1.78598
G1 X50.518 Y41.899 E2.22491
G1 X50.647 Y41.313 E2.29675
G1 X50.763 Y40.883 E2.35008
G1 X50.933 Y40.348 E2.41729
G1 X51.002 Y40.157 E2.44161
G1 X51.147 Y39.802 E2.48752
G1 X51.297 Y39.473 E2.53082
G1 X51.596 Y38.885 E2.6098
G1 X51.915 Y38.361 E2.68326
G1 X52.109 Y38.074 E2.72474
G1 X52.467 Y37.588 E2.79701
G1 X52.58 Y37.446 E2.81874
G1 X52.841 Y37.147 E2.86626
G1 X53.108 Y36.865 E2.91276
G1 X53.556 Y36.429 E2.98762
G1 X53.689 Y36.31 E3.00898
G1 X53.999 Y36.055 E3.05705
G1 X54.219 Y35.886 E3.09026
G1 X54.813 Y35.473 E3.17689
G1 X54.975 Y35.37 E3.19988
G1 X55.299 Y35.182 E3.24473
G1 X55.524 Y35.062 E3.27526
G1 X56.19 Y34.741 E3.36378
G1 X56.36 Y34.669 E3.38589
G1 X56.974 Y34.444 E3.46419
G1 X57.661 Y34.243 E3.5499
G1 X57.897 Y34.186 E3.57897
G1 X58.283 Y34.11 E3.62607
G1 X58.555 Y34.065 E3.65908
G1 X59.251 Y33.984 E3.74298
G1 X59.451 Y33.97 E3.76699
G1 X59.883 Y33.957 E3.81874
G1 X60.214 Y33.964 E3.85838
G1 X61.153 Y34.032 E3.97111
G1 X61.6 Y34.092 E4.02511
G1 X62.222 Y34.216 E4.10105
G1 X62.394 Y34.258 E4.12225
G1 X62.801 Y34.374 E4.17292
G1 X63.04 Y34.452 E4.20303
G1 X63.74 Y34.714 E4.29252
G1 X63.943 Y34.801 E4.31896
G1 X64.346 Y34.996 E4.37257
G1 X64.675 Y35.173 E4.4173
G1 X65.193 Y35.477 E4.48922
G1 X65.354 Y35.581 E4.51217
G1 X65.787 Y35.89 E4.57586
G1 X66.014 Y36.067 E4.61033
G1 X66.513 Y36.493 E4.68889
G1 X66.643 Y36.613 E4.71007
G1 X66.957 Y36.93 E4.7635
G1 X67.186 Y37.179 E4.804
G1 X67.592 Y37.662 E4.87955
G1 X67.915 Y38.107 E4.94539
G1 X68.077 Y38.347 E4.98006
G1 X68.456 Y38.981 E5.06851
G1 X68.543 Y39.142 E5.09042
G1 X68.724 Y39.514 E5.13995
G1 X68.88 Y39.873 E5.18682
G1 X69.096 Y40.431 E5.25847
G1 X69.24 Y40.887 E5.31572
G1 X69.353 Y41.313 E5.36849
G1 X69.491 Y41.94 E5.44537
G1 X70.12 Y45.514 E5.87988
G1 X70.278 Y46.165 E5.96009
G1 X70.521 Y46.803 E6.04184
G1 X70.843 Y47.405 E6.12358
G1 X71.238 Y47.962 E6.20534
G1 X71.7 Y48.465 E6.28712
G1 X72.223 Y48.904 E6.36888
G1 X72.796 Y49.276 E6.45068
G1 X73.411 Y49.571 E6.53235
G1 X74.055 Y49.785 E6.61361
G1 X74.491 Y49.881 E6.66706
G1 X78.101 Y50.518 E7.10599
G1 X78.771 Y50.668 E7.1882
G1 X78.941 Y50.713 E7.20925
G1 X79.657 Y50.935 E7.29901
G1 X80.209 Y51.152 E7.37003
G1 X80.527 Y51.297 E7.41188
G1 X81.115 Y51.596 E7.49086
G1 X81.643 Y51.918 E7.56491
G1 X81.926 Y52.109 E7.60579
G1 X82.412 Y52.467 E7.67807
G1 X82.554 Y52.58 E7.6998
G1 X82.853 Y52.841 E7.74732
G1 X83.131 Y53.104 E7.79314
G1 X83.571 Y53.556 E7.86867
G1 X83.69 Y53.689 E7.89004
G1 X84.1 Y54.2 E7.96849
G1 X84.528 Y54.813 E8.05801
G1 X84.626 Y54.967 E8.07986
G1 X84.989 Y55.623 E8.16963
G1 X85.261 Y56.194 E8.24536
G1 X85.447 Y56.665 E8.306
G1 X85.598 Y57.108 E8.36204
G1 X85.757 Y57.661 E8.43093
G1 X85.814 Y57.897 E8.46
G1 X85.888 Y58.27 E8.50554
G1 X85.936 Y58.555 E8.54014
G1 X86.016 Y59.251 E8.62403
G1 X86.03 Y59.45 E8.64791
G1 X86.043 Y59.875 E8.69883
G1 X86.04 Y60.21 E8.73894
G1 X86.008 Y60.85 E8.81567
G1 X85.942 Y61.402 E8.88223
G1 X85.884 Y61.748 E8.92424
G1 X85.751 Y62.363 E8.99958
G1 X85.698 Y62.565 E9.02458
G1 X85.592 Y62.912 E9.06803
G1 X85.5 Y63.187 E9.10275
G1 X85.227 Y63.883 E9.19227
G1 X85.145 Y64.067 E9.21639
G1 X84.953 Y64.45 E9.26769
G1 X84.791 Y64.743 E9.30777
G1 X84.46 Y65.292 E9.38453
G1 X84.182 Y65.69 E9.44266
G1 X83.974 Y65.964 E9.48385
G1 X83.509 Y66.511 E9.56982
G1 X83.387 Y66.643 E9.59134
G1 X83.07 Y66.957 E9.64476
G1 X82.821 Y67.186 E9.68527
G1 X82.338 Y67.592 E9.76082
G1 X81.893 Y67.915 E9.82666
G1 X81.653 Y68.077 E9.86133
G1 X81.019 Y68.456 E9.94977
G1 X80.858 Y68.543 E9.97168
G1 X80.457 Y68.736 E10.02497
G1 X80.129 Y68.879 E10.06781
G1 X79.566 Y69.097 E10.1401
G1 X79.406 Y69.152 E10.16036
G1 X78.965 Y69.281 E10.21538
G1 X78.687 Y69.353 E10.24976
G1 X78.048 Y69.493 E10.32809
G1 X74.486 Y70.12 E10.76115
G1 X73.835 Y70.278 E10.84136
G1 X73.197 Y70.521 E10.9231
G1 X72.595 Y70.843 E11.00485
G1 X72.038 Y71.238 E11.08661
G1 X71.535 Y71.7 E11.16839
G1 X71.096 Y72.223 E11.25015
G1 X70.724 Y72.796 E11.33195
G1 X70.429 Y73.411 E11.41362
G1 X70.215 Y74.055 E11.49487
G1 X70.119 Y74.491 E11.54833
G1 X69.482 Y78.101 E11.98725
G1 X69.332 Y78.771 E12.06946
G1 X69.238 Y79.111 E12.1117
G1 X69.067 Y79.652 E12.17964
G1 X68.998 Y79.843 E12.20395
G1 X68.745 Y80.441 E12.2817
G1 X68.405 Y81.114 E12.37198
G1 X68.085 Y81.639 E12.4456
G1 X67.891 Y81.926 E12.48708
G1 X67.533 Y82.412 E12.55936
G1 X67.423 Y82.551 E12.58058
G1 X66.98 Y83.045 E12.66003
G1 X66.447 Y83.568 E12.74944
G1 X66.315 Y83.686 E12.77064
G1 X66.001 Y83.945 E12.81938
G1 X65.711 Y84.166 E12.86304
G1 X65.196 Y84.522 E12.938
G1 X65.039 Y84.622 E12.96029
G1 X64.708 Y84.814 E13.00611
G1 X64.476 Y84.938 E13.0376
G1 X63.81 Y85.259 E13.12613
G1 X63.64 Y85.331 E13.14823
G1 X63.185 Y85.501 E13.20639
G1 X62.892 Y85.598 E13.24335
G1 X62.339 Y85.757 E13.31224
G1 X62.103 Y85.814 E13.34131
G1 X61.717 Y85.89 E13.38842
G1 X61.445 Y85.935 E13.42143
G1 X60.749 Y86.016 E13.50533
G1 X60.549 Y86.03 E13.52934
G1 X60.117 Y86.043 E13.58108
G1 X59.781 Y86.039 E13.62132
G1 X59.15 Y86.008 E13.69696
G1 X58.595 Y85.941 E13.7639
G1 X58.305 Y85.894 E13.79908
G1 X57.63 Y85.749 E13.88174
G1 X57.434 Y85.698 E13.90599
G1 X57.088 Y85.592 E13.94932
G1 X56.807 Y85.498 E13.9848
G1 X56.117 Y85.227 E14.07356
G1 X55.933 Y85.145 E14.09768
G1 X55.541 Y84.948 E14.15021
G1 X55.257 Y84.791 E14.18907
G1 X54.718 Y84.466 E14.26443
G1 X54.299 Y84.174 E14.32558
G1 X54.026 Y83.966 E14.36668
G1 X53.487 Y83.507 E14.45144
G1 X53.357 Y83.387 E14.47263
G1 X53.043 Y83.07 E14.52605
G1 X52.814 Y82.821 E14.56656
G1 X52.408 Y82.338 E14.64211
G1 X52.085 Y81.893 E14.70795
G1 X51.918 Y81.645 E14.74375
G1 X51.536 Y81.005 E14.83299
G1 X51.456 Y80.856 E14.85324
G1 X51.262 Y80.452 E14.9069
G1 X51.117 Y80.118 E14.9505
G1 X50.903 Y79.566 E15.02139
G1 X50.847 Y79.403 E15.04203
G1 X50.717 Y78.959 E15.09742
G1 X50.647 Y78.687 E15.13105
G1 X50.507 Y78.048 E15.20938
G1 X49.88 Y74.486 E15.64244
G1 X49.722 Y73.835 E15.72265
G1 X49.479 Y73.197 E15.80439
G1 X49.157 Y72.595 E15.88614
G1 X48.762 Y72.038 E15.9679
G1 X48.3 Y71.535 E16.04967
G1 X47.777 Y71.096 E16.13143
G1 X47.204 Y70.724 E16.21323
G1 X46.589 Y70.429 E16.2949
G1 X45.945 Y70.215 E16.37616
G1 X45.509 Y70.119 E16.42962
G1 X41.894 Y69.481 E16.86915
G1 X41.229 Y69.332 E16.95075
G1 X41.059 Y69.287 E16.97181
G1 X40.343 Y69.065 E17.06157
G1 X40.153 Y68.996 E17.08577
G1 X39.557 Y68.744 E17.16325
G1 X38.885 Y68.404 E17.25343
G1 X38.357 Y68.082 E17.32748
G1 X38.074 Y67.891 E17.36836
G1 X37.585 Y67.531 E17.44106
G1 X37.446 Y67.42 E17.46236
G1 X37.15 Y67.161 E17.50946
G1 X36.858 Y66.885 E17.55757
G1 X36.429 Y66.444 E17.63123
G1 X36.31 Y66.311 E17.6526
G1 X36.047 Y65.991 E17.7022
G1 X35.827 Y65.701 E17.74578
G1 X35.473 Y65.187 E17.82051
G1 X35.37 Y65.025 E17.8435
G1 X35.061 Y64.476 E17.91893
G1 X34.739 Y63.806 E18.00794
G1 X34.551 Y63.329 E18.06933
G1 X34.396 Y62.873 E18.12699
G1 X34.243 Y62.339 E18.19351
G1 X34.186 Y62.103 E18.22258
G1 X34.112 Y61.729 E18.26823
G1 X34.053 Y61.352 E18.31392
G1 X33.984 Y60.749 E18.38659
G1 X33.97 Y60.549 E18.41059
G1 X33.957 Y60.125 E18.46139
G1 X33.961 Y59.781 E18.50258
G1 X33.992 Y59.15 E18.57822
G1 X34.058 Y58.598 E18.64479
G1 X34.116 Y58.252 E18.6868
G1 X34.249 Y57.637 E18.76214
G1 X34.302 Y57.435 E18.78714
G1 X34.408 Y57.088 E18.83059
G1 X34.502 Y56.807 E18.86606
G1 X34.777 Y56.108 E18.956
G1 X34.855 Y55.933 E18.97894
G1 X35.047 Y55.551 E19.03014
G1 X35.162 Y55.339 E19.05902
G1 X35.534 Y54.718 E19.14569
G1 X35.818 Y54.311 E19.20512
G1 X36.026 Y54.036 E19.2464
G1 X36.493 Y53.487 E19.3327
G1 X36.613 Y53.357 E19.35389
G1 X36.93 Y53.043 E19.40731
G1 X37.185 Y52.81 E19.44867
G1 X37.672 Y52.4 E19.5249
G0 F3600 X38.4 Y51.891
G1 F1350 X38.4 Y68.108 E21.46666
G0 F3600 X40 Y68.931
G1 F1350 X40 Y51.07 E23.60528
G0 F3600 X41.6 Y50.584
G1 F1350 X41.6 Y69.415 E25.86003
G0 F3600 X43.2 Y69.711
G1 F1350 X43.2 Y50.287 E28.18579
G0 F3600 X44.8 Y50.005
G1 F1350 X44.8 Y69.993 E30.57909
G0 F3600 X46.4 Y70.366
G1 F1350 X46.4 Y49.632 E33.0617
G0 F3600 X48 Y48.727
G1 F1350 X48 Y71.283 E35.76248
G0 F3600 X49.6 Y73.514
G1 F1350 X49.6 Y46.501 E38.99692
G0 F3600 X51.2 Y39.685
G1 F1350 X51.2 Y80.309 E43.8611
G0 F3600 X52.8 Y82.804
G1 F1350 X52.8 Y37.193 E49.3224
G0 F3600 X54.4 Y35.76
G1 F1350 X54.4 Y84.244 E55.1277
G0 F3600 X56 Y85.174
G1 F1350 X56 Y34.832 E61.15548
G0 F3600 X57.6 Y34.26
G1 F1350 X57.6 Y85.741 E67.31963
G0 F3600 X59.2 Y86.01
G1 F1350 X59.2 Y33.989 E73.54844
G0 F3600 X60.8 Y34.007
G1 F1350 X60.8 Y86.011 E79.77522
G0 F3600 X62.4 Y85.74
G1 F1350 X62.4 Y34.26 E85.93925
G0 F3600 X64 Y34.829
G1 F1350 X64 Y85.168 E91.96667
G0 F3600 X65.6 Y84.243
G1 F1350 X65.6 Y35.757 E97.77221
G0 F3600 X67.2 Y37.196
G1 F1350 X67.2 Y82.8 E103.23267
G0 F3600 X68.8 Y80.311
G1 F1350 X68.8 Y39.689 E108.09661
G0 F3600 X70.4 Y46.486
G1 F1350 X70.4 Y73.499 E111.33105
G0 F3600 X72 Y71.273
G1 F1350 X72 Y48.717 E114.03183
G0 F3600 X73.6 Y49.634
G1 F1350 X73.6 Y70.368 E116.51444
G0 F3600 X75.2 Y69.995
G1 F1350 X75.2 Y50.007 E118.90774
G0 F3600 X76.8 Y50.289
G1 F1350 X76.8 Y69.713 E121.2335
G0 F3600 X78.4 Y69.416
G1 F1350 X78.4 Y50.585 E123.48825
G0 F3600 X80 Y51.07
G1 F1350 X80 Y68.929 E125.62663
G0 F3600 X81.6 Y68.109
G1 F1350 X81.6 Y51.892 E127.5684
G0 F3600 X83.2 Y53.175
G1 F1350 X83.2 Y66.829 E129.20328
G0 F3600 X84.8 Y64.727
G1 F1350 X84.8 Y55.282 E130.33419
G0 F3600 X36.8 Y53.171
G1 F1350 X36.8 Y66.825 E131.96907
G0 F3600 X35.2 Y64.722
G1 F1350 X35.2 Y55.275 E133.10022
G0 F3600 X38.011 Y52.154
;TIME_ELAPSED:52.888651
;LAYER:-8
M140 S60
G0 X38.011 Y52.154 Z0.51
;TYPE:SUPPORT
G1 F1350 X38.107 Y52.084 E133.10615
G1 X38.347 Y51.922 E133.12059
G1 X38.877 Y51.605 E133.15141
G1 X68.397 Y81.125 E135.2342
G1 X68.404 Y81.112 E135.23494
G1 X68.744 Y80.44 E135.27251
G1 X68.858 Y80.172 E135.28704
G1 X39.826 Y51.14 E137.3354
G1 X39.873 Y51.118 E137.33799
G1 X40.434 Y50.902 E137.36798
G1 X40.594 Y50.847 E137.37643
G1 X40.867 Y50.767 E137.39062
G1 X69.231 Y79.13 E139.39182
G1 X69.237 Y79.11 E139.39286
G1 X69.331 Y78.77 E139.41046
G1 X69.481 Y78.099 E139.44476
G1 X69.502 Y77.987 E139.45045
G1 X42.011 Y50.496 E141.39008
G1 X43.213 Y50.284 E141.45098
G1 X69.714 Y76.785 E143.32077
G1 X69.926 Y75.583 E143.38166
G1 X44.416 Y50.073 E145.18153
G1 X45.513 Y49.879 E145.23711
G1 X45.613 Y49.855 E145.24224
G1 X70.142 Y74.384 E146.97289
G1 X70.214 Y74.054 E146.98974
G1 X70.429 Y73.41 E147.02361
G1 X70.478 Y73.307 E147.0293
G1 X46.692 Y49.52 E148.70757
G1 X46.802 Y49.478 E148.71345
G1 X47.405 Y49.155 E148.74757
G1 X47.602 Y49.016 E148.7596
G1 X70.982 Y72.397 E150.40922
G1 X71.096 Y72.221 E150.41968
G1 X71.535 Y71.699 E150.45371
G1 X71.62 Y71.62 E150.4595
G1 X48.379 Y48.379 E152.09928
G1 X48.464 Y48.3 E152.10507
G1 X48.902 Y47.777 E152.1391
G1 X49.015 Y47.601 E152.14954
G1 X72.396 Y70.982 E153.79919
G1 X72.593 Y70.842 E153.81125
G1 X73.196 Y70.52 E153.84536
G1 X73.306 Y70.478 E153.85123
G1 X49.52 Y46.691 E155.5295
G1 X49.57 Y46.589 E155.53516
G1 X49.784 Y45.944 E155.56907
G1 X49.856 Y45.614 E155.58592
G1 X74.386 Y70.143 E157.31661
G1 X74.485 Y70.119 E157.32169
G1 X75.582 Y69.925 E157.37727
G1 X50.072 Y44.415 E159.17714
G1 X50.284 Y43.213 E159.23803
G1 X76.785 Y69.714 E161.10782
G1 X77.988 Y69.502 E161.16876
G1 X50.496 Y42.011 E163.10844
G1 X50.517 Y41.898 E163.11417
G1 X50.646 Y41.312 E163.14411
G1 X50.762 Y40.882 E163.16632
G1 X50.766 Y40.867 E163.1671
G1 X79.13 Y69.231 E165.16833
G1 X79.405 Y69.152 E165.18261
G1 X79.565 Y69.097 E165.19105
G1 X80.127 Y68.879 E165.22112
G1 X80.173 Y68.859 E165.22362
G1 X51.137 Y39.823 E167.27227
G1 X51.146 Y39.801 E167.27346
G1 X51.296 Y39.473 E167.29145
G1 X51.595 Y38.884 E167.32441
G1 X51.601 Y38.873 E167.32503
G1 X81.121 Y68.393 E169.40783
G1 X81.652 Y68.077 E169.43865
G1 X81.892 Y67.915 E169.4531
G1 X81.987 Y67.845 E169.45899
G1 X52.154 Y38.011 E171.5639
G1 X52.466 Y37.587 E171.59017
G1 X52.579 Y37.445 E171.59922
G1 X52.776 Y37.219 E171.61418
G1 X82.777 Y67.221 E173.73094
G1 X82.819 Y67.185 E173.7337
G1 X83.069 Y66.957 E173.75058
G1 X83.386 Y66.643 E173.77285
G1 X83.495 Y66.525 E173.78086
G1 X53.477 Y36.506 E175.89883
G1 X53.555 Y36.429 E175.9043
G1 X53.687 Y36.309 E175.9132
G1 X53.998 Y36.054 E175.93326
G1 X54.218 Y35.885 E175.9471
G1 X54.249 Y35.864 E175.94897
G1 X84.135 Y65.751 E178.05762
G1 X84.181 Y65.69 E178.06143
G1 X84.458 Y65.292 E178.08563
G1 X84.697 Y64.898 E178.10862
G1 X55.097 Y35.298 E180.19706
G1 X55.297 Y35.182 E180.20859
G1 X55.522 Y35.061 E180.22134
G1 X56.03 Y34.817 E180.24945
G1 X85.186 Y63.973 E182.30657
G1 X85.226 Y63.882 E182.31153
G1 X85.499 Y63.187 E182.34878
G1 X85.579 Y62.951 E182.36121
G1 X57.049 Y34.421 E184.37416
G1 X57.66 Y34.242 E184.40592
G1 X57.896 Y34.185 E184.41803
G1 X58.173 Y34.132 E184.4321
G1 X70.321 Y46.279 E185.28917
G1 X70.277 Y46.164 E185.29532
G1 X70.119 Y45.513 E185.32874
G1 X69.938 Y44.482 E185.38096
G1 X59.428 Y33.972 E186.1225
G1 X59.45 Y33.97 E186.1236
G1 X59.882 Y33.956 E186.14517
G1 X60.212 Y33.963 E186.16163
G1 X60.882 Y34.012 E186.19515
G1 X69.635 Y42.765 E186.81272
G1 X69.49 Y41.939 E186.85456
G1 X69.352 Y41.312 E186.88659
G1 X69.263 Y40.979 E186.90379
G1 X62.602 Y34.318 E187.37376
G1 X62.8 Y34.374 E187.38402
G1 X63.039 Y34.452 E187.39656
G1 X63.739 Y34.713 E187.43384
G1 X63.942 Y34.8 E187.44485
G1 X64.345 Y34.996 E187.46721
G1 X64.674 Y35.172 E187.48583
G1 X65.151 Y35.452 E187.51342
G1 X65.192 Y35.476 E187.51579
G1 X65.352 Y35.58 E187.52531
G1 X65.786 Y35.889 E187.55189
G1 X66.013 Y36.067 E187.56628
G1 X66.512 Y36.493 E187.59902
G1 X66.642 Y36.613 E187.60784
G1 X66.956 Y36.93 E187.6301
G1 X67.185 Y37.178 E187.64695
G1 X67.59 Y37.661 E187.67839
G1 X67.914 Y38.106 E187.70585
G1 X68.076 Y38.347 E187.72034
G0 F3600 X68.123 Y38.424
G1 F1350 X65.151 Y35.452 E187.93003
G0 F3600 X70.321 Y46.279
G1 F1350 X70.52 Y46.802 E187.95795
G1 X70.842 Y47.404 E187.99201
G1 X71.237 Y47.962 E188.02612
G1 X71.699 Y48.465 E188.06019
G1 X72.222 Y48.903 E188.09423
G1 X72.795 Y49.275 E188.12831
G1 X73.41 Y49.571 E188.16236
G0 F3600 X73.713 Y49.672
G1 F1350 X85.866 Y61.825 E189.01982
G1 X85.883 Y61.748 E189.02375
G1 X85.941 Y61.401 E189.04131
G1 X86.007 Y60.85 E189.06899
G1 X86.021 Y60.565 E189.08323
G1 X75.519 Y50.063 E189.8242
G1 X77.235 Y50.365 E189.91113
G1 X86.001 Y59.131 E190.52962
G1 X85.935 Y58.554 E190.55859
G1 X85.887 Y58.27 E190.57296
G1 X85.813 Y57.897 E190.59193
G1 X85.755 Y57.661 E190.60406
G1 X85.68 Y57.395 E190.61785
G1 X79.022 Y50.738 E191.08757
G1 X79.656 Y50.935 E191.12069
G1 X80.208 Y51.152 E191.15028
G1 X80.526 Y51.297 E191.16772
G1 X81.114 Y51.595 E191.20061
G1 X81.576 Y51.878 E191.22764
G1 X81.641 Y51.917 E191.23142
G1 X81.925 Y52.109 E191.24852
G1 X82.411 Y52.466 E191.27861
G1 X82.553 Y52.58 E191.28769
G1 X82.852 Y52.841 E191.30749
G1 X83.13 Y53.103 E191.32655
G1 X83.57 Y53.556 E191.35806
G1 X83.688 Y53.689 E191.36693
G1 X84.099 Y54.199 E191.3996
G1 X84.526 Y54.812 E191.43688
G0 F3600 X84.555 Y54.856
G1 F1350 X81.576 Y51.878 E191.64703
G0 F3600 X70.859 Y73.578
G0 X67.845 Y81.987
G1 F1350 X67.532 Y82.411 E191.67332
G1 X67.422 Y82.55 E191.68216
G1 X67.22 Y82.776 E191.69728
G1 X37.222 Y52.779 E193.81377
G1 X37.185 Y52.809 E193.81615
G1 X36.93 Y53.042 E193.83338
G1 X36.613 Y53.356 E193.85564
G1 X36.503 Y53.474 E193.86369
G1 X66.521 Y83.492 E195.98162
