;FLAVOR:Marlin
;TIME:547
;Filament used: 0.391877m
;Layer height: 0.1
;Generated with Cura_SteamEngine 3.1.0
M190 S60
M104 S200
M109 S200
M82 ; absolute extrusion mode
G28 ;Home
G1 Z15.0 F6000 ;Move the platform down 15mm
;Prime the extruder
G92 E0
G1 F200 E3
G92 E0
;LAYER_COUNT:19
;LAYER:-9
M107
G0 F3600 X35.342 Y50.377 Z0.36
G1 F1350 X35.763 Y50.095 E0.06067
G1 X36.201 Y49.83 E0.12197
G1 X36.746 Y49.531 E0.1964
G1 X36.916 Y49.446 E0.21916
G1 X37.281 Y49.284 E0.26697
G1 X37.707 Y49.111 E0.32203
G1 X38.279 Y48.907 E0.39474
G1 X38.499 Y48.838 E0.42235
G1 X38.827 Y48.75 E0.46301
G1 X39.276 Y48.643 E0.51828
G1 X39.928 Y48.522 E0.59768
G1 X40.088 Y48.498 E0.61705
G1 X40.461 Y48.459 E0.66196
G1 X40.932 Y48.423 E0.71852
G1 X41.558 Y48.4 E0.79352
G1 X78.535 Y48.402 E5.22102
G1 X79.132 Y48.427 E5.29256
G1 X79.613 Y48.468 E5.35037
G1 X80.241 Y48.548 E5.42617
G1 X80.73 Y48.644 E5.48584
G1 X81.137 Y48.741 E5.53594
G1 X81.869 Y48.954 E5.62722
G1 X82.297 Y49.111 E5.6818
G1 X82.729 Y49.289 E5.73775
G1 X83.383 Y49.596 E5.82426
G1 X83.828 Y49.844 E5.88525
G1 X84.177 Y50.058 E5.93427
G1 X84.807 Y50.486 E6.02547
G1 X85.21 Y50.804 E6.08693
G1 X85.572 Y51.115 E6.14408
G1 X86.06 Y51.576 E6.22446
G1 X86.366 Y51.906 E6.27835
G1 X86.657 Y52.244 E6.33175
G1 X87.123 Y52.842 E6.42253
G1 X87.405 Y53.263 E6.4832
G1 X87.67 Y53.701 E6.54449
G1 X87.969 Y54.246 E6.61893
G1 X88.058 Y54.424 E6.64276
G1 X88.169 Y54.671 E6.67518
G1 X88.351 Y55.106 E6.73164
G1 X88.593 Y55.779 E6.81727
G1 X88.662 Y55.999 E6.84488
G1 X88.75 Y56.327 E6.88554
G1 X88.856 Y56.773 E6.94043
G1 X88.976 Y57.415 E7.01864
G1 X89.002 Y57.588 E7.03958
G1 X89.039 Y57.933 E7.08113
G1 X89.077 Y58.432 E7.14105
G1 X89.1 Y59.05 E7.2151
G1 X89.096 Y64.052 E7.81402
G1 X89.066 Y64.656 E7.88643
G1 X89.045 Y64.864 E7.91146
G1 X88.963 Y65.408 E7.97734
G1 X88.924 Y65.603 E8.00115
G1 X88.787 Y66.14 E8.0675
G1 X88.724 Y66.343 E8.09295
G1 X88.539 Y66.848 E8.15735
G1 X88.443 Y67.076 E8.18697
G1 X88.217 Y67.545 E8.24931
G1 X88.114 Y67.732 E8.27487
G1 X87.834 Y68.189 E8.33904
G1 X87.698 Y68.389 E8.368
G1 X87.388 Y68.797 E8.42936
G1 X87.227 Y68.986 E8.45909
G1 X86.872 Y69.367 E8.52144
G1 X86.709 Y69.527 E8.54879
G1 X86.303 Y69.883 E8.61344
G1 X86.137 Y70.016 E8.63891
G1 X85.706 Y70.324 E8.70234
G1 X85.501 Y70.455 E8.73147
G1 X85.058 Y70.71 E8.79267
G1 X84.835 Y70.823 E8.82261
G1 X84.359 Y71.036 E8.88505
G1 X84.146 Y71.119 E8.91242
G1 X83.654 Y71.282 E8.97448
G1 X83.406 Y71.351 E9.0053
G1 X82.9 Y71.465 E9.06741
G1 X82.679 Y71.503 E9.09426
G1 X82.139 Y71.568 E9.15938
G1 X81.934 Y71.584 E9.184
G1 X81.466 Y71.6 E9.24007
G1 X78.448 Y71.596 E9.60144
G1 X77.844 Y71.566 E9.67385
G1 X77.635 Y71.545 E9.699
G1 X77.092 Y71.463 E9.76475
G1 X76.897 Y71.424 E9.78856
G1 X76.357 Y71.286 E9.8553
G1 X76.155 Y71.223 E9.88063
G1 X75.649 Y71.038 E9.94514
G1 X75.429 Y70.946 E9.9737
G1 X74.954 Y70.716 E10.03689
G1 X74.765 Y70.612 E10.06272
G1 X74.308 Y70.332 E10.12689
G1 X74.111 Y70.198 E10.15542
G1 X73.702 Y69.887 E10.21694
G1 X73.514 Y69.727 E10.2465
G1 X73.128 Y69.367 E10.3097
G1 X72.973 Y69.209 E10.3362
G1 X72.621 Y68.807 E10.40018
G1 X72.482 Y68.632 E10.42694
G1 X72.033 Y68.134 E10.50723
G1 X71.514 Y67.689 E10.58908
G1 X70.945 Y67.313 E10.67075
G1 X70.333 Y67.012 E10.75241
G1 X69.687 Y66.79 E10.8342
G1 X69.017 Y66.652 E10.9161
G1 X68.275 Y66.6 E11.00517
G1 X51.723 Y66.6 E12.98705
G1 X51.055 Y66.642 E13.06719
G1 X50.384 Y66.771 E13.149
G1 X49.735 Y66.984 E13.23079
G1 X49.118 Y67.276 E13.31252
G1 X48.543 Y67.644 E13.39426
G1 X48.017 Y68.084 E13.47637
G1 X47.454 Y68.709 E13.5771
G1 X47.227 Y68.986 E13.61998
G1 X46.872 Y69.367 E13.68233
G1 X46.709 Y69.527 E13.70968
G1 X46.303 Y69.883 E13.77433
G1 X46.137 Y70.016 E13.7998
G1 X45.706 Y70.324 E13.86323
G1 X45.501 Y70.455 E13.89236
G1 X45.058 Y70.71 E13.95356
G1 X44.835 Y70.823 E13.9835
G1 X44.359 Y71.036 E14.04594
G1 X44.146 Y71.119 E14.07331
G1 X43.654 Y71.282 E14.13537
G1 X43.406 Y71.351 E14.16619
G1 X42.9 Y71.465 E14.2283
G1 X42.679 Y71.503 E14.25515
G1 X42.139 Y71.568 E14.32027
G1 X41.934 Y71.584 E14.34489
G1 X41.466 Y71.6 E14.40096
G1 X38.448 Y71.596 E14.76233
G1 X37.844 Y71.566 E14.83474
G1 X37.635 Y71.545 E14.85989
G1 X37.092 Y71.463 E14.92564
G1 X36.897 Y71.424 E14.94945
G1 X36.357 Y71.286 E15.01619
G1 X36.155 Y71.223 E15.04152
G1 X35.649 Y71.038 E15.10603
G1 X35.429 Y70.946 E15.13459
G1 X34.954 Y70.716 E15.19778
G1 X34.765 Y70.612 E15.22361
G1 X34.308 Y70.332 E15.28778
G1 X34.111 Y70.198 E15.31631
G1 X33.702 Y69.887 E15.37783
G1 X33.514 Y69.727 E15.40739
G1 X33.128 Y69.367 E15.47059
G1 X32.973 Y69.209 E15.49709
G1 X32.613 Y68.798 E15.56251
G1 X32.481 Y68.632 E15.58791
G1 X32.165 Y68.189 E15.65306
G1 X32.043 Y67.998 E15.6802
G1 X31.788 Y67.553 E15.74161
G1 X31.674 Y67.329 E15.7717
G1 X31.46 Y66.851 E15.83441
G1 X31.379 Y66.642 E15.86125
G1 X31.218 Y66.154 E15.92278
G1 X31.149 Y65.906 E15.9536
G1 X31.035 Y65.4 E16.01571
G1 X30.997 Y65.179 E16.04256
G1 X30.932 Y64.638 E16.1078
G1 X30.915 Y64.426 E16.13327
G1 X30.9 Y64 E16.18431
G1 X30.902 Y58.965 E16.78718
G1 X30.927 Y58.368 E16.85872
G1 X30.967 Y57.894 E16.91568
G1 X31.074 Y57.101 E17.01149
G1 X31.238 Y56.374 E17.10073
G1 X31.454 Y55.631 E17.19338
G1 X31.611 Y55.202 E17.24807
G1 X31.785 Y54.779 E17.30284
G1 X32.096 Y54.117 E17.39042
G1 X32.355 Y53.655 E17.45384
G1 X32.633 Y53.208 E17.51686
G1 X33.068 Y52.583 E17.60804
G1 X33.304 Y52.29 E17.65309
G1 X33.615 Y51.928 E17.71023
G1 X34.076 Y51.44 E17.79061
G1 X34.406 Y51.134 E17.8445
G1 X34.745 Y50.842 E17.89807
G1 X35.342 Y50.377 E17.98868
G0 F3600 X35.2 Y50.487
G1 F1350 X35.2 Y70.835 E20.42508
G0 F3600 X36.8 Y71.399
G1 F1350 X36.8 Y49.504 E23.04671
G0 F3600 X38.4 Y48.869
G1 F1350 X38.4 Y71.593 E25.7676
G0 F3600 X40 Y71.598
G1 F1350 X40 Y48.511 E28.53196
G0 F3600 X41.6 Y48.401
G1 F1350 X41.6 Y71.596 E31.30924
G0 F3600 X43.2 Y71.398
G1 F1350 X43.2 Y48.401 E34.06282
G0 F3600 X44.8 Y48.401
G1 F1350 X44.8 Y70.839 E36.74947
G0 F3600 X46.4 Y69.798
G1 F1350 X46.4 Y48.401 E39.31147
G0 F3600 X48 Y48.401
G1 F1350 X48 Y68.103 E41.67052
G0 F3600 X49.6 Y67.048
G1 F1350 X49.6 Y48.401 E43.90325
G0 F3600 X51.2 Y48.401
G1 F1350 X51.2 Y66.633 E46.08628
G0 F3600 X52.8 Y66.6
G1 F1350 X52.8 Y48.401 E48.26537
G0 F3600 X54.4 Y48.401
G1 F1350 X54.4 Y66.6 E50.44445
G0 F3600 X56 Y66.6
G1 F1350 X56 Y48.401 E52.62354
G0 F3600 X57.6 Y48.401
G1 F1350 X57.6 Y66.6 E54.80262
G0 F3600 X59.2 Y66.6
G1 F1350 X59.2 Y48.401 E56.98171
G0 F3600 X60.8 Y48.402
G1 F1350 X60.8 Y66.6 E59.16067
G0 F3600 X62.4 Y66.6
G1 F1350 X62.4 Y48.402 E61.33963
G0 F3600 X64 Y48.402
G1 F1350 X64 Y66.6 E63.5186
G0 F3600 X65.6 Y66.6
G1 F1350 X65.6 Y48.402 E65.69756
G0 F3600 X67.2 Y48.402
G1 F1350 X67.2 Y66.6 E67.87653
G0 F3600 X68.8 Y66.636
G1 F1350 X68.8 Y48.402 E70.0598
G0 F3600 X70.4 Y48.402
G1 F1350 X70.4 Y67.044 E72.29193
G0 F3600 X72 Y68.105
G1 F1350 X72 Y48.402 E74.6511
G0 F3600 X73.6 Y48.402
G1 F1350 X73.6 Y69.8 E77.21322
G0 F3600 X75.2 Y70.835
G1 F1350 X75.2 Y48.402 E79.89927
G0 F3600 X76.8 Y48.402
G1 F1350 X76.8 Y71.399 E82.65285
G0 F3600 X78.4 Y71.593
G1 F1350 X78.4 Y48.402 E85.42966
G0 F3600 X80 Y48.518
G1 F1350 X80 Y71.598 E88.19318
G0 F3600 X81.6 Y71.596
G1 F1350 X81.6 Y48.876 E90.91359
G0 F3600 X83.2 Y49.511
G1 F1350 X83.2 Y71.398 E93.53426
G0 F3600 X84.8 Y70.839
G1 F1350 X84.8 Y50.482 E95.97174
G0 F3600 X86.4 Y51.946
G1 F1350 X86.4 Y69.798 E98.10927
G0 F3600 X88 Y67.919
G1 F1350 X88 Y54.308 E99.73901
G0 F3600 X33.6 Y51.945
G1 F1350 X33.6 Y69.8 E101.8769
G0 F3600 X32 Y67.922
G1 F1350 X32 Y54.321 E103.50544
G0 F3600 X35.049 Y50.605
;TIME_ELAPSED:41.818310
;LAYER:-8
M140 S60
G0 X35.049 Y50.605 Z0.51
;TYPE:SUPPORT
G1 F1350 X34.745 Y50.841 E103.52464
G1 X34.405 Y51.133 E103.547
G1 X34.279 Y51.25 E103.55558
G1 X49.943 Y66.914 E104.66076
G1 X49.735 Y66.982 E104.67167
G1 X49.117 Y67.274 E104.70577
G1 X48.978 Y67.363 E104.71401
G1 X33.581 Y51.965 E105.80038
G1 X33.304 Y52.289 E105.82165
G1 X33.067 Y52.582 E105.84045
G1 X32.95 Y52.749 E105.85063
G1 X48.161 Y67.96 E106.92384
G1 X48.016 Y68.083 E106.93333
G1 X47.473 Y68.686 E106.97381
G1 X32.387 Y53.6 E108.03821
G1 X32.355 Y53.654 E108.04134
G1 X32.095 Y54.116 E108.06779
G1 X31.901 Y54.528 E108.09051
G1 X46.804 Y69.432 E109.14203
G1 X46.709 Y69.526 E109.1487
G1 X46.302 Y69.881 E109.17565
G1 X46.136 Y70.015 E109.18629
G1 X46.041 Y70.082 E109.19209
G1 X31.489 Y55.531 E110.21878
G1 X31.454 Y55.63 E110.22401
G1 X31.238 Y56.373 E110.26262
G1 X31.179 Y56.635 E110.27602
G1 X45.182 Y70.637 E111.26397
G1 X45.058 Y70.709 E111.27112
G1 X44.834 Y70.822 E111.28364
G1 X44.358 Y71.035 E111.30966
G1 X44.218 Y71.088 E111.31712
G1 X30.973 Y57.843 E112.25163
G1 X30.967 Y57.893 E112.25414
G1 X30.927 Y58.367 E112.27787
G1 X30.901 Y58.964 E112.30769
G1 X30.901 Y59.185 E112.31871
G1 X43.128 Y71.412 E113.18139
G1 X42.9 Y71.464 E113.19306
G1 X42.678 Y71.501 E113.20429
G1 X42.138 Y71.566 E113.23142
G1 X41.934 Y71.583 E113.24164
G1 X41.886 Y71.584 E113.24403
G1 X30.901 Y60.599 E114.01908
G1 X30.9 Y62.013 E114.08963
G1 X40.484 Y71.597 E114.76583
G1 X39.069 Y71.595 E114.83643
G1 X30.899 Y63.426 E115.41283
G1 X30.899 Y63.999 E115.44142
G1 X30.915 Y64.425 E115.46268
G1 X30.932 Y64.637 E115.47329
G1 X30.964 Y64.905 E115.48676
G1 X37.596 Y71.537 E115.95468
G1 X37.091 Y71.461 E115.98016
G1 X36.896 Y71.423 E115.99007
G1 X36.357 Y71.285 E116.01783
G1 X36.155 Y71.221 E116.0284
G1 X35.7 Y71.055 E116.05257
G1 X31.437 Y66.792 E116.35334
G0 F3600 X31.459 Y66.85
G1 F1350 X31.674 Y67.327 E116.37945
G1 X31.787 Y67.552 E116.39201
G1 X32.042 Y67.997 E116.4176
G1 X32.164 Y68.187 E116.42886
G1 X32.48 Y68.631 E116.45605
G1 X32.613 Y68.797 E116.46666
G1 X32.973 Y69.208 E116.49392
G1 X33.127 Y69.365 E116.50489
G1 X33.514 Y69.726 E116.5313
G1 X33.702 Y69.886 E116.54361
G1 X34.11 Y70.197 E116.56921
G1 X34.308 Y70.33 E116.58111
G1 X34.764 Y70.61 E116.6078
G1 X34.953 Y70.714 E116.61857
G1 X35.428 Y70.945 E116.64492
G1 X35.649 Y71.037 E116.65686
G1 X35.7 Y71.055 E116.65956
G0 F3600 X51.082 Y66.639
G1 F1350 X51.722 Y66.598 E116.69155
G1 X52.456 Y66.598 E116.72817
G1 X35.881 Y50.023 E117.89763
G1 X36.201 Y49.829 E117.9163
G1 X36.746 Y49.53 E117.94731
G1 X36.784 Y49.512 E117.94941
G1 X53.87 Y66.598 E119.15492
G1 X55.285 Y66.598 E119.22551
G1 X37.772 Y49.086 E120.46112
G1 X38.278 Y48.906 E120.48791
G1 X38.499 Y48.837 E120.49946
G1 X38.827 Y48.749 E120.5164
G1 X38.845 Y48.745 E120.51732
G1 X56.699 Y66.598 E121.77698
G1 X58.113 Y66.598 E121.84753
G1 X40.022 Y48.507 E123.12395
G1 X40.088 Y48.496 E123.12729
G1 X40.46 Y48.458 E123.14594
G1 X40.932 Y48.421 E123.16956
G1 X41.336 Y48.407 E123.18973
G1 X59.527 Y66.598 E124.4732
G1 X60.942 Y66.599 E124.5438
G1 X42.743 Y48.4 E125.82783
G1 X44.157 Y48.4 E125.89838
G1 X62.356 Y66.599 E127.18242
G1 X63.771 Y66.599 E127.25301
G1 X45.571 Y48.4 E128.53708
G1 X46.985 Y48.4 E128.60763
G1 X65.185 Y66.599 E129.8917
G1 X66.599 Y66.599 E129.96225
G1 X48.4 Y48.4 E131.24629
G1 X49.814 Y48.4 E131.31683
G1 X68.013 Y66.599 E132.60087
G1 X68.274 Y66.6 E132.61389
G1 X69.016 Y66.651 E132.65099
G1 X69.6 Y66.772 E132.68075
G1 X51.229 Y48.4 E133.97696
G1 X52.643 Y48.4 E134.0475
G1 X74.963 Y70.721 E135.62233
G1 X75.427 Y70.946 E135.64806
G1 X75.648 Y71.038 E135.66
G1 X76.153 Y71.222 E135.68682
G1 X76.356 Y71.286 E135.69744
G1 X76.895 Y71.424 E135.7252
G1 X77.091 Y71.463 E135.73517
G1 X77.124 Y71.467 E135.73683
G1 X54.057 Y48.4 E137.36433
G1 X55.471 Y48.4 E137.43487
G1 X78.667 Y71.595 E139.07144
G1 X80.083 Y71.598 E139.14208
G1 X56.886 Y48.4 E140.77879
G1 X58.3 Y48.4 E140.84934
G1 X81.498 Y71.598 E142.48608
G1 X81.933 Y71.583 E142.5078
G1 X82.138 Y71.568 E142.51805
G1 X82.678 Y71.503 E142.54519
G1 X82.796 Y71.482 E142.55117
G1 X59.714 Y48.4 E144.17973
G1 X61.129 Y48.401 E144.25032
G1 X83.92 Y71.192 E145.85835
G1 X84.144 Y71.118 E145.87012
G1 X84.357 Y71.035 E145.88152
G1 X84.833 Y70.823 E145.90752
G1 X84.92 Y70.778 E145.91241
G1 X62.543 Y48.401 E147.49123
G1 X63.957 Y48.401 E147.56177
G1 X85.806 Y70.25 E149.10333
G1 X86.136 Y70.015 E149.12355
G1 X86.302 Y69.883 E149.13413
G1 X86.595 Y69.625 E149.1536
G1 X65.372 Y48.401 E150.65104
G1 X66.786 Y48.401 E150.72158
G1 X87.293 Y68.908 E152.16846
G1 X87.387 Y68.797 E152.17572
G1 X87.697 Y68.389 E152.20128
G1 X87.833 Y68.188 E152.21339
G1 X87.891 Y68.092 E152.21899
G1 X68.2 Y48.401 E153.60829
G1 X69.615 Y48.402 E153.67889
G1 X88.392 Y67.179 E155.00371
G1 X88.442 Y67.076 E155.00942
G1 X88.538 Y66.848 E155.02176
G1 X88.722 Y66.342 E155.04862
G1 X88.781 Y66.154 E155.05845
G1 X71.029 Y48.402 E156.31095
G1 X72.443 Y48.402 E156.3815
G1 X89.026 Y64.985 E157.55152
G1 X89.044 Y64.864 E157.55762
G1 X89.065 Y64.655 E157.5681
G1 X89.094 Y64.051 E157.59827
G1 X89.095 Y63.639 E157.61882
G1 X73.858 Y48.402 E158.69388
G1 X75.272 Y48.402 E158.76442
G1 X89.096 Y62.226 E159.73978
G1 X89.097 Y60.813 E159.81027
G1 X76.686 Y48.402 E160.68594
G1 X78.1 Y48.402 E160.75648
G1 X89.098 Y59.4 E161.53245
G1 X89.098 Y59.049 E161.54996
G1 X89.076 Y58.431 E161.58081
G1 X89.037 Y57.924 E161.60618
G1 X79.577 Y48.465 E162.2736
G1 X79.611 Y48.467 E162.2753
G1 X80.24 Y48.547 E162.30693
G1 X80.729 Y48.643 E162.33179
G1 X81.136 Y48.74 E162.35267
G1 X81.322 Y48.795 E162.36235
G1 X88.711 Y56.184 E162.88368
G1 X88.661 Y55.998 E162.89329
G1 X88.592 Y55.778 E162.90479
G1 X88.35 Y55.106 E162.94043
G1 X88.168 Y54.671 E162.96395
G1 X88.056 Y54.423 E162.97753
G1 X87.968 Y54.246 E162.98739
G1 X87.702 Y53.761 E163.01499
G1 X83.732 Y49.79 E163.29513
G1 X83.827 Y49.843 E163.30055
G1 X84.176 Y50.058 E163.321
G1 X84.806 Y50.486 E163.359
G1 X85.209 Y50.804 E163.38461
G1 X85.571 Y51.115 E163.40842
G1 X86.059 Y51.576 E163.44191
G1 X86.365 Y51.906 E163.46437
G1 X86.655 Y52.243 E163.48655
G1 X87.122 Y52.842 E163.52444
G1 X87.404 Y53.262 E163.54968
G1 X87.669 Y53.701 E163.57526
G0 F3600 X51.082 Y66.639
G1 F1350 X35.049 Y50.605 E164.70651
G0 F3600 X35.362 Y50.118
;TIME_ELAPSED:97.433632
;LAYER:-7
G0 X35.362 Y50.118 Z0.61
G1 F1800 X35.214 Y50.223 E164.70953
G1 X34.985 Y50.4 E164.71434
G1 X85.022 Y50.4 E165.54646
G1 X85.331 Y50.643 E165.553
G1 X85.515 Y50.8 E165.55702
G1 X34.489 Y50.8 E166.40559
G1 X34.335 Y50.93 E166.40894
G1 X34.043 Y51.2 E166.41555
G1 X85.956 Y51.2 E167.27887
G1 X86.192 Y51.424 E167.28428
G1 X86.355 Y51.6 E167.28827
G1 X33.649 Y51.6 E168.16478
G1 X33.469 Y51.79 E168.16913
G1 X33.289 Y52 E168.17373
G1 X86.711 Y52 E169.06214
G1 X86.892 Y52.215 E169.06681
G1 X87.036 Y52.4 E169.07071
G1 X32.959 Y52.4 E169.97002
G1 X32.917 Y52.451 E169.97111
G1 X32.673 Y52.8 E169.9782
G1 X87.339 Y52.8 E170.8873
G1 X87.382 Y52.861 E170.88854
G1 X87.578 Y53.162 E170.89451
G1 X87.601 Y53.2 E170.89525
G1 X32.402 Y53.2 E171.81321
G1 X32.177 Y53.56 E171.82027
G1 X32.154 Y53.6 E171.82104
G1 X87.843 Y53.6 E172.74715
G1 X88.063 Y54 E172.75474
G1 X31.931 Y54 E173.68822
G1 X31.91 Y54.039 E173.68896
G1 X31.741 Y54.4 E173.69559
G1 X88.263 Y54.4 E174.63555
G1 X88.352 Y54.591 E174.63906
G1 X88.438 Y54.8 E174.64281
G1 X31.56 Y54.8 E175.5887
G1 X31.425 Y55.127 E175.59458
G1 X31.399 Y55.2 E175.59587
G1 X88.599 Y55.2 E176.54711
G1 X88.742 Y55.6 E176.55418
G1 X31.254 Y55.6 E177.5102
G1 X31.138 Y56 E177.51713
G1 X88.87 Y56 E178.47722
G1 X88.944 Y56.279 E178.48202
G1 X88.973 Y56.4 E178.48409
G1 X31.027 Y56.4 E179.44773
G1 X30.952 Y56.71 E179.45304
G1 X30.935 Y56.8 E179.45456
G1 X89.064 Y56.8 E180.42125
G1 X89.139 Y57.2 E180.42802
G1 X30.856 Y57.2 E181.39727
G1 X30.847 Y57.241 E181.39797
G1 X30.802 Y57.6 E181.40398
G1 X89.205 Y57.6 E182.37523
G1 X89.239 Y57.922 E182.38061
G1 X89.246 Y58 E182.38192
G1 X30.757 Y58 E183.35459
G1 X30.727 Y58.35 E183.36043
G1 X30.725 Y58.4 E183.36127
G1 X89.275 Y58.4 E184.33496
G1 X89.292 Y58.8 E184.34161
G1 X30.708 Y58.8 E185.31587
G1 X30.701 Y58.957 E185.31848
G1 X30.701 Y59.2 E185.32252
G1 X89.299 Y59.2 E186.29701
G1 X89.299 Y59.6 E186.30367
G1 X30.701 Y59.6 E187.27815
G1 X30.701 Y60 E187.28481
G1 X89.299 Y60 E188.25929
G1 X89.299 Y60.4 E188.26595
G1 X30.701 Y60.4 E189.24044
G1 X30.701 Y60.8 E189.24709
G1 X89.299 Y60.8 E190.22158
G1 X89.299 Y61.2 E190.22823
G1 X30.701 Y61.2 E191.20272
G1 X30.7 Y61.6 E191.20937
G1 X89.3 Y61.6 E192.18389
G1 X89.3 Y62 E192.19054
G1 X30.7 Y62 E193.16506
G1 X30.7 Y62.4 E193.17172
