;FLAVOR:Marlin
;TIME:4737
;Filament used: 2.85158m
;Layer height: 0.1
;Generated with Cura_SteamEngine 3.1.0
M190 S60
M104 S200
M109 S200
M82 ; absolute extrusion mode
G28 ;Home
G1 Z15.0 F6000 ;Move the platform down 15mm
;Prime the extruder
G92 E0
G1 F200 E3
G92 E0
;LAYER_COUNT:134
;LAYER:-9
M107
G0 F3600 X8.6 Y45.035 Z0.36
G1 F1350 X8.821 Y44.997 E0.02685
G1 X9.361 Y44.932 E0.09197
G1 X9.566 Y44.916 E0.1166
G1 X10.034 Y44.9 E0.17266
G1 X110.052 Y44.904 E12.14847
G1 X110.656 Y44.934 E12.22088
G1 X110.865 Y44.955 E12.24603
G1 X111.408 Y45.037 E12.31178
G1 X111.603 Y45.076 E12.33559
G1 X112.143 Y45.214 E12.40233
G1 X112.343 Y45.276 E12.4274
G1 X112.851 Y45.462 E12.49218
G1 X113.071 Y45.554 E12.52073
G1 X113.545 Y45.783 E12.58376
G1 X113.732 Y45.886 E12.60932
G1 X114.189 Y46.166 E12.6735
G1 X114.389 Y46.302 E12.70246
G1 X114.797 Y46.612 E12.76381
G1 X114.986 Y46.773 E12.79354
G1 X115.372 Y47.133 E12.85674
G1 X115.527 Y47.291 E12.88324
G1 X115.887 Y47.702 E12.94866
G1 X116.016 Y47.863 E12.97336
G1 X116.325 Y48.295 E13.03696
G1 X116.455 Y48.499 E13.06592
G1 X116.707 Y48.937 E13.12643
G1 X116.826 Y49.171 E13.15786
G1 X117.036 Y49.641 E13.2195
G1 X117.117 Y49.847 E13.246
G1 X117.281 Y50.341 E13.30833
G1 X117.351 Y50.594 E13.33976
G1 X117.463 Y51.09 E13.40064
G1 X117.502 Y51.312 E13.42763
G1 X117.568 Y51.861 E13.49384
G1 X117.584 Y52.056 E13.51727
G1 X117.6 Y52.5 E13.57047
G1 X117.596 Y67.552 E15.37274
G1 X117.566 Y68.156 E15.44515
G1 X117.545 Y68.364 E15.47018
G1 X117.463 Y68.908 E15.53605
G1 X117.424 Y69.103 E15.55986
G1 X117.287 Y69.64 E15.62622
G1 X117.224 Y69.843 E15.65167
G1 X117.039 Y70.348 E15.71607
G1 X116.943 Y70.576 E15.74569
G1 X116.717 Y71.045 E15.80803
G1 X116.614 Y71.232 E15.83359
G1 X116.334 Y71.689 E15.89776
G1 X116.198 Y71.889 E15.92672
G1 X115.888 Y72.297 E15.98808
G1 X115.727 Y72.486 E16.0178
G1 X115.372 Y72.867 E16.08016
G1 X115.209 Y73.027 E16.10751
G1 X114.803 Y73.383 E16.17216
G1 X114.637 Y73.516 E16.19763
G1 X114.206 Y73.824 E16.26106
G1 X114.001 Y73.955 E16.29019
G1 X113.558 Y74.21 E16.35139
G1 X113.335 Y74.323 E16.38133
G1 X112.859 Y74.536 E16.44377
G1 X112.646 Y74.619 E16.47114
G1 X112.154 Y74.782 E16.5332
G1 X111.906 Y74.851 E16.56402
G1 X111.4 Y74.965 E16.62613
G1 X111.179 Y75.003 E16.65298
G1 X110.639 Y75.068 E16.7181
G1 X110.434 Y75.084 E16.74272
G1 X109.966 Y75.1 E16.79879
G1 X9.948 Y75.096 E28.77459
G1 X9.344 Y75.066 E28.847
G1 X9.135 Y75.045 E28.87215
G1 X8.592 Y74.963 E28.93791
G1 X8.397 Y74.924 E28.96172
G1 X7.857 Y74.786 E29.02846
G1 X7.655 Y74.723 E29.05379
G1 X7.149 Y74.538 E29.1183
G1 X6.929 Y74.446 E29.14685
G1 X6.454 Y74.216 E29.21004
G1 X6.265 Y74.112 E29.23587
G1 X5.808 Y73.832 E29.30005
G1 X5.611 Y73.698 E29.32858
G1 X5.202 Y73.387 E29.3901
G1 X5.014 Y73.227 E29.41966
G1 X4.628 Y72.867 E29.48286
G1 X4.473 Y72.709 E29.50936
G1 X4.113 Y72.298 E29.57478
G1 X3.984 Y72.137 E29.59948
G1 X3.672 Y71.7 E29.66377
G1 X3.543 Y71.498 E29.69247
G1 X3.288 Y71.053 E29.75388
G1 X3.174 Y70.829 E29.78398
G1 X2.96 Y70.351 E29.84669
G1 X2.881 Y70.146 E29.87299
G1 X2.718 Y69.654 E29.93505
G1 X2.649 Y69.406 E29.96587
G1 X2.535 Y68.9 E30.02798
G1 X2.497 Y68.679 E30.05483
G1 X2.432 Y68.138 E30.12007
G1 X2.415 Y67.926 E30.14554
G1 X2.4 Y67.5 E30.19658
G1 X2.404 Y52.448 E31.99885
G1 X2.434 Y51.841 E32.07162
G1 X2.455 Y51.636 E32.09629
G1 X2.537 Y51.092 E32.16217
G1 X2.576 Y50.897 E32.18598
G1 X2.715 Y50.353 E32.25321
G1 X2.776 Y50.157 E32.27778
G1 X2.962 Y49.649 E32.34256
G1 X3.054 Y49.429 E32.37111
G1 X3.287 Y48.947 E32.43521
G1 X3.386 Y48.768 E32.45971
G1 X3.666 Y48.311 E32.52388
G1 X3.802 Y48.111 E32.55284
G1 X4.113 Y47.702 E32.61436
G1 X4.273 Y47.514 E32.64392
G1 X4.633 Y47.128 E32.70712
G1 X4.791 Y46.973 E32.73362
G1 X5.202 Y46.613 E32.79904
G1 X5.369 Y46.48 E32.82461
G1 X5.797 Y46.174 E32.8876
G1 X5.999 Y46.045 E32.9163
G1 X6.442 Y45.79 E32.9775
G1 X6.665 Y45.677 E33.00744
G1 X7.141 Y45.464 E33.06988
G1 X7.354 Y45.381 E33.09725
G1 X7.846 Y45.218 E33.15931
G1 X8.094 Y45.149 E33.19013
G1 X8.6 Y45.035 E33.25224
G0 F3600 X8 Y45.175
G1 F1350 X8 Y74.822 E36.80207
G0 F3600 X9.6 Y75.078
G1 F1350 X9.6 Y44.914 E40.4138
G0 F3600 X11.2 Y44.901
G1 F1350 X11.2 Y75.096 E44.02924
G0 F3600 X12.8 Y75.096
G1 F1350 X12.8 Y44.901 E47.64468
G0 F3600 X14.4 Y44.901
G1 F1350 X14.4 Y75.096 E51.26013
G0 F3600 X16 Y75.096
G1 F1350 X16 Y44.901 E54.87557
G0 F3600 X17.6 Y44.901
G1 F1350 X17.6 Y75.096 E58.49101
G0 F3600 X19.2 Y75.096
G1 F1350 X19.2 Y44.901 E62.10646
G0 F3600 X20.8 Y44.901
G1 F1350 X20.8 Y75.096 E65.7219
G0 F3600 X22.4 Y75.096
G1 F1350 X22.4 Y44.901 E69.33734
G0 F3600 X24 Y44.901
G1 F1350 X24 Y75.096 E72.95279
G0 F3600 X25.6 Y75.096
G1 F1350 X25.6 Y44.901 E76.56823
G0 F3600 X27.2 Y44.901
G1 F1350 X27.2 Y75.096 E80.18367
G0 F3600 X28.8 Y75.096
G1 F1350 X28.8 Y44.901 E83.79911
G0 F3600 X30.4 Y44.901
G1 F1350 X30.4 Y75.096 E87.41456
G0 F3600 X32 Y75.096
G1 F1350 X32 Y44.901 E91.03
G0 F3600 X33.6 Y44.901
G1 F1350 X33.6 Y75.096 E94.64544
G0 F3600 X35.2 Y75.097
G1 F1350 X35.2 Y44.902 E98.26089
G0 F3600 X36.8 Y44.902
G1 F1350 X36.8 Y75.097 E101.87633
G0 F3600 X38.4 Y75.097
G1 F1350 X38.4 Y44.902 E105.49177
G0 F3600 X40 Y44.902
G1 F1350 X40 Y75.097 E109.10722
G0 F3600 X41.6 Y75.097
G1 F1350 X41.6 Y44.902 E112.72266
G0 F3600 X43.2 Y44.902
G1 F1350 X43.2 Y75.097 E116.3381
G0 F3600 X44.8 Y75.097
G1 F1350 X44.8 Y44.902 E119.95355
G0 F3600 X46.4 Y44.902
G1 F1350 X46.4 Y75.097 E123.56899
G0 F3600 X48 Y75.097
G1 F1350 X48 Y44.902 E127.18443
G0 F3600 X49.6 Y44.902
G1 F1350 X49.6 Y75.097 E130.79988
G0 F3600 X51.2 Y75.097
G1 F1350 X51.2 Y44.902 E134.41532
G0 F3600 X52.8 Y44.902
G1 F1350 X52.8 Y75.097 E138.03076
G0 F3600 X54.4 Y75.097
G1 F1350 X54.4 Y44.902 E141.64621
G0 F3600 X56 Y44.902
G1 F1350 X56 Y75.097 E145.26165
G0 F3600 X57.6 Y75.097
G1 F1350 X57.6 Y44.902 E148.87709
G0 F3600 X59.2 Y44.902
G1 F1350 X59.2 Y75.097 E152.49254
G0 F3600 X60.8 Y75.098
G1 F1350 X60.8 Y44.903 E156.10798
G0 F3600 X62.4 Y44.903
G1 F1350 X62.4 Y75.098 E159.72342
G0 F3600 X64 Y75.098
G1 F1350 X64 Y44.903 E163.33887
G0 F3600 X65.6 Y44.903
G1 F1350 X65.6 Y75.098 E166.95431
G0 F3600 X67.2 Y75.098
G1 F1350 X67.2 Y44.903 E170.56975
G0 F3600 X68.8 Y44.903
G1 F1350 X68.8 Y75.098 E174.18519
G0 F3600 X70.4 Y75.098
G1 F1350 X70.4 Y44.903 E177.80064
G0 F3600 X72 Y44.903
G1 F1350 X72 Y75.098 E181.41608
G0 F3600 X73.6 Y75.098
G1 F1350 X73.6 Y44.903 E185.03152
G0 F3600 X75.2 Y44.903
G1 F1350 X75.2 Y75.098 E188.64697
G0 F3600 X76.8 Y75.098
G1 F1350 X76.8 Y44.903 E192.26241
G0 F3600 X78.4 Y44.903
G1 F1350 X78.4 Y75.098 E195.87785
G0 F3600 X80 Y75.098
G1 F1350 X80 Y44.903 E199.4933
G0 F3600 X81.6 Y44.903
G1 F1350 X81.6 Y75.098 E203.10874
G0 F3600 X83.2 Y75.098
G1 F1350 X83.2 Y44.903 E206.72418
G0 F3600 X84.8 Y44.903
G1 F1350 X84.8 Y75.098 E210.33963
G0 F3600 X86.4 Y75.099
G1 F1350 X86.4 Y44.904 E213.95507
G0 F3600 X88 Y44.904
G1 F1350 X88 Y75.099 E217.57051
G0 F3600 X89.6 Y75.099
G1 F1350 X89.6 Y44.904 E221.18596
G0 F3600 X91.2 Y44.904
G1 F1350 X91.2 Y75.099 E224.8014
G0 F3600 X92.8 Y75.099
G1 F1350 X92.8 Y44.904 E228.41684
G0 F3600 X94.4 Y44.904
G1 F1350 X94.4 Y75.099 E232.03229
G0 F3600 X96 Y75.099
G1 F1350 X96 Y44.904 E235.64773
G0 F3600 X97.6 Y44.904
G1 F1350 X97.6 Y75.099 E239.26317
G0 F3600 X99.2 Y75.099
G1 F1350 X99.2 Y44.904 E242.87862
G0 F3600 X100.8 Y44.904
G1 F1350 X100.8 Y75.099 E246.49406
G0 F3600 X102.4 Y75.099
G1 F1350 X102.4 Y44.904 E250.1095
G0 F3600 X104 Y44.904
G1 F1350 X104 Y75.099 E253.72495
G0 F3600 X105.6 Y75.099
G1 F1350 X105.6 Y44.904 E257.34039
G0 F3600 X107.2 Y44.904
G1 F1350 X107.2 Y75.099 E260.95583
G0 F3600 X108.8 Y75.099
G1 F1350 X108.8 Y44.904 E264.57127
G0 F3600 X110.4 Y44.922
G1 F1350 X110.4 Y75.086 E268.18301
G0 F3600 X112 Y74.825
G1 F1350 X112 Y45.178 E271.73283
G0 F3600 X113.6 Y45.814
G1 F1350 X113.6 Y74.186 E275.13
G0 F3600 X115.2 Y73.035
G1 F1350 X115.2 Y46.973 E278.25057
G0 F3600 X116.8 Y49.12
G1 F1350 X116.8 Y70.873 E280.8552
G0 F3600 X6.4 Y74.186
G1 F1350 X6.4 Y45.814 E284.25236
G0 F3600 X4.8 Y46.965
G1 F1350 X4.8 Y73.027 E287.37293
G0 F3600 X3.2 Y70.88
G1 F1350 X3.2 Y49.126 E289.97768
G0 F3600 X8.599 Y45.034
;TIME_ELAPSED:113.084103
;LAYER:-8
M140 S60
G0 X8.599 Y45.034 Z0.51
;TYPE:SUPPORT
G1 F1350 X8.326 Y45.096 E289.99165
G1 X38.326 Y75.096 E292.10831
G1 X36.912 Y75.096 E292.17885
G1 X7.241 Y45.425 E294.2723
G1 X7.141 Y45.463 E294.27764
G1 X6.665 Y45.676 E294.30366
G1 X6.441 Y45.789 E294.31617
G1 X6.283 Y45.881 E294.3253
G1 X35.498 Y75.096 E296.38657
G1 X34.083 Y75.096 E296.45717
G1 X5.426 Y46.438 E298.47911
G1 X5.369 Y46.478 E298.48258
G1 X5.202 Y46.611 E298.49323
G1 X4.79 Y46.972 E298.52056
G1 X4.667 Y47.094 E298.52921
G1 X32.669 Y75.096 E300.5049
G1 X31.255 Y75.096 E300.57544
G1 X4.003 Y47.844 E302.49822
G1 X3.802 Y48.11 E302.51485
G1 X3.666 Y48.31 E302.52692
G1 X3.433 Y48.688 E302.54907
G1 X29.841 Y75.096 E304.4123
G1 X28.427 Y75.096 E304.48284
G1 X2.967 Y49.636 E306.27918
G1 X2.962 Y49.648 E306.27983
G1 X2.776 Y50.156 E306.30682
G1 X2.714 Y50.352 E306.31708
G1 X2.624 Y50.707 E306.33535
G1 X27.012 Y75.096 E308.05609
G1 X25.598 Y75.096 E308.12663
G1 X2.429 Y51.927 E309.76133
G1 X2.404 Y52.447 E309.78731
G1 X2.403 Y53.315 E309.83061
G1 X24.183 Y75.095 E311.36731
G1 X22.769 Y75.095 E311.43785
G1 X2.403 Y54.729 E312.87478
G1 X2.402 Y56.142 E312.94528
G1 X21.355 Y75.095 E314.28251
G1 X19.941 Y75.095 E314.35306
G1 X2.402 Y57.556 E315.59053
G1 X2.402 Y58.97 E315.66108
G1 X18.526 Y75.095 E316.79875
G1 X17.112 Y75.095 E316.86929
G1 X2.401 Y60.384 E317.90723
G1 X2.401 Y61.798 E317.97778
G1 X15.698 Y75.095 E318.91595
G1 X14.284 Y75.095 E318.9865
G1 X2.4 Y63.211 E319.82498
G1 X2.4 Y64.626 E319.89557
G1 X12.87 Y75.095 E320.63425
G1 X11.455 Y75.095 E320.70485
G1 X2.399 Y66.039 E321.34379
G1 X2.399 Y67.453 E321.41434
G1 X10.041 Y75.095 E321.95352
G1 X9.948 Y75.095 E321.95816
G1 X9.343 Y75.065 E321.98838
G1 X9.135 Y75.044 E321.99881
G1 X8.592 Y74.962 E322.02621
G1 X8.469 Y74.937 E322.03247
G1 X2.564 Y69.032 E322.4491
G1 X2.648 Y69.405 E322.46818
G1 X2.718 Y69.652 E322.48099
G1 X2.88 Y70.144 E322.50683
G1 X2.959 Y70.35 E322.51784
G1 X3.174 Y70.828 E322.54399
G1 X3.288 Y71.052 E322.55652
G1 X3.445 Y71.327 E322.57232
G1 X6.173 Y74.055 E322.7648
G1 X5.807 Y73.831 E322.78621
G1 X5.61 Y73.696 E322.79812
G1 X5.201 Y73.386 E322.82372
G1 X5.014 Y73.225 E322.83604
G1 X4.628 Y72.866 E322.86233
G1 X4.472 Y72.708 E322.87341
G1 X4.112 Y72.297 E322.90067
G1 X3.983 Y72.136 E322.91096
G1 X3.672 Y71.699 E322.93772
G1 X3.542 Y71.496 E322.94975
G0 F3600 X8.599 Y45.034
G1 F1350 X8.821 Y44.996 E322.96099
G1 X9.36 Y44.93 E322.98808
G1 X9.56 Y44.916 E322.99808
G1 X39.741 Y75.096 E325.12748
G1 X41.155 Y75.096 E325.19802
G1 X10.958 Y44.899 E327.32858
G1 X12.372 Y44.899 E327.39913
G1 X42.569 Y75.096 E329.52969
G1 X43.984 Y75.096 E329.60028
G1 X13.787 Y44.899 E331.73085
G1 X15.201 Y44.899 E331.80139
G1 X45.398 Y75.096 E333.93195
G1 X46.812 Y75.096 E334.0025
G1 X16.615 Y44.899 E336.13306
G1 X18.029 Y44.899 E336.2036
G1 X48.226 Y75.096 E338.33416
G1 X49.641 Y75.096 E338.40476
G1 X19.444 Y44.899 E340.53532
G1 X20.858 Y44.899 E340.60587
G1 X51.055 Y75.096 E342.73643
G1 X52.469 Y75.096 E342.80697
G1 X22.272 Y44.899 E344.93753
G1 X23.686 Y44.899 E345.00808
G1 X53.884 Y75.097 E347.13871
G1 X55.298 Y75.097 E347.20925
G1 X25.101 Y44.9 E349.33982
G1 X26.515 Y44.9 E349.41036
G1 X56.712 Y75.097 E351.54092
G1 X58.127 Y75.097 E351.61152
G1 X27.93 Y44.9 E353.74208
G1 X29.344 Y44.9 E353.81262
G1 X59.541 Y75.097 E355.94318
G1 X60.955 Y75.097 E356.01373
G1 X30.758 Y44.9 E358.14429
G1 X32.172 Y44.9 E358.21484
G1 X62.369 Y75.097 E360.3454
G1 X63.783 Y75.097 E360.41594
G1 X33.586 Y44.9 E362.5465
G1 X35.001 Y44.9 E362.6171
G1 X65.198 Y75.097 E364.74766
G1 X66.612 Y75.097 E364.8182
G1 X36.415 Y44.9 E366.94877
G1 X37.829 Y44.9 E367.01931
G1 X68.027 Y75.098 E369.14994
G1 X69.441 Y75.098 E369.22049
G1 X39.244 Y44.901 E371.35105
G1 X40.658 Y44.901 E371.42159
G1 X70.855 Y75.098 E373.55215
G1 X72.269 Y75.098 E373.6227
G1 X42.072 Y44.901 E375.75326
G1 X43.487 Y44.901 E375.82386
G1 X73.684 Y75.098 E377.95442
G1 X75.098 Y75.098 E378.02496
G1 X44.901 Y44.901 E380.15552
G1 X46.315 Y44.901 E380.22607
G1 X76.512 Y75.098 E382.35663
G1 X77.926 Y75.098 E382.42717
G1 X47.729 Y44.901 E384.55774
G1 X49.143 Y44.901 E384.62828
G1 X79.34 Y75.098 E386.75884
G1 X80.755 Y75.098 E386.82944
G1 X50.558 Y44.901 E388.96
G1 X51.972 Y44.901 E389.03054
G1 X82.17 Y75.098 E391.16114
G1 X83.584 Y75.098 E391.23168
G1 X53.387 Y44.901 E393.36225
G1 X54.801 Y44.901 E393.43279
G1 X84.998 Y75.098 E395.56335
G1 X86.412 Y75.098 E395.6339
G1 X56.215 Y44.901 E397.76446
G1 X57.629 Y44.901 E397.835
G1 X87.826 Y75.098 E399.96556
G1 X89.241 Y75.098 E400.03616
G1 X59.044 Y44.901 E402.16672
G1 X60.458 Y44.901 E402.23726
G1 X90.655 Y75.098 E404.36783
G1 X92.069 Y75.098 E404.43837
G1 X61.872 Y44.901 E406.56893
G1 X63.286 Y44.901 E406.63948
G1 X93.483 Y75.098 E408.77004
G1 X94.897 Y75.098 E408.84058
G1 X64.7 Y44.901 E410.97114
G1 X66.115 Y44.901 E411.04174
G1 X96.312 Y75.099 E413.17234
G1 X97.727 Y75.099 E413.24293
G1 X67.53 Y44.902 E415.37349
G1 X68.944 Y44.902 E415.44404
G1 X99.141 Y75.099 E417.5746
G1 X100.555 Y75.099 E417.64514
G1 X70.358 Y44.902 E419.7757
G1 X71.772 Y44.902 E419.84625
G1 X101.969 Y75.099 E421.97681
G1 X103.383 Y75.099 E422.04736
G1 X73.186 Y44.902 E424.17792
G1 X74.601 Y44.902 E424.24851
G1 X104.798 Y75.099 E426.37907
G1 X106.212 Y75.099 E426.44962
G1 X76.015 Y44.902 E428.58018
G1 X77.429 Y44.902 E428.65072
G1 X107.626 Y75.099 E430.78129
G1 X109.04 Y75.099 E430.85183
G1 X78.843 Y44.902 E432.98239
G1 X80.258 Y44.902 E433.05299
G1 X110.438 Y75.083 E435.18238
G1 X110.638 Y75.067 E435.19239
G1 X111.178 Y75.002 E435.21953
G1 X111.399 Y74.964 E435.23072
G1 X111.672 Y74.903 E435.24467
G1 X81.672 Y44.903 E437.36133
G1 X83.087 Y44.903 E437.43193
G1 X112.758 Y74.574 E439.52538
G1 X112.858 Y74.536 E439.53071
G1 X113.334 Y74.323 E439.55673
G1 X113.557 Y74.21 E439.5692
G1 X113.716 Y74.118 E439.57837
G1 X84.501 Y44.903 E441.63964
G1 X85.915 Y44.903 E441.71019
G1 X114.573 Y73.561 E443.73217
G1 X114.636 Y73.516 E443.73603
G1 X114.802 Y73.382 E443.74667
G1 X115.208 Y73.026 E443.77361
G1 X115.331 Y72.905 E443.78222
G1 X87.329 Y44.903 E445.75791
G1 X88.744 Y44.903 E445.82851
G1 X115.995 Y72.154 E447.75121
G1 X116.197 Y71.888 E447.76788
G1 X116.333 Y71.689 E447.7799
G1 X116.565 Y71.311 E447.80203
G1 X90.158 Y44.903 E449.66522
G1 X91.572 Y44.903 E449.73576
G1 X117.032 Y70.363 E451.53211
G1 X117.038 Y70.347 E451.53296
G1 X117.223 Y69.843 E451.55974
G1 X117.286 Y69.64 E451.57035
G1 X117.375 Y69.292 E451.58827
G1 X92.986 Y44.903 E453.30904
G1 X94.4 Y44.903 E453.37959
G1 X117.569 Y68.072 E455.01429
G1 X117.595 Y67.552 E455.04026
G1 X117.596 Y66.684 E455.08357
G1 X95.815 Y44.904 E456.6203
G1 X97.23 Y44.904 E456.69089
G1 X117.596 Y65.27 E458.12782
G1 X117.596 Y63.856 E458.19837
G1 X98.644 Y44.904 E459.53553
G1 X100.058 Y44.904 E459.60608
G1 X117.596 Y62.442 E460.84348
G1 X117.597 Y61.028 E460.91402
G1 X101.472 Y44.904 E462.0517
G1 X102.886 Y44.904 E462.12224
G1 X117.597 Y59.614 E463.16015
G1 X117.598 Y58.201 E463.23064
G1 X104.301 Y44.904 E464.16882
G1 X105.715 Y44.904 E464.23936
G1 X117.598 Y56.787 E465.07777
G1 X117.598 Y55.373 E465.14831
G1 X107.129 Y44.904 E465.88696
G1 X108.543 Y44.904 E465.9575
G1 X117.598 Y53.959 E466.59638
G1 X117.598 Y52.545 E466.66693
G1 X109.957 Y44.904 E467.20604
G1 X110.051 Y44.904 E467.21073
G1 X110.655 Y44.933 E467.2409
G1 X110.864 Y44.955 E467.25138
G1 X111.407 Y45.037 E467.27878
G1 X111.529 Y45.061 E467.28499
G1 X117.434 Y50.966 E467.70161
G1 X117.35 Y50.594 E467.72064
G1 X117.28 Y50.341 E467.73374
G1 X117.116 Y49.846 E467.75975
G1 X117.035 Y49.641 E467.77075
G1 X116.825 Y49.17 E467.79648
G1 X116.705 Y48.936 E467.8096
G1 X116.553 Y48.671 E467.82484
G1 X113.826 Y45.944 E468.01724
G1 X114.188 Y46.166 E468.03843
G1 X114.387 Y46.302 E468.05046
G1 X114.796 Y46.611 E468.07603
G1 X114.984 Y46.772 E468.08838
G1 X115.371 Y47.132 E468.11475
G1 X115.526 Y47.29 E468.12579
G1 X115.886 Y47.701 E468.15305
G1 X116.015 Y47.862 E468.16334
G1 X116.324 Y48.294 E468.18984
G1 X116.454 Y48.499 E468.20195
