;FLAVOR:Marlin
;TIME:17097
;Filament used: 11.1927m
;Layer height: 0.1
;Generated with Cura_SteamEngine 3.1.0
M190 S60
M104 S200
M109 S200
M82 ; absolute extrusion mode
G28 ;Home
G1 Z15.0 F6000 ;Move the platform down 15mm
;Prime the extruder
G92 E0
G1 F200 E3
G92 E0
;LAYER_COUNT:111
;LAYER:-9
M107
G0 F3600 X19.553 Y19.003 Z0.36
G1 F1350 X20.138 Y18.437 E0.09746
G1 X23.877 Y15.152 E0.6934
G1 X24.529 Y14.629 E0.79348
G1 X28.724 Y11.643 E1.41003
G1 X29.387 Y11.22 E1.5042
G1 X33.852 Y8.689 E2.11874
G1 X34.557 Y8.335 E2.2132
G1 X39.345 Y6.241 E2.83893
G1 X40.139 Y5.946 E2.94035
G1 X45.006 Y4.397 E3.55191
G1 X45.77 Y4.198 E3.64644
G1 X50.728 Y3.165 E4.25284
G1 X51.495 Y3.042 E4.34585
G1 X56.592 Y2.512 E4.95944
G1 X57.226 Y2.473 E5.03549
G1 X59.764 Y2.403 E5.3395
G1 X60.193 Y2.404 E5.39087
G1 X62.847 Y2.474 E5.70876
G1 X63.463 Y2.516 E5.78269
G1 X68.364 Y3.024 E6.37266
G1 X69.262 Y3.162 E6.48145
G1 X74.325 Y4.22 E7.10077
G1 X75.119 Y4.433 E7.1992
G1 X80.007 Y5.996 E7.81366
G1 X80.739 Y6.275 E7.90746
G1 X85.334 Y8.284 E8.50794
G1 X86.067 Y8.646 E8.60583
G1 X90.513 Y11.159 E9.21733
G1 X91.214 Y11.602 E9.31662
G1 X95.387 Y14.566 E9.92949
G1 X96.123 Y15.152 E10.04214
G1 X99.945 Y18.513 E10.65155
G1 X100.528 Y19.086 E10.74943
G1 X103.996 Y22.837 E11.36111
G1 X104.495 Y23.438 E11.45464
G1 X107.557 Y27.521 E12.06572
G1 X107.994 Y28.173 E12.15971
G1 X110.67 Y32.628 E12.78197
G1 X111.041 Y33.329 E12.87693
G1 X113.224 Y38.003 E13.49461
G1 X113.473 Y38.617 E13.57395
G1 X115.162 Y43.463 E14.18842
G1 X115.389 Y44.232 E14.28443
G1 X116.592 Y49.323 E14.91079
G1 X116.721 Y50.031 E14.99696
G1 X117.381 Y55.111 E15.61034
G1 X117.444 Y55.906 E15.70583
G1 X117.578 Y61.004 E16.31645
G1 X117.554 Y61.956 E16.43048
G1 X117.157 Y67.05 E17.04227
G1 X117.054 Y67.834 E17.13695
G1 X116.128 Y72.896 E17.75311
G1 X115.945 Y73.659 E17.84706
G1 X114.508 Y78.585 E18.46147
G1 X114.234 Y79.367 E18.56068
G1 X112.317 Y84.076 E19.16945
G1 X111.987 Y84.777 E19.26222
G1 X109.551 Y89.348 E19.88241
G1 X109.128 Y90.047 E19.98023
G1 X106.239 Y94.331 E20.59893
G1 X105.764 Y94.959 E20.69321
G1 X102.481 Y98.884 E21.3059
G1 X102.025 Y99.378 E21.3864
G1 X98.38 Y102.935 E21.99621
G1 X97.639 Y103.584 E22.11415
G1 X93.632 Y106.75 E22.72563
G1 X92.997 Y107.196 E22.81854
G1 X88.672 Y109.945 E23.43215
G1 X87.941 Y110.354 E23.53245
G1 X83.37 Y112.635 E24.14413
G1 X82.638 Y112.953 E24.23969
G1 X77.835 Y114.76 E24.85414
G1 X77.066 Y115.001 E24.95063
G1 X72.132 Y116.298 E25.56148
G1 X71.3 Y116.468 E25.66316
G1 X66.261 Y117.249 E26.27371
G1 X65.447 Y117.329 E26.37165
G1 X60.382 Y117.588 E26.97891
G1 X59.574 Y117.585 E27.07565
G1 X54.568 Y117.33 E27.67583
G1 X53.722 Y117.247 E27.77762
G1 X48.7 Y116.468 E28.38612
G1 X47.868 Y116.298 E28.4878
G1 X42.934 Y115.001 E29.09865
G1 X42.165 Y114.76 E29.19515
G1 X37.362 Y112.953 E29.8096
G1 X36.63 Y112.635 E29.90516
G1 X32.059 Y110.354 E30.51683
G1 X31.328 Y109.945 E30.61713
G1 X27.003 Y107.196 E31.23074
G1 X26.368 Y106.75 E31.32366
G1 X22.361 Y103.584 E31.93513
G1 X21.741 Y103.047 E32.03334
G1 X18.048 Y99.452 E32.65044
G1 X17.506 Y98.871 E32.74558
G1 X14.228 Y94.948 E33.35771
G1 X13.751 Y94.317 E33.45242
G1 X13.634 Y94.152 E33.47664
G1 X10.878 Y90.056 E34.06776
G1 X10.448 Y89.348 E34.16695
G1 X8.011 Y84.769 E34.78803
G1 X7.669 Y84.044 E34.88402
G1 X5.763 Y79.354 E35.49018
G1 X5.496 Y78.597 E35.5863
G1 X4.055 Y73.659 E36.20222
G1 X3.85 Y72.788 E36.30936
G1 X2.947 Y67.834 E36.9123
G1 X2.83 Y66.921 E37.02252
G1 X2.446 Y61.956 E37.61878
G1 X2.422 Y61.16 E37.71414
G1 X2.55 Y56.007 E38.33133
G1 X2.608 Y55.221 E38.4257
G1 X3.278 Y50.031 E39.05229
G1 X3.427 Y49.23 E39.14984
G1 X4.573 Y44.378 E39.74679
G1 X4.842 Y43.45 E39.86248
G1 X6.487 Y38.725 E40.46154
G1 X6.843 Y37.849 E40.57476
G1 X9.018 Y33.213 E41.18791
G1 X9.393 Y32.517 E41.28258
G1 X12.023 Y28.145 E41.89348
G1 X12.479 Y27.472 E41.99082
G1 X15.551 Y23.381 E42.60339
G1 X16.087 Y22.743 E42.70316
G1 X19.553 Y19.003 E43.31371
G0 F3600 X19.2 Y19.383
G1 F1350 X19.2 Y100.573 E53.03512
G0 F3600 X20.8 Y102.13
G1 F1350 X20.8 Y17.855 E63.12591
G0 F3600 X22.4 Y16.449
G1 F1350 X22.4 Y103.614 E73.56274
G0 F3600 X24 Y104.879
G1 F1350 X24 Y15.053 E84.31819
G0 F3600 X25.6 Y13.866
G1 F1350 X25.6 Y106.143 E95.36711
G0 F3600 X27.2 Y107.321
G1 F1350 X27.2 Y12.727 E106.69347
G0 F3600 X28.8 Y11.594
G1 F1350 X28.8 Y108.338 E118.27725
G0 F3600 X30.4 Y109.355
G1 F1350 X30.4 Y10.645 E130.09644
G0 F3600 X32 Y9.738
G1 F1350 X32 Y110.32 E142.13978
G0 F3600 X33.6 Y111.122
G1 F1350 X33.6 Y8.831 E154.38774
G0 F3600 X35.2 Y8.053
G1 F1350 X35.2 Y111.921 E166.82453
G0 F3600 X36.8 Y112.708
G1 F1350 X36.8 Y7.354 E179.43925
G0 F3600 X38.4 Y6.654
G1 F1350 X38.4 Y113.343 E192.21381
G0 F3600 X40 Y113.945
G1 F1350 X40 Y5.997 E205.13913
G0 F3600 X41.6 Y5.481
G1 F1350 X41.6 Y114.547 E218.19831
G0 F3600 X43.2 Y115.07
G1 F1350 X43.2 Y4.971 E231.38118
G0 F3600 X44.8 Y4.462
G1 F1350 X44.8 Y115.491 E244.6754
G0 F3600 X46.4 Y115.912
G1 F1350 X46.4 Y4.066 E258.06745
G0 F3600 X48 Y3.733
G1 F1350 X48 Y116.324 E271.5487
G0 F3600 X49.6 Y116.607
G1 F1350 X49.6 Y3.4 E285.1037
G0 F3600 X51.2 Y3.089
G1 F1350 X51.2 Y116.855 E298.72565
G0 F3600 X52.8 Y117.103
G1 F1350 X52.8 Y2.906 E312.39919
G0 F3600 X54.4 Y2.739
G1 F1350 X54.4 Y117.313 E326.11788
G0 F3600 X56 Y117.402
G1 F1350 X56 Y2.573 E339.8671
G0 F3600 X57.6 Y2.462
G1 F1350 X57.6 Y117.484 E353.63943
G0 F3600 X59.2 Y117.565
G1 F1350 X59.2 Y2.418 E367.42673
G0 F3600 X60.8 Y2.421
G1 F1350 X60.8 Y117.567 E381.21391
G0 F3600 X62.4 Y117.485
G1 F1350 X62.4 Y2.463 E394.98624
G0 F3600 X64 Y2.572
G1 F1350 X64 Y117.403 E408.7357
G0 F3600 X65.6 Y117.314
G1 F1350 X65.6 Y2.738 E422.45463
G0 F3600 X67.2 Y2.904
G1 F1350 X67.2 Y117.104 E436.12853
G0 F3600 X68.8 Y116.856
G1 F1350 X68.8 Y3.092 E449.75023
G0 F3600 X70.4 Y3.4
G1 F1350 X70.4 Y116.608 E463.30536
G0 F3600 X72 Y116.325
G1 F1350 X72 Y3.735 E476.78649
G0 F3600 X73.6 Y4.069
G1 F1350 X73.6 Y115.913 E490.1783
G0 F3600 X75.2 Y115.492
G1 F1350 X75.2 Y4.459 E503.473
G0 F3600 X76.8 Y4.971
G1 F1350 X76.8 Y115.071 E516.65599
G0 F3600 X78.4 Y114.548
G1 F1350 X78.4 Y5.483 E529.71505
G0 F3600 X80 Y5.994
G1 F1350 X80 Y113.946 E542.64084
G0 F3600 X81.6 Y113.344
G1 F1350 X81.6 Y6.652 E555.41577
G0 F3600 X83.2 Y7.351
G1 F1350 X83.2 Y112.709 E568.03096
G0 F3600 X84.8 Y111.922
G1 F1350 X84.8 Y8.051 E580.46811
G0 F3600 X86.4 Y8.835
G1 F1350 X86.4 Y111.123 E592.71572
G0 F3600 X88 Y110.321
G1 F1350 X88 Y9.739 E604.75905
G0 F3600 X89.6 Y10.643
G1 F1350 X89.6 Y109.356 E616.5786
G0 F3600 X91.2 Y108.339
G1 F1350 X91.2 Y11.594 E628.16251
G0 F3600 X92.8 Y12.729
G1 F1350 X92.8 Y107.322 E639.48874
G0 F3600 X94.4 Y106.144
G1 F1350 X94.4 Y13.865 E650.5379
G0 F3600 X96 Y15.055
G1 F1350 X96 Y104.88 E661.29323
G0 F3600 X97.6 Y103.615
G1 F1350 X97.6 Y16.451 E671.72994
G0 F3600 X99.2 Y17.858
G1 F1350 X99.2 Y102.135 E681.82098
G0 F3600 X100.8 Y100.574
G1 F1350 X100.8 Y19.381 E691.54274
G0 F3600 X102.4 Y21.111
G1 F1350 X102.4 Y98.972 E700.86554
G0 F3600 X104 Y97.068
G1 F1350 X104 Y22.842 E709.7531
G0 F3600 X105.6 Y24.912
G1 F1350 X105.6 Y95.156 E718.16387
G0 F3600 X107.2 Y92.906
G1 F1350 X107.2 Y27.045 E726.04984
G0 F3600 X108.8 Y29.515
G1 F1350 X108.8 Y90.534 E733.35604
G0 F3600 X110.4 Y87.755
G1 F1350 X110.4 Y32.179 E740.01051
G0 F3600 X112 Y35.383
G1 F1350 X112 Y84.75 E745.92155
G0 F3600 X113.6 Y80.925
G1 F1350 X113.6 Y38.982 E750.94365
G0 F3600 X115.2 Y43.592
G1 F1350 X115.2 Y76.213 E754.84958
G0 F3600 X116.8 Y69.223
G1 F1350 X116.8 Y50.64 E757.07464
G0 F3600 X17.6 Y21.11
G1 F1350 X17.6 Y98.971 E766.39744
G0 F3600 X16 Y97.068
G1 F1350 X16 Y22.846 E775.28452
G0 F3600 X14.4 Y24.913
G1 F1350 X14.4 Y95.153 E783.69481
G0 F3600 X12.8 Y92.912
G1 F1350 X12.8 Y27.044 E791.58162
G0 F3600 X11.2 Y29.513
G1 F1350 X11.2 Y90.534 E798.88806
G0 F3600 X9.6 Y87.754
G1 F1350 X9.6 Y32.172 E805.54325
G0 F3600 X8 Y35.382
G1 F1350 X8 Y84.745 E811.4538
G0 F3600 X6.4 Y80.921
G1 F1350 X6.4 Y38.974 E816.47639
G0 F3600 X4.8 Y43.594
G1 F1350 X4.8 Y76.211 E820.38183
G0 F3600 X3.2 Y69.221
G1 F1350 X3.2 Y50.635 E822.60726
G0 F3600 X19.552 Y19.003
;TIME_ELAPSED:311.586666
;LAYER:-8
M140 S60
G0 X19.552 Y19.003 Z0.51
;TYPE:SUPPORT
G1 F1350 X19.287 Y19.287 E822.62664
G1 X100.684 Y100.684 E828.36963
G1 X99.969 Y101.383 E828.41952
G1 X18.607 Y20.021 E834.16005
G1 X17.927 Y20.755 E834.20997
G1 X99.253 Y102.081 E839.94796
G1 X98.537 Y102.78 E839.99788
G1 X17.247 Y21.489 E845.73336
G1 X16.566 Y22.223 E845.78331
G1 X97.792 Y103.449 E851.51425
G1 X97.639 Y103.583 E851.52439
G1 X97.009 Y104.08 E851.56443
G1 X15.896 Y22.967 E857.28739
G1 X15.551 Y23.38 E857.31424
G1 X15.269 Y23.754 E857.3376
G1 X96.219 Y104.704 E863.04906
G1 X95.429 Y105.328 E863.09929
G1 X14.663 Y24.562 E868.79777
G1 X14.056 Y25.37 E868.84819
G1 X94.639 Y105.952 E874.53372
G1 X93.849 Y106.577 E874.58397
G1 X13.449 Y26.177 E880.25663
G1 X12.843 Y26.985 E880.30702
G1 X93.029 Y107.171 E885.96457
G1 X92.996 Y107.195 E885.96661
G1 X92.166 Y107.722 E886.01566
G1 X12.251 Y27.807 E891.65409
G1 X12.023 Y28.144 E891.67439
G1 X11.704 Y28.674 E891.70525
G1 X91.301 Y108.272 E897.32129
G1 X90.436 Y108.821 E897.3724
G1 X11.172 Y29.557 E902.9649
G1 X10.641 Y30.44 E903.01631
G1 X89.572 Y109.371 E908.58532
G1 X88.707 Y109.921 E908.63646
G1 X10.11 Y31.323 E914.18194
G1 X9.578 Y32.205 E914.23332
G1 X87.797 Y110.424 E919.7521
G1 X86.853 Y110.895 E919.80473
G1 X9.07 Y33.112 E925.29274
G1 X9.017 Y33.212 E925.29839
G1 X8.614 Y34.07 E925.34568
G1 X85.909 Y111.365 E930.79926
G1 X84.966 Y111.836 E930.85185
G1 X8.162 Y35.032 E936.27078
G1 X7.711 Y35.995 E936.32384
G1 X84.023 Y112.307 E941.70806
G1 X83.37 Y112.634 E941.7445
G1 X83.066 Y112.765 E941.76101
G1 X7.259 Y36.958 E947.1096
G1 X6.843 Y37.848 E947.15862
G1 X6.812 Y37.924 E947.16271
G1 X82.056 Y113.169 E952.47162
G1 X81.029 Y113.556 E952.52637
G1 X6.412 Y38.938 E957.79104
G1 X6.046 Y39.987 E957.84647
G1 X80.002 Y113.943 E963.06446
G1 X78.974 Y114.329 E963.11925
G1 X5.681 Y41.036 E968.29046
G1 X5.316 Y42.085 E968.34588
G1 X77.947 Y114.716 E973.47039
G1 X77.835 Y114.759 E973.47637
G1 X77.065 Y115 E973.51662
G1 X76.868 Y115.051 E973.52678
G1 X4.951 Y43.134 E978.60091
G1 X4.842 Y43.448 E978.61749
G1 X4.618 Y44.216 E978.6574
G1 X75.748 Y115.346 E983.67601
G1 X74.628 Y115.64 E983.73378
G1 X4.341 Y45.353 E988.69291
G1 X4.071 Y46.497 E988.75155
G1 X73.508 Y115.935 E993.65074
G1 X72.389 Y116.229 E993.70846
G1 X3.801 Y47.642 E998.54768
G1 X3.531 Y48.786 E998.60632
G1 X71.224 Y116.478 E1003.38239
G1 X69.999 Y116.668 E1003.44424
G1 X3.29 Y49.959 E1008.15092
G1 X3.278 Y50.03 E1008.15451
G1 X3.125 Y51.208 E1008.21378
G1 X68.775 Y116.858 E1012.84574
G1 X67.55 Y117.048 E1012.90759
G1 X2.963 Y52.46 E1017.46458
G1 X2.802 Y53.713 E1017.52761
G1 X66.325 Y117.237 E1022.00954
G1 X66.261 Y117.248 E1022.01278
G1 X65.446 Y117.328 E1022.05363
G1 X65.024 Y117.35 E1022.07471
G1 X2.64 Y54.966 E1026.47624
G1 X2.607 Y55.22 E1026.48902
G1 X2.55 Y56.006 E1026.52834
G1 X2.543 Y56.283 E1026.54216
G1 X63.678 Y117.418 E1030.85557
G1 X62.332 Y117.487 E1030.92281
G1 X2.508 Y57.663 E1035.14371
G1 X2.474 Y59.042 E1035.21253
G1 X60.987 Y117.555 E1039.34094
G1 X60.381 Y117.586 E1039.37121
G1 X59.601 Y117.584 E1039.41013
G1 X2.44 Y60.422 E1043.44318
G1 X2.421 Y61.159 E1043.47996
G1 X2.442 Y61.839 E1043.5139
G1 X58.112 Y117.509 E1047.44172
G1 X56.622 Y117.433 E1047.51615
G1 X2.555 Y63.366 E1051.33087
G1 X2.673 Y64.898 E1051.40753
G1 X55.132 Y117.357 E1055.1088
G1 X54.568 Y117.329 E1055.13697
G1 X53.722 Y117.246 E1055.17938
G1 X53.584 Y117.224 E1055.18635
G1 X2.791 Y66.431 E1058.77007
G1 X2.829 Y66.92 E1058.79454
G1 X2.946 Y67.833 E1058.84046
G1 X2.983 Y68.037 E1058.85081
G1 X51.911 Y116.965 E1062.30294
G1 X50.237 Y116.705 E1062.38746
G1 X3.298 Y69.766 E1065.69926
G1 X3.614 Y71.496 E1065.787
G1 X48.555 Y116.437 E1068.95783
G1 X47.867 Y116.297 E1068.99286
G1 X46.69 Y115.987 E1069.05358
G1 X3.96 Y73.256 E1072.06845
G1 X4.055 Y73.658 E1072.08906
G1 X4.51 Y75.221 E1072.17027
G1 X44.772 Y115.483 E1075.01097
G1 X42.933 Y115 E1075.10583
G1 X42.848 Y114.973 E1075.11028
G1 X5.093 Y77.218 E1077.7741
G1 X5.495 Y78.596 E1077.84572
G1 X5.734 Y79.273 E1077.88153
G1 X40.649 Y114.188 E1080.34498
G1 X38.382 Y113.335 E1080.46582
G1 X6.695 Y81.648 E1082.70151
G1 X7.663 Y84.031 E1082.82983
G1 X35.904 Y112.271 E1084.82235
G1 X33.081 Y110.863 E1084.97974
G1 X9.176 Y86.957 E1086.6664
G1 X10.448 Y89.347 E1086.80147
G1 X10.878 Y90.055 E1086.8428
G1 X10.915 Y90.111 E1086.84615
G1 X29.737 Y108.933 E1088.17414
G1 X27.002 Y107.195 E1088.33581
G1 X26.368 Y106.749 E1088.37448
G1 X25.276 Y105.887 E1088.44389
G1 X13.891 Y94.501 E1089.2472
G0 F3600 X14.228 Y94.947
G1 F1350 X17.505 Y98.869 E1089.50218
G1 X18.048 Y99.451 E1089.54189
G1 X21.74 Y103.046 E1089.79898
G1 X22.36 Y103.583 E1089.8399
G1 X25.276 Y105.887 E1090.02532
G0 F3600 X101.4 Y99.986
G1 F1350 X102.024 Y99.378 E1090.06878
G1 X102.111 Y99.283 E1090.07521
G1 X20.738 Y17.909 E1095.81655
G1 X21.491 Y17.248 E1095.86654
G1 X102.775 Y98.532 E1101.60156
G1 X103.419 Y97.762 E1101.65164
G1 X22.243 Y16.586 E1107.37905
G1 X22.996 Y15.925 E1107.42904
G1 X104.063 Y96.992 E1113.14875
G1 X104.707 Y96.222 E1113.19883
G1 X23.749 Y15.264 E1118.91085
G1 X23.876 Y15.151 E1118.91934
G1 X24.528 Y14.628 E1118.96104
G1 X105.351 Y95.452 E1124.66357
G1 X105.763 Y94.958 E1124.69566
G1 X105.983 Y94.669 E1124.71378
G1 X25.354 Y14.041 E1130.40256
G1 X26.18 Y13.452 E1130.45317
G1 X106.569 Y93.841 E1136.12505
G1 X107.138 Y92.996 E1136.17587
G1 X27.007 Y12.865 E1141.82955
G1 X27.833 Y12.276 E1141.88016
G1 X107.707 Y92.151 E1147.51574
G1 X108.277 Y91.307 E1147.56655
G1 X28.659 Y11.688 E1153.18407
G1 X28.723 Y11.642 E1153.188
G1 X29.386 Y11.219 E1153.22723
G1 X29.525 Y11.141 E1153.23519
G1 X108.847 Y90.462 E1158.83175
G1 X109.127 Y90.046 E1158.85676
G1 X109.398 Y89.599 E1158.88284
G1 X30.428 Y10.629 E1164.4546
G1 X31.331 Y10.117 E1164.50639
G1 X109.902 Y88.688 E1170.05
G1 X110.393 Y87.766 E1170.10212
G1 X32.234 Y9.606 E1175.61669
G1 X33.136 Y9.094 E1175.66844
G1 X110.885 Y86.844 E1181.15408
G1 X111.377 Y85.921 E1181.20626
G1 X34.047 Y8.591 E1186.66231
G1 X34.556 Y8.335 E1186.69074
G1 X35.008 Y8.138 E1186.71534
G1 X111.869 Y84.999 E1192.1383
G1 X111.986 Y84.777 E1192.15082
G1 X112.316 Y84.075 E1192.18952
G1 X112.328 Y84.044 E1192.19117
G1 X35.992 Y7.708 E1197.57709
G1 X36.976 Y7.277 E1197.63069
G1 X112.738 Y83.039 E1202.9761
G1 X113.147 Y82.034 E1203.03024
G1 X37.959 Y6.846 E1208.33516
G1 X38.943 Y6.416 E1208.38873
G1 X113.556 Y81.029 E1213.65308
G1 X113.965 Y80.024 E1213.70721
G1 X39.955 Y6.014 E1218.92902
G1 X40.138 Y5.946 E1218.93876
G1 X41.021 Y5.666 E1218.98497
G1 X114.36 Y79.005 E1224.15944
G1 X114.507 Y78.585 E1224.18164
G1 X114.699 Y77.929 E1224.21574
G1 X42.094 Y5.324 E1229.33841
G1 X43.166 Y4.982 E1229.39455
G1 X115.018 Y76.834 E1234.4641
G1 X115.337 Y75.739 E1234.521
G1 X44.239 Y4.641 E1239.53735
G1 X45.005 Y4.397 E1239.57745
G1 X45.326 Y4.314 E1239.594
G1 X115.657 Y74.645 E1244.55623
G1 X115.944 Y73.659 E1244.60746
G1 X115.971 Y73.545 E1244.61331
G1 X46.477 Y4.051 E1249.51648
G1 X47.647 Y3.807 E1249.57611
G1 X116.222 Y72.381 E1254.41441
G1 X116.44 Y71.185 E1254.47506
G1 X48.817 Y3.563 E1259.2462
G1 X49.988 Y3.319 E1259.30587
G1 X116.659 Y69.99 E1264.00987
G1 X116.877 Y68.794 E1264.07052
G1 X51.176 Y3.093 E1268.70608
G1 X51.494 Y3.041 E1268.72216
G1 X52.441 Y2.943 E1268.76966
G1 X117.085 Y67.588 E1273.33068
G1 X117.156 Y67.05 E1273.35775
G1 X117.214 Y66.303 E1273.39513
G1 X53.722 Y2.81 E1277.87487
G1 X55.003 Y2.677 E1277.93912
G1 X117.316 Y64.99 E1282.33564
G1 X117.419 Y63.679 E1282.40125
G1 X56.284 Y2.544 E1286.71465
G1 X56.591 Y2.511 E1286.73006
G1 X57.225 Y2.472 E1286.76175
G1 X57.616 Y2.462 E1286.78126
G1 X117.521 Y62.366 E1291.00785
G1 X117.552 Y61.955 E1291.02841
G1 X117.577 Y61.008 E1291.07567
G1 X58.993 Y2.424 E1295.20909
G1 X59.763 Y2.402 E1295.24752
G1 X60.191 Y2.404 E1295.26887
G1 X60.392 Y2.409 E1295.27891
G1 X117.539 Y59.556 E1299.31093
G1 X117.5 Y58.103 E1299.38345
G1 X61.844 Y2.448 E1303.31025
G1 X62.846 Y2.473 E1303.36025
G1 X63.317 Y2.505 E1303.38381
G1 X117.462 Y56.651 E1307.20406
G1 X117.442 Y55.905 E1307.24129
G1 X117.384 Y55.159 E1307.27862
