;FLAVOR:Marlin
;TIME:1076
;Filament used: 0.810887m
;Layer height: 0.1
;Generated with Cura_SteamEngine 3.1.0
M190 S65
M104 S200
M109 S200
M82 ; absolute extrusion mode
G28 ;Home
G1 Z15.0 F6000 ;Move the platform down 15mm
;Prime the extruder
G92 E0
G1 F200 E3
G92 E0
;LAYER_COUNT:49
;LAYER:-9
M107
G0 F3600 X41.272 Y40.427 Z0.36
G1 F1350 X42.419 Y39.391 E0.18507
G1 X43.414 Y38.582 E0.33861
G1 X44.776 Y37.594 E0.54008
G1 X45.849 Y36.902 E0.69296
G1 X47.081 Y36.189 E0.8634
G1 X48.352 Y35.543 E1.03411
G1 X49.735 Y34.931 E1.2152
G1 X50.951 Y34.467 E1.37104
G1 X52.304 Y34.027 E1.54139
G1 X53.692 Y33.656 E1.71342
G1 X55.2 Y33.339 E1.89793
G1 X56.443 Y33.144 E2.04858
G1 X57.999 Y32.983 E2.23589
G1 X59.292 Y32.92 E2.39089
G1 X60.834 Y32.923 E2.57553
G1 X62.001 Y32.983 E2.71544
G1 X63.557 Y33.145 E2.90276
G1 X64.964 Y33.37 E3.07337
G1 X66.478 Y33.697 E3.25883
G1 X67.696 Y34.027 E3.40993
G1 X69.049 Y34.466 E3.58024
G1 X70.364 Y34.972 E3.74895
G1 X71.791 Y35.611 E3.93617
G1 X72.919 Y36.19 E4.08798
G1 X74.144 Y36.898 E4.25739
G1 X75.215 Y37.588 E4.40994
G1 X76.494 Y38.512 E4.59887
G1 X77.517 Y39.336 E4.75615
G1 X78.656 Y40.359 E4.93946
G1 X79.573 Y41.272 E5.0944
G1 X80.609 Y42.419 E5.27947
G1 X81.418 Y43.414 E5.43302
G1 X82.406 Y44.776 E5.63449
G1 X83.098 Y45.849 E5.78737
G1 X83.811 Y47.081 E5.95781
G1 X84.453 Y48.343 E6.12734
G1 X85.069 Y49.735 E6.30961
G1 X85.531 Y50.943 E6.46446
G1 X86.006 Y52.416 E6.64978
G1 X86.344 Y53.692 E6.80783
G1 X86.661 Y55.2 E6.99234
G1 X86.856 Y56.443 E7.14299
G1 X87.017 Y57.999 E7.3303
G1 X87.08 Y59.282 E7.48411
G1 X87.077 Y60.834 E7.66994
G1 X87.017 Y62.001 E7.80985
G1 X86.855 Y63.557 E7.99717
G1 X86.632 Y64.955 E8.16668
G1 X86.303 Y66.478 E8.35324
G1 X85.973 Y67.696 E8.50434
G1 X85.534 Y69.049 E8.67466
G1 X85.028 Y70.364 E8.84337
G1 X84.394 Y71.781 E9.02924
G1 X83.81 Y72.919 E9.1824
G1 X83.036 Y74.254 E9.36717
G1 X82.317 Y75.352 E9.52432
G1 X81.418 Y76.586 E9.70713
G1 X80.615 Y77.574 E9.85957
G1 X79.573 Y78.728 E10.04574
G1 X78.658 Y79.639 E10.20034
G1 X77.517 Y80.664 E10.38399
G1 X76.494 Y81.488 E10.54128
G1 X75.224 Y82.406 E10.72891
G1 X74.151 Y83.098 E10.88179
G1 X72.919 Y83.811 E11.05222
G1 X71.648 Y84.457 E11.22294
G1 X70.265 Y85.069 E11.40402
G1 X69.049 Y85.533 E11.55986
G1 X67.696 Y85.973 E11.73022
G1 X66.308 Y86.344 E11.90225
G1 X64.8 Y86.661 E12.08675
G1 X63.557 Y86.856 E12.23741
G1 X62.001 Y87.017 E12.42471
G1 X60.708 Y87.08 E12.57971
G1 X59.166 Y87.077 E12.76435
G1 X57.999 Y87.017 E12.90427
G1 X56.443 Y86.855 E13.09158
G1 X55.036 Y86.63 E13.26219
G1 X53.522 Y86.303 E13.44765
G1 X52.304 Y85.973 E13.59875
G1 X50.951 Y85.534 E13.76907
G1 X49.636 Y85.028 E13.93778
G1 X48.209 Y84.389 E14.12499
G1 X47.081 Y83.81 E14.27681
G1 X45.849 Y83.098 E14.44718
G1 X44.776 Y82.406 E14.60006
G1 X43.506 Y81.488 E14.78769
G1 X42.483 Y80.664 E14.94498
G1 X41.342 Y79.639 E15.12863
G1 X40.427 Y78.728 E15.28323
G1 X39.385 Y77.574 E15.4694
G1 X38.582 Y76.586 E15.62184
G1 X37.588 Y75.215 E15.82461
G1 X36.898 Y74.144 E15.97716
G1 X36.189 Y72.919 E16.14663
G1 X35.543 Y71.648 E16.31734
G1 X34.931 Y70.265 E16.49843
G1 X34.467 Y69.049 E16.65427
G1 X34.027 Y67.696 E16.82462
G1 X33.656 Y66.308 E16.99665
G1 X33.337 Y64.789 E17.1825
G1 X33.144 Y63.557 E17.33181
G1 X32.983 Y62.001 E17.51912
G1 X32.92 Y60.718 E17.67292
G1 X32.923 Y59.166 E17.85875
G1 X32.983 Y57.999 E17.99867
G1 X33.145 Y56.443 E18.18599
G1 X33.368 Y55.045 E18.3555
G1 X33.697 Y53.522 E18.54206
G1 X34.027 Y52.304 E18.69316
G1 X34.502 Y50.85 E18.87631
G1 X34.972 Y49.636 E19.03218
G1 X35.606 Y48.219 E19.21806
G1 X36.19 Y47.081 E19.37121
G1 X36.898 Y45.856 E19.54063
G1 X37.588 Y44.785 E19.69317
G1 X38.512 Y43.506 E19.8821
G1 X39.336 Y42.483 E20.03938
G1 X40.361 Y41.342 E20.22303
G1 X41.272 Y40.427 E20.37764
G0 F3600 X41.6 Y40.13
G1 F1350 X41.6 Y79.87 E25.13596
G0 F3600 X43.2 Y81.241
G1 F1350 X43.2 Y38.755 E30.22309
G0 F3600 X44.8 Y37.578
G1 F1350 X44.8 Y82.421 E35.59243
G0 F3600 X46.4 Y83.416
G1 F1350 X46.4 Y36.583 E41.20005
G0 F3600 X48 Y35.721
G1 F1350 X48 Y84.281 E47.01445
G0 F3600 X49.6 Y85.011
G1 F1350 X49.6 Y34.99 E53.00379
G0 F3600 X51.2 Y34.386
G1 F1350 X51.2 Y85.614 E59.13765
G0 F3600 X52.8 Y86.107
G1 F1350 X52.8 Y33.894 E65.38945
G0 F3600 X54.4 Y33.507
G1 F1350 X54.4 Y86.492 E71.73369
G0 F3600 X56 Y86.784
G1 F1350 X56 Y33.213 E78.1481
G0 F3600 X57.6 Y33.024
G1 F1350 X57.6 Y86.975 E84.608
G0 F3600 X59.2 Y87.077
G1 F1350 X59.2 Y32.924 E91.09209
G0 F3600 X60.8 Y32.923
G1 F1350 X60.8 Y87.076 E97.57618
G0 F3600 X62.4 Y86.976
G1 F1350 X62.4 Y33.025 E104.03608
G0 F3600 X64 Y33.216
G1 F1350 X64 Y86.787 E110.45049
G0 F3600 X65.6 Y86.493
G1 F1350 X65.6 Y33.508 E116.79472
G0 F3600 X67.2 Y33.893
G1 F1350 X67.2 Y86.106 E123.04652
G0 F3600 X68.8 Y85.614
G1 F1350 X68.8 Y34.386 E129.18038
G0 F3600 X70.4 Y34.989
G1 F1350 X70.4 Y85.01 E135.16972
G0 F3600 X72 Y84.279
G1 F1350 X72 Y35.719 E140.98413
G0 F3600 X73.6 Y36.584
G1 F1350 X73.6 Y83.417 E146.59175
G0 F3600 X75.2 Y82.422
G1 F1350 X75.2 Y37.579 E151.96109
G0 F3600 X76.8 Y38.759
G1 F1350 X76.8 Y81.242 E157.04785
G0 F3600 X78.4 Y79.871
G1 F1350 X78.4 Y40.13 E161.8063
G0 F3600 X80 Y41.745
G1 F1350 X80 Y78.256 E166.178
G0 F3600 X81.6 Y76.337
G1 F1350 X81.6 Y43.665 E170.09003
G0 F3600 X83.2 Y46.026
G1 F1350 X83.2 Y73.972 E173.43619
G0 F3600 X84.8 Y70.874
G1 F1350 X84.8 Y49.128 E176.03998
G0 F3600 X86.4 Y53.959
G1 F1350 X86.4 Y66.029 E177.4852
G0 F3600 X40 Y78.255
G1 F1350 X40 Y41.743 E181.85702
G0 F3600 X38.4 Y43.661
G1 F1350 X38.4 Y76.334 E185.76917
G0 F3600 X36.8 Y73.974
G1 F1350 X36.8 Y46.025 E189.11568
G0 F3600 X35.2 Y49.126
G1 F1350 X35.2 Y70.872 E191.71947
G0 F3600 X33.6 Y66.041
G1 F1350 X33.6 Y53.971 E193.16469
G0 F3600 X40.849 Y40.849
;TIME_ELAPSED:75.281499
;LAYER:-8
M140 S65
G0 X40.849 Y40.849 Z0.51
;TYPE:SUPPORT
G1 F1350 X41.27 Y40.426 E193.19446
G1 X41.57 Y40.156 E193.2146
G1 X79.842 Y78.428 E195.9149
G1 X80.514 Y77.685 E195.96488
G1 X42.313 Y39.485 E198.66013
G1 X42.418 Y39.39 E198.66719
G1 X43.088 Y38.846 E198.71025
G1 X81.153 Y76.911 E201.39594
G1 X81.416 Y76.586 E201.4168
G1 X81.765 Y76.108 E201.44633
G1 X43.892 Y38.235 E204.11847
G1 X44.711 Y37.64 E204.16898
G1 X82.358 Y75.287 E206.82518
G1 X82.918 Y74.432 E206.87617
G1 X45.568 Y37.082 E209.51141
G1 X45.848 Y36.901 E209.52805
G1 X46.451 Y36.552 E209.5628
G1 X83.446 Y73.546 E212.17297
G1 X83.809 Y72.918 E212.20915
G1 X83.953 Y72.639 E212.22482
G1 X47.36 Y36.046 E214.80665
G1 X48.298 Y35.57 E214.85913
G1 X84.429 Y71.701 E217.40837
G1 X84.866 Y70.724 E217.46176
G1 X49.276 Y35.134 E219.97283
G1 X49.734 Y34.93 E219.99784
G1 X50.279 Y34.723 E220.02693
G1 X85.275 Y69.719 E222.49609
G1 X85.533 Y69.048 E222.53195
G1 X85.652 Y68.681 E222.5512
G1 X51.318 Y34.347 E224.97365
G1 X52.303 Y34.027 E225.02532
G1 X52.389 Y34.004 E225.02976
G1 X85.995 Y67.61 E227.40085
G1 X86.297 Y66.498 E227.45833
G1 X53.505 Y33.706 E229.77199
G1 X53.691 Y33.656 E229.78159
G1 X54.665 Y33.451 E229.83125
G1 X86.549 Y65.335 E232.08084
G1 X86.631 Y64.955 E232.10024
G1 X86.762 Y64.135 E232.14166
G1 X55.862 Y33.235 E234.32183
G1 X56.441 Y33.144 E234.35107
G1 X57.116 Y33.074 E234.38492
G1 X86.924 Y62.883 E236.48807
G1 X87.015 Y62.001 E236.53231
G1 X87.037 Y61.581 E236.55329
G1 X58.419 Y32.963 E238.57245
G1 X59.29 Y32.92 E238.61596
G1 X59.791 Y32.921 E238.64095
G1 X87.078 Y60.208 E240.5662
G1 X87.079 Y59.281 E240.61244
G1 X87.054 Y58.77 E240.63797
G1 X61.227 Y32.943 E242.4602
G1 X61.999 Y32.982 E242.49877
G1 X62.76 Y33.062 E242.53694
G1 X86.938 Y57.239 E244.2428
G1 X86.855 Y56.442 E244.28277
G1 X86.725 Y55.612 E244.32469
G1 X64.391 Y33.278 E245.90047
G1 X64.963 Y33.369 E245.92937
G1 X66.154 Y33.627 E245.99017
G1 X86.376 Y53.849 E247.41694
G1 X86.343 Y53.692 E247.42494
G1 X86.005 Y52.416 E247.4908
G1 X85.837 Y51.896 E247.51806
G1 X68.1 Y34.158 E248.76954
G1 X69.048 Y34.466 E248.81927
G1 X70.305 Y34.95 E248.88647
G1 X85.05 Y49.694 E249.92677
G1 X84.451 Y48.342 E250.00054
G1 X83.81 Y47.08 E250.07116
G1 X83.756 Y46.987 E250.07653
G1 X73.015 Y36.246 E250.83436
G1 X74.142 Y36.898 E250.89932
G1 X75.214 Y37.587 E250.9629
G1 X76.493 Y38.511 E251.04162
G1 X77.516 Y39.335 E251.10715
G1 X77.544 Y39.361 E251.10906
G1 X78.655 Y40.358 E251.18353
G1 X79.572 Y41.272 E251.24813
G1 X80.608 Y42.418 E251.3252
G0 F3600 X80.632 Y42.449
G1 F1350 X77.544 Y39.361 E251.54307
G0 F3600 X40.849 Y40.849
G1 F1350 X79.148 Y79.148 E254.24528
G1 X78.657 Y79.637 E254.27985
G1 X78.428 Y79.842 E254.29518
G1 X40.155 Y41.569 E256.99555
G1 X39.485 Y42.313 E257.0455
G1 X77.684 Y80.512 E259.74064
G1 X77.516 Y80.663 E259.75191
G1 X76.909 Y81.151 E259.79077
G1 X38.846 Y43.088 E262.47632
G1 X38.511 Y43.505 E262.50301
G1 X38.233 Y43.89 E262.5267
G1 X76.108 Y81.765 E265.19898
G1 X75.287 Y82.358 E265.24951
G1 X37.64 Y44.711 E267.90571
G1 X37.587 Y44.784 E267.91021
G1 X37.082 Y45.567 E267.9567
G1 X74.43 Y82.916 E270.59183
G1 X74.15 Y83.097 E270.60847
G1 X73.546 Y83.446 E270.64327
G1 X36.552 Y46.451 E273.25343
G1 X36.189 Y47.08 E273.28966
G1 X36.046 Y47.359 E273.3053
G1 X72.638 Y83.951 E275.88707
G1 X71.7 Y84.428 E275.93957
G1 X35.57 Y48.298 E278.48874
G1 X35.132 Y49.274 E278.54211
G1 X70.722 Y84.864 E281.05317
G1 X70.264 Y85.068 E281.07819
G1 X69.719 Y85.275 E281.10727
G1 X34.721 Y50.278 E283.57654
G1 X34.501 Y50.848 E283.60702
G1 X34.348 Y51.318 E283.63168
G1 X68.68 Y85.651 E286.05402
G1 X67.696 Y85.972 E286.10566
G1 X67.61 Y85.994 E286.11009
G1 X34.004 Y52.388 E288.48117
G1 X33.702 Y53.501 E288.53871
G1 X66.494 Y86.293 E290.85236
G1 X66.308 Y86.343 E290.86197
G1 X65.334 Y86.547 E290.91162
G1 X33.45 Y54.663 E293.1612
G1 X33.368 Y55.044 E293.18065
G1 X33.236 Y55.864 E293.22208
G1 X64.136 Y86.764 E295.40225
G1 X63.557 Y86.855 E295.43149
G1 X62.883 Y86.924 E295.46529
G1 X33.074 Y57.115 E297.56848
G1 X32.982 Y57.997 E297.61272
G1 X32.961 Y58.416 E297.63365
G1 X61.579 Y87.035 E299.65284
G1 X60.707 Y87.078 E299.69639
G1 X60.208 Y87.078 E299.72129
G1 X32.921 Y59.791 E301.64653
G1 X32.92 Y60.717 E301.69273
G1 X32.944 Y61.229 E301.71831
G1 X58.771 Y87.055 E303.5405
G1 X57.999 Y87.015 E303.57907
G1 X57.238 Y86.936 E303.61724
G1 X33.06 Y62.759 E305.32309
G1 X33.143 Y63.556 E305.36307
G1 X33.273 Y64.386 E305.40499
G1 X55.607 Y86.72 E306.98077
G1 X55.035 Y86.629 E307.00967
G1 X53.844 Y86.371 E307.07046
G1 X33.622 Y66.149 E308.49724
G1 X33.656 Y66.307 E308.5053
G1 X34.027 Y67.695 E308.57698
G1 X34.158 Y68.099 E308.59817
G1 X51.899 Y85.84 E309.84989
G1 X50.951 Y85.533 E309.8996
G1 X49.693 Y85.048 E309.96687
G1 X34.948 Y70.304 E311.00717
G1 X35.542 Y71.647 E311.08044
G1 X36.189 Y72.918 E311.15159
G1 X36.243 Y73.013 E311.15704
G1 X46.983 Y83.752 E311.91477
G1 X45.848 Y83.097 E311.98015
G1 X44.776 Y82.405 E312.04381
G1 X43.506 Y81.487 E312.12199
G1 X42.482 Y80.663 E312.18756
G1 X42.454 Y80.638 E312.18943
G1 X39.366 Y77.55 E312.40731
G0 F3600 X39.385 Y77.573
G1 F1350 X40.427 Y78.727 E312.48488
G1 X41.341 Y79.638 E312.54926
G1 X42.454 Y80.638 E312.62391
G0 F3600 X40.615 Y40.8
;TIME_ELAPSED:183.152066
;LAYER:-7
G0 X40.615 Y40.8 Z0.61
G1 F1800 X41.015 Y40.4 E312.63332
G1 X78.985 Y40.4 E313.26476
G1 X78.874 Y40.289 E313.26737
G1 X78.554 Y40 E313.27454
G1 X41.447 Y40 E313.89163
G1 X41.891 Y39.6 E313.90157
G1 X78.11 Y39.6 E314.5039
G1 X77.666 Y39.2 E314.51383
G1 X42.335 Y39.2 E315.10139
G1 X42.357 Y39.18 E315.10188
G1 X42.83 Y38.8 E315.11197
G1 X77.173 Y38.8 E315.6831
G1 X76.676 Y38.4 E315.69371
G1 X43.326 Y38.4 E316.24832
G1 X43.388 Y38.35 E316.24965
G1 X43.871 Y38 E316.25957
G1 X76.131 Y38 E316.79605
G1 X75.58 Y37.6 E316.80738
G1 X44.421 Y37.6 E317.32555
G1 X44.527 Y37.523 E317.32773
G1 X45.025 Y37.2 E317.3376
G1 X74.977 Y37.2 E317.83571
G1 X74.362 Y36.8 E317.84791
G1 X45.64 Y36.8 E318.32556
G1 X45.749 Y36.729 E318.32772
G1 X46.321 Y36.4 E318.33869
G1 X73.682 Y36.4 E318.79371
G1 X72.987 Y36 E318.80704
G1 X47.015 Y36 E319.23896
G1 X47.077 Y35.964 E319.24015
G1 X47.798 Y35.6 E319.25358
G1 X72.205 Y35.6 E319.65947
G1 X71.734 Y35.362 E319.66825
G1 X71.369 Y35.2 E319.67489
G1 X48.634 Y35.2 E320.05298
G1 X49.537 Y34.8 E320.0694
G1 X70.466 Y34.8 E320.41745
G1 X70.341 Y34.745 E320.41972
G1 X69.438 Y34.4 E320.4358
G1 X50.566 Y34.4 E320.74964
G1 X50.885 Y34.278 E320.75532
G1 X51.748 Y34 E320.7704
G1 X68.256 Y34 E321.04493
G1 X67.632 Y33.799 E321.05583
G1 X66.884 Y33.6 E321.0687
G1 X53.121 Y33.6 E321.29758
G1 X53.64 Y33.462 E321.30651
G1 X54.893 Y33.2 E321.3278
G1 X65.129 Y33.2 E321.49802
G1 X64.996 Y33.172 E321.50029
G1 X63.695 Y32.961 E321.5222
G1 X62.176 Y32.8 E321.54761
G1 X57.817 Y32.8 E321.6201
G1 X57.892 Y32.792 E321.62135
G1 X59.166 Y32.722 E321.64257
G1 X60.713 Y32.719 E321.6683
G1 X62.025 Y32.784 E321.69014
G0 F3600 X79.383 Y40.8
G1 F1800 X40.615 Y40.8 E322.33486
G0 F3600 X40.223 Y41.2
G1 F1800 X79.781 Y41.2 E322.99271
G1 X79.383 Y40.8 E323.00209
G0 F3600 X80.141 Y41.6
G1 F1800 X80.5 Y42 E323.01103
G1 X39.502 Y42 E323.69283
G1 X39.176 Y42.362 E323.70093
G1 X39.146 Y42.4 E323.70174
G1 X80.856 Y42.4 E324.39538
G1 X81.178 Y42.8 E324.40392
G1 X38.824 Y42.8 E325.10827
G1 X38.502 Y43.2 E325.11681
G1 X81.5 Y43.2 E325.83187
G1 X81.65 Y43.387 E325.83585
G1 X81.805 Y43.6 E325.84023
G1 X38.197 Y43.6 E326.56544
G1 X37.907 Y44 E326.57365
G1 X82.096 Y44 E327.30852
G1 X82.386 Y44.4 E327.31674
G1 X37.617 Y44.4 E328.06125
G1 X37.524 Y44.527 E328.06386
G1 X37.346 Y44.8 E328.06928
G1 X82.656 Y44.8 E328.82279
G1 X82.915 Y45.2 E328.83072
G1 X37.084 Y45.2 E329.59289
G1 X36.822 Y45.6 E329.60084
G1 X83.175 Y45.6 E330.3717
G1 X83.271 Y45.748 E330.37463
G1 X83.417 Y46 E330.37947
G1 X36.587 Y46 E331.15826
G1 X36.354 Y46.4 E331.16596
G1 X83.647 Y46.4 E331.95244
G1 X83.878 Y46.8 E331.96012
G1 X36.122 Y46.8 E332.75431
G1 X36.011 Y46.99 E332.75797
G1 X35.904 Y47.2 E332.76189
G1 X84.099 Y47.2 E333.56338
G1 X84.302 Y47.6 E333.57083
G1 X35.699 Y47.6 E334.37911
G1 X35.494 Y48 E334.38658
G1 X84.504 Y48 E335.20162
G1 X84.635 Y48.26 E335.20646
G1 X84.698 Y48.4 E335.20902
G1 X35.307 Y48.4 E336.03039
G1 X35.128 Y48.8 E336.03768
G1 X84.875 Y48.8 E336.86497
G1 X85.052 Y49.2 E336.87225
G1 X34.949 Y49.2 E337.70546
G1 X34.785 Y49.564 E337.7121
G1 X34.772 Y49.6 E337.71274
G1 X85.229 Y49.6 E338.55184
G1 X85.252 Y49.653 E338.5528
G1 X85.385 Y50 E338.55898
G1 X34.617 Y50 E339.40326
G1 X34.463 Y50.4 E339.41039
G1 X85.537 Y50.4 E340.25975
G1 X85.69 Y50.8 E340.26687
G1 X34.309 Y50.8 E341.12134
G1 X34.18 Y51.2 E341.12833
G1 X85.825 Y51.2 E341.98719
G1 X85.955 Y51.6 E341.99419
G1 X34.05 Y51.6 E342.85737
G1 X33.92 Y52 E342.86437
G1 X86.085 Y52 E343.73187
G1 X86.165 Y52.247 E343.73619
G1 X86.207 Y52.4 E343.73883
G1 X33.792 Y52.4 E344.61049
G1 X33.686 Y52.8 E344.61738
G1 X86.316 Y52.8 E345.49262
G1 X86.424 Y53.2 E345.49951
G1 X33.579 Y53.2 E346.37832
G1 X33.473 Y53.6 E346.3852
G1 X86.529 Y53.6 E347.26753
G1 X86.538 Y53.639 E347.26819
G1 X86.614 Y54 E347.27433
G1 X33.386 Y54 E348.15951
G1 X33.301 Y54.4 E348.16632
G1 X86.698 Y54.4 E349.05431
G1 X86.782 Y54.8 E349.06111
G1 X33.217 Y54.8 E349.9519
G1 X33.173 Y55.004 E349.95537
G1 X33.142 Y55.2 E349.95867
G1 X86.864 Y55.2 E350.85207
G1 X86.927 Y55.6 E350.8588
G1 X33.077 Y55.6 E351.75433
G1 X33.012 Y56 E351.76107
G1 X86.991 Y56 E352.65875
G1 X87.039 Y56.304 E352.66386
G1 X87.05 Y56.4 E352.66547
G1 X32.952 Y56.4 E353.56512
G1 X32.91 Y56.8 E353.57181
G1 X87.092 Y56.8 E354.47286
G1 X87.135 Y57.2 E354.47955
G1 X32.868 Y57.2 E355.38202
G1 X32.825 Y57.6 E355.38871
G1 X87.178 Y57.6 E356.2926
G1 X87.208 Y57.887 E356.2974
G1 X87.215 Y58 E356.29928
G1 X32.784 Y58 E357.20447
G1 X32.763 Y58.4 E357.21114
G1 X87.236 Y58.4 E358.11703
G1 X87.258 Y58.8 E358.12369
G1 X32.744 Y58.8 E359.03026
G1 X32.724 Y59.2 E359.03692
G1 X87.278 Y59.2 E359.94416
G1 X87.278 Y59.6 E359.95081
G1 X32.719 Y59.6 E360.85813
G1 X32.72 Y60 E360.86478
G1 X87.279 Y60 E361.7721
G1 X87.28 Y60.4 E361.77875
G1 X32.721 Y60.4 E362.68607
G1 X32.721 Y60.8 E362.69272
G1 X87.275 Y60.8 E363.59996
G1 X87.255 Y61.2 E363.60662
G1 X32.741 Y61.2 E364.51319
G1 X32.763 Y61.6 E364.51985
G1 X87.236 Y61.6 E365.42574
G1 X87.216 Y62 E365.4324
G1 X32.785 Y62 E366.3376
G1 X32.791 Y62.108 E366.33939
G1 X32.822 Y62.4 E366.34428
G1 X87.175 Y62.4 E367.24817
G1 X87.132 Y62.8 E367.25486
G1 X32.864 Y62.8 E368.15734
