;FLAVOR:Marlin
;TIME:846
;Filament used: 0.488274m
;Layer height: 0.1
;Generated with Cura_SteamEngine 3.1.0
M190 S65
M104 S200
M109 S200
M82 ; absolute extrusion mode
G28 ;Home
G1 Z15.0 F6000 ;Move the platform down 15mm
;Prime the extruder
G92 E0
G1 F200 E3
G92 E0
;LAYER_COUNT:84
;LAYER:-9
M107
G0 F3600 X45.74 Y45.629 Z0.36
G1 F1350 X46.103 Y45.281 E0.06021
G1 X47.292 Y44.245 E0.24904
G1 X47.761 Y43.877 E0.32042
G1 X48.614 Y43.26 E0.44647
G1 X49.214 Y42.874 E0.5319
G1 X49.73 Y42.564 E0.60397
G1 X50.731 Y42.015 E0.74067
G1 X51.374 Y41.693 E0.82678
G1 X52.296 Y41.273 E0.94809
G1 X52.48 Y41.197 E0.97193
G1 X53.462 Y40.838 E1.09712
G1 X53.993 Y40.669 E1.16384
G1 X55.245 Y40.323 E1.31937
G1 X55.798 Y40.199 E1.38723
G1 X56.872 Y39.996 E1.5181
G1 X57.547 Y39.91 E1.59958
G1 X58.246 Y39.839 E1.6837
G1 X59.272 Y39.764 E1.80688
G1 X59.888 Y39.751 E1.88066
G1 X60.635 Y39.757 E1.9701
G1 X61.963 Y39.852 E2.12952
G1 X62.694 Y39.939 E2.21766
G1 X64.1 Y40.175 E2.38837
G1 X64.6 Y40.283 E2.44962
G1 X65.705 Y40.568 E2.58626
G1 X66.329 Y40.767 E2.66468
G1 X66.86 Y40.952 E2.73201
G1 X67.888 Y41.352 E2.86409
G1 X68.475 Y41.62 E2.94135
G1 X69.085 Y41.918 E3.02264
G1 X70.351 Y42.611 E3.19545
G1 X70.854 Y42.922 E3.26626
G1 X72.064 Y43.751 E3.44188
G1 X72.515 Y44.094 E3.50973
G1 X73.68 Y45.077 E3.69224
G1 X74.108 Y45.48 E3.76263
G1 X74.943 Y46.329 E3.90522
G1 X75.432 Y46.892 E3.9945
G1 X75.871 Y47.429 E4.07755
G1 X76.437 Y48.176 E4.18977
G1 X76.778 Y48.671 E4.26175
G1 X77.162 Y49.266 E4.34654
G1 X77.7 Y50.169 E4.47239
G1 X77.939 Y50.621 E4.53362
G1 X78.204 Y51.15 E4.60446
G1 X78.778 Y52.449 E4.77451
G1 X79.016 Y53.061 E4.85313
G1 X79.381 Y54.126 E4.98793
G1 X79.589 Y54.886 E5.08228
G1 X79.726 Y55.448 E5.15154
G1 X79.984 Y56.762 E5.31188
G1 X80.082 Y57.452 E5.39532
G1 X80.13 Y57.857 E5.44416
G1 X80.221 Y59.006 E5.58217
G1 X80.233 Y59.293 E5.61656
G1 X80.248 Y60.187 E5.72362
G1 X80.198 Y61.412 E5.87042
G1 X80.165 Y61.835 E5.92122
G1 X79.925 Y63.55 E6.12857
G1 X79.807 Y64.159 E6.20285
G1 X79.423 Y65.693 E6.39219
G1 X79.265 Y66.212 E6.45715
G1 X78.905 Y67.25 E6.5887
G1 X78.65 Y67.87 E6.66897
G1 X78.388 Y68.461 E6.74637
G1 X77.687 Y69.852 E6.93288
G1 X77.427 Y70.308 E6.99573
G1 X76.847 Y71.24 E7.12717
G1 X76.531 Y71.693 E7.19331
G1 X76.175 Y72.179 E7.26544
G1 X75.546 Y72.977 E7.3871
G1 X75.112 Y73.472 E7.46593
G1 X74.707 Y73.91 E7.53736
G1 X73.562 Y75.027 E7.72889
G1 X73.155 Y75.385 E7.79379
G1 X71.937 Y76.346 E7.97956
G1 X71.433 Y76.703 E8.05351
G1 X70.441 Y77.349 E8.19525
G1 X69.876 Y77.67 E8.27306
G1 X69.322 Y77.965 E8.34821
G1 X67.858 Y78.651 E8.5418
G1 X67.382 Y78.845 E8.60334
G1 X66.27 Y79.252 E8.74513
G1 X65.681 Y79.428 E8.81873
G1 X65.084 Y79.591 E8.89283
G1 X63.71 Y79.897 E9.06138
G1 X63.041 Y80.013 E9.14268
G1 X61.962 Y80.158 E9.27304
G1 X61.286 Y80.209 E9.35421
G1 X60.916 Y80.228 E9.39857
G1 X59.975 Y80.249 E9.51127
G1 X59.129 Y80.225 E9.61261
G1 X58.542 Y80.191 E9.68301
G1 X57.029 Y80.026 E9.86525
G1 X56.456 Y79.935 E9.93472
G1 X55.415 Y79.729 E10.06178
G1 X54.506 Y79.487 E10.17441
G1 X53.975 Y79.325 E10.24088
G1 X52.744 Y78.894 E10.39705
G1 X52.035 Y78.606 E10.48868
G1 X51.048 Y78.157 E10.61852
G1 X50.112 Y77.655 E10.74569
G1 X49.161 Y77.098 E10.87765
G1 X48.674 Y76.777 E10.94749
G1 X48.157 Y76.413 E11.0232
G1 X46.996 Y75.514 E11.19902
G1 X46.559 Y75.139 E11.26797
G1 X45.844 Y74.48 E11.3844
G1 X45.296 Y73.916 E11.47855
G1 X44.889 Y73.471 E11.55076
G1 X44.199 Y72.66 E11.67826
G1 X43.893 Y72.26 E11.73856
G1 X43.458 Y71.665 E11.82681
G1 X42.843 Y70.752 E11.95862
G1 X42.559 Y70.277 E12.02489
G1 X42.216 Y69.661 E12.10931
G1 X41.537 Y68.293 E12.29217
G1 X41.301 Y67.749 E12.36318
G1 X40.903 Y66.726 E12.49461
G1 X40.723 Y66.172 E12.56436
G1 X40.575 Y65.683 E12.62553
G1 X40.207 Y64.222 E12.80593
G1 X40.07 Y63.525 E12.89098
G1 X39.902 Y62.477 E13.01807
G1 X39.838 Y61.865 E13.09175
G1 X39.806 Y61.456 E13.14087
G1 X39.754 Y60.231 E13.28768
G1 X39.759 Y59.54 E13.37042
G1 X39.772 Y59.074 E13.42624
G1 X39.839 Y58.091 E13.54421
G1 X39.972 Y57.05 E13.66987
G1 X40.152 Y55.988 E13.79884
G1 X40.307 Y55.297 E13.88364
G1 X40.467 Y54.677 E13.96031
G1 X40.773 Y53.648 E14.08885
G1 X41.165 Y52.58 E14.22507
G1 X41.621 Y51.503 E14.36511
G1 X41.884 Y50.965 E14.43681
G1 X42.135 Y50.481 E14.50209
G1 X42.938 Y49.111 E14.69223
G1 X43.244 Y48.644 E14.75908
G1 X43.853 Y47.786 E14.88507
G1 X44.488 Y46.993 E15.00671
G1 X45.169 Y46.214 E15.1306
G1 X45.74 Y45.629 E15.22848
G0 F3600 X46.4 Y45.022
G1 F1350 X46.4 Y74.992 E18.81698
G0 F3600 X48 Y76.291
G1 F1350 X48 Y43.704 E22.71884
G0 F3600 X49.6 Y42.642
G1 F1350 X49.6 Y77.355 E26.87525
G0 F3600 X51.2 Y78.226
G1 F1350 X51.2 Y41.78 E31.23916
G0 F3600 X52.8 Y41.08
G1 F1350 X52.8 Y78.913 E35.76916
G0 F3600 X54.4 Y79.454
G1 F1350 X54.4 Y40.556 E40.42667
G0 F3600 X56 Y40.16
G1 F1350 X56 Y79.844 E45.17829
G0 F3600 X57.6 Y80.088
G1 F1350 X57.6 Y39.904 E49.98978
G0 F3600 X59.2 Y39.769
G1 F1350 X59.2 Y80.227 E54.83408
G0 F3600 X60.8 Y80.231
G1 F1350 X60.8 Y39.769 E59.67886
G0 F3600 X62.4 Y39.905
G1 F1350 X62.4 Y80.1 E64.49166
G0 F3600 X64 Y79.833
G1 F1350 X64 Y40.159 E69.24209
G0 F3600 X65.6 Y40.541
G1 F1350 X65.6 Y79.451 E73.90104
G0 F3600 X67.2 Y78.912
G1 F1350 X67.2 Y41.085 E78.43031
G0 F3600 X68.8 Y41.779
G1 F1350 X68.8 Y78.21 E82.79243
G0 F3600 X70.4 Y77.373
G1 F1350 X70.4 Y42.642 E86.951
G0 F3600 X72 Y43.708
G1 F1350 X72 Y76.297 E90.85309
G0 F3600 X73.6 Y74.99
G1 F1350 X73.6 Y45.01 E94.44279
G0 F3600 X75.2 Y46.625
G1 F1350 X75.2 Y73.372 E97.64538
G0 F3600 X76.8 Y71.308
G1 F1350 X76.8 Y48.706 E100.35166
G0 F3600 X78.4 Y51.594
G1 F1350 X78.4 Y68.434 E102.36803
G0 F3600 X80 Y63.015
G1 F1350 X80 Y56.875 E103.10321
G0 F3600 X44.8 Y46.636
G1 F1350 X44.8 Y73.366 E106.30376
G0 F3600 X43.2 Y71.281
G1 F1350 X43.2 Y48.711 E109.00622
G0 F3600 X41.6 Y51.552
G1 F1350 X41.6 Y68.419 E111.02581
G0 F3600 X40 Y63.088
G1 F1350 X40 Y56.884 E111.76866
G0 F3600 X45.739 Y45.628
;TIME_ELAPSED:44.619680
;LAYER:-8
M140 S65
G0 X45.739 Y45.628 Z0.51
;TYPE:SUPPORT
G1 F1350 X45.684 Y45.684 E111.77257
G1 X74.302 Y74.302 E113.79173
G1 X73.587 Y75.001 E113.84161
G1 X44.996 Y46.41 E115.85886
G1 X44.487 Y46.992 E115.89744
G1 X44.343 Y47.171 E115.9089
G1 X72.819 Y75.647 E117.91803
G1 X72.028 Y76.271 E117.9683
G1 X43.723 Y47.966 E119.96537
G1 X43.243 Y48.643 E120.00677
G1 X43.141 Y48.798 E120.01603
G1 X71.197 Y76.854 E121.99553
G1 X70.441 Y77.348 E122.04059
G1 X70.335 Y77.406 E122.04662
G1 X42.605 Y49.676 E124.00312
G1 X42.135 Y50.48 E124.04958
G1 X42.086 Y50.572 E124.05478
G1 X69.423 Y77.909 E125.98355
G1 X69.321 Y77.964 E125.98933
G1 X68.465 Y78.365 E126.03649
G1 X41.615 Y51.514 E127.93094
G1 X41.194 Y52.508 E127.9848
G1 X67.487 Y78.801 E129.83991
G1 X67.382 Y78.844 E129.84557
G1 X66.455 Y79.183 E129.89481
G1 X40.812 Y53.54 E131.70407
G1 X40.773 Y53.646 E131.7097
G1 X40.481 Y54.623 E131.76058
G1 X65.369 Y79.511 E133.51656
G1 X65.084 Y79.589 E133.5313
G1 X64.224 Y79.78 E133.57525
G1 X40.203 Y55.759 E135.27006
G1 X40.152 Y55.987 E135.28172
G1 X39.986 Y56.957 E135.33082
G1 X63.041 Y80.011 E136.95743
G1 X61.962 Y80.157 E137.01176
G1 X61.785 Y80.17 E137.02061
G1 X39.829 Y58.214 E138.56973
G1 X39.771 Y59.073 E138.61268
G1 X39.758 Y59.539 E138.63594
G1 X39.757 Y59.556 E138.63679
G1 X60.438 Y80.237 E140.09594
G1 X59.975 Y80.248 E140.11905
G1 X59.128 Y80.224 E140.16132
G1 X59.003 Y80.217 E140.16757
G1 X39.786 Y60.999 E141.52347
G1 X39.806 Y61.455 E141.54624
G1 X39.837 Y61.864 E141.5667
G1 X39.902 Y62.475 E141.59736
G1 X39.911 Y62.539 E141.60058
G1 X57.443 Y80.07 E142.83752
G1 X57.028 Y80.025 E142.85835
G1 X56.456 Y79.934 E142.88725
G1 X55.753 Y79.795 E142.923
G1 X40.215 Y64.256 E144.01932
G1 X40.574 Y65.682 E144.09269
G1 X40.722 Y66.171 E144.11817
G1 X40.725 Y66.181 E144.1187
G1 X53.811 Y79.267 E145.04198
G1 X52.744 Y78.893 E145.09839
G1 X52.035 Y78.605 E145.13657
G1 X51.484 Y78.354 E145.16678
G1 X41.649 Y68.519 E145.86069
G1 X42.215 Y69.659 E145.92419
G1 X42.559 Y70.276 E145.95943
G1 X42.842 Y70.75 E145.98697
G1 X43.458 Y71.664 E146.04196
G1 X43.669 Y71.953 E146.05982
G1 X48.03 Y76.315 E146.36754
G1 X46.995 Y75.513 E146.43287
G1 X46.558 Y75.138 E146.4616
G1 X45.843 Y74.478 E146.51014
G1 X45.295 Y73.915 E146.54934
G1 X44.889 Y73.47 E146.57939
G1 X44.199 Y72.658 E146.63255
G1 X43.892 Y72.259 E146.65767
G0 F3600 X45.739 Y45.628
G1 F1350 X46.102 Y45.28 E146.68276
G1 X46.419 Y45.005 E146.7037
G1 X75.003 Y73.589 E148.72045
G1 X75.111 Y73.471 E148.72843
G1 X75.545 Y72.976 E148.76128
G1 X75.66 Y72.831 E148.77051
G1 X47.175 Y44.346 E150.78028
G1 X47.291 Y44.245 E150.78795
G1 X47.76 Y43.876 E150.81772
G1 X47.968 Y43.726 E150.83052
G1 X76.279 Y72.036 E152.82798
G1 X76.53 Y71.693 E152.84918
G1 X76.846 Y71.24 E152.87674
G1 X76.866 Y71.209 E152.87858
G1 X48.798 Y43.141 E154.85893
G1 X49.213 Y42.874 E154.88355
G1 X49.67 Y42.599 E154.91016
G1 X77.408 Y70.337 E156.86722
G1 X77.426 Y70.308 E156.86893
G1 X77.686 Y69.851 E156.89516
G1 X77.904 Y69.419 E156.9193
G1 X50.582 Y42.096 E158.84705
G1 X50.73 Y42.014 E158.85549
G1 X51.373 Y41.693 E158.89134
G1 X51.524 Y41.624 E158.89963
G1 X78.378 Y68.479 E160.79436
G1 X78.387 Y68.46 E160.79541
G1 X78.649 Y67.87 E160.82761
G1 X78.805 Y67.491 E160.84806
G1 X52.502 Y41.188 E162.70388
G1 X53.461 Y40.838 E162.75481
G1 X53.541 Y40.813 E162.75899
G1 X79.181 Y66.453 E164.56803
G1 X79.263 Y66.212 E164.58073
G1 X79.422 Y65.693 E164.60781
G1 X79.504 Y65.362 E164.62483
G1 X54.633 Y40.491 E166.37961
G1 X55.244 Y40.322 E166.41124
G1 X55.763 Y40.206 E166.43777
G1 X79.788 Y64.232 E168.1329
G1 X79.806 Y64.159 E168.13665
G1 X79.924 Y63.55 E168.1676
G1 X79.997 Y63.027 E168.19394
G1 X56.956 Y39.985 E169.81965
G1 X57.546 Y39.909 E169.84932
G1 X58.226 Y39.841 E169.88342
G1 X80.168 Y61.784 E171.43158
G1 X80.197 Y61.412 E171.4502
G1 X80.237 Y60.438 E171.49883
G1 X59.557 Y39.758 E172.95792
G1 X59.887 Y39.75 E172.97438
G1 X60.633 Y39.757 E173.0116
G1 X60.996 Y39.783 E173.02976
G1 X80.221 Y59.008 E174.38619
G0 F3600 X80.22 Y59.005
G1 F1350 X80.129 Y57.856 E174.44369
G1 X80.081 Y57.454 E174.46389
G1 X62.549 Y39.921 E175.7009
G1 X62.693 Y39.938 E175.70814
G1 X64.099 Y40.174 E175.77926
G1 X64.249 Y40.207 E175.78693
G1 X79.783 Y55.741 E176.88293
G1 X79.725 Y55.447 E176.89788
G1 X79.588 Y54.886 E176.92669
G1 X79.379 Y54.126 E176.96602
G1 X79.274 Y53.818 E176.98225
G1 X66.173 Y40.717 E177.9066
G1 X66.328 Y40.766 E177.91471
G1 X66.859 Y40.952 E177.94278
G1 X67.887 Y41.352 E177.99781
G1 X68.474 Y41.619 E178.02998
G1 X68.505 Y41.635 E178.03173
G1 X78.349 Y51.479 E178.72627
G1 X78.203 Y51.149 E178.74428
G1 X77.938 Y50.621 E178.77375
G1 X77.699 Y50.169 E178.79926
G1 X77.161 Y49.266 E178.8517
G1 X76.776 Y48.67 E178.8871
G1 X76.436 Y48.175 E178.91706
G1 X76.361 Y48.076 E178.92325
G1 X71.974 Y43.69 E179.23275
G1 X72.063 Y43.75 E179.2381
G1 X72.514 Y44.094 E179.2664
G1 X73.679 Y45.076 E179.34241
G1 X74.107 Y45.479 E179.37174
G1 X74.942 Y46.328 E179.43115
G1 X75.431 Y46.892 E179.4684
G1 X75.87 Y47.429 E179.503
G0 F3600 X45.602 Y45.486
;TIME_ELAPSED:106.058165
;LAYER:-7
G0 X45.602 Y45.486 Z0.61
G1 F1800 X45.489 Y45.6 E179.50567
G1 X74.511 Y45.6 E179.98831
G1 X74.908 Y46 E179.99768
G1 X45.098 Y46 E180.49342
G1 X44.744 Y46.4 E180.5023
G1 X75.268 Y46.4 E181.00992
G1 X75.586 Y46.764 E181.01796
G1 X75.616 Y46.8 E181.01874
G1 X44.391 Y46.8 E181.53801
G1 X44.066 Y47.2 E181.54658
G1 X75.942 Y47.2 E182.07668
G1 X76.03 Y47.308 E182.079
G1 X76.251 Y47.6 E182.08509
G1 X43.745 Y47.6 E182.62567
G1 X43.458 Y48 E182.63385
G1 X76.553 Y48 E183.18423
G1 X76.669 Y48.154 E183.18743
G1 X76.836 Y48.4 E183.19238
G1 X43.171 Y48.4 E183.75223
G1 X43.125 Y48.464 E183.75354
G1 X42.905 Y48.8 E183.76022
G1 X77.1 Y48.8 E184.32888
G1 X77.333 Y49.162 E184.33604
G1 X77.356 Y49.2 E184.33678
G1 X42.652 Y49.2 E184.91391
G1 X42.419 Y49.6 E184.92161
G1 X77.597 Y49.6 E185.50662
G1 X77.822 Y49.976 E185.51391
G1 X77.835 Y50 E185.51436
G1 X42.185 Y50 E186.10722
G1 X41.952 Y50.4 E186.11492
G1 X78.049 Y50.4 E186.71522
G1 X78.114 Y50.523 E186.71753
G1 X78.253 Y50.8 E186.72268
G1 X41.745 Y50.8 E187.32982
G1 X41.706 Y50.874 E187.33121
G1 X41.549 Y51.2 E187.33722
G1 X78.445 Y51.2 E187.95081
G1 X78.622 Y51.6 E187.95808
G1 X41.358 Y51.6 E188.57778
G1 X41.191 Y52 E188.58499
G1 X78.799 Y52 E189.21042
G1 X78.966 Y52.38 E189.21732
G1 X78.974 Y52.4 E189.21768
G1 X41.024 Y52.4 E189.84879
G1 X40.98 Y52.503 E189.85065
G1 X40.871 Y52.8 E189.85591
G1 X79.13 Y52.8 E190.49216
G1 X79.206 Y52.995 E190.49564
G1 X79.277 Y53.2 E190.49925
G1 X40.724 Y53.2 E191.14039
G1 X40.584 Y53.581 E191.14714
G1 X40.579 Y53.6 E191.14747
G1 X79.416 Y53.6 E191.79333
G1 X79.53 Y53.931 E191.79915
G1 X79.55 Y54 E191.80034
G1 X40.46 Y54 E192.45041
G1 X40.341 Y54.4 E192.45735
G1 X79.662 Y54.4 E193.11126
G1 X79.773 Y54.8 E193.11817
G1 X40.229 Y54.8 E193.77579
G1 X40.126 Y55.2 E193.78266
G1 X79.872 Y55.2 E194.44364
G1 X79.935 Y55.462 E194.44812
G1 X79.962 Y55.6 E194.45046
G1 X40.032 Y55.6 E195.11449
G1 X39.989 Y55.783 E195.11762
G1 X39.952 Y56 E195.12128
G1 X80.04 Y56 E195.78795
G1 X80.117 Y56.4 E195.79472
G1 X39.882 Y56.4 E196.46383
G1 X39.813 Y56.8 E196.47058
G1 X80.194 Y56.8 E197.14212
G1 X80.25 Y57.2 E197.14884
G1 X39.751 Y57.2 E197.82234
G1 X39.7 Y57.6 E197.82904
G1 X80.302 Y57.6 E198.50426
G1 X80.33 Y57.847 E198.50839
G1 X80.342 Y58 E198.51094
G1 X39.649 Y58 E199.18767
G1 X39.64 Y58.069 E199.18883
G1 X39.618 Y58.4 E199.19435
G1 X80.374 Y58.4 E199.87212
G1 X80.405 Y58.8 E199.87879
G1 X39.591 Y58.8 E200.55753
G1 X39.577 Y59.002 E200.5609
G1 X39.571 Y59.2 E200.56419
G1 X80.43 Y59.2 E201.24368
G1 X80.433 Y59.287 E201.24513
G1 X80.439 Y59.6 E201.25034
G1 X39.558 Y59.6 E201.93019
G1 X39.553 Y60 E201.93684
G1 X80.445 Y60 E202.61688
G1 X80.448 Y60.188 E202.62001
G1 X80.439 Y60.4 E202.62353
G1 X39.561 Y60.4 E203.30334
G1 X39.576 Y60.8 E203.31
G1 X80.422 Y60.8 E203.98927
G1 X80.405 Y61.2 E203.99593
G1 X39.592 Y61.2 E204.67465
G1 X39.599 Y61.363 E204.67736
G1 X39.617 Y61.6 E204.68131
G1 X80.385 Y61.6 E205.35929
G1 X80.365 Y61.844 E205.36336
G1 X80.343 Y62 E205.36598
G1 X39.65 Y62 E206.04271
G1 X39.694 Y62.4 E206.0494
G1 X80.288 Y62.4 E206.72448
G1 X80.233 Y62.8 E206.73119
G1 X39.747 Y62.8 E207.40448
G1 X39.813 Y63.2 E207.41122
G1 X80.178 Y63.2 E208.08249
G1 X80.141 Y63.473 E208.08708
G1 X80.116 Y63.6 E208.08923
G1 X39.879 Y63.6 E208.75837
G1 X39.958 Y64 E208.76515
G1 X80.04 Y64 E209.43172
G1 X80.004 Y64.191 E209.43495
G1 X79.951 Y64.4 E209.43854
G1 X40.044 Y64.4 E210.10219
G1 X40.145 Y64.8 E210.10905
G1 X79.851 Y64.8 E210.76937
G1 X79.75 Y65.2 E210.77623
G1 X40.246 Y65.2 E211.43318
G1 X40.347 Y65.6 E211.44004
G1 X79.65 Y65.6 E212.09366
G1 X79.591 Y65.835 E212.09768
G1 X79.539 Y66 E212.10056
G1 X40.46 Y66 E212.75045
G1 X40.531 Y66.234 E212.75451
G1 X40.585 Y66.4 E212.75742
G1 X79.413 Y66.4 E213.40313
G1 X79.406 Y66.423 E213.40353
G1 X79.272 Y66.8 E213.41018
G1 X40.717 Y66.8 E214.05136
G1 X40.872 Y67.2 E214.05849
G1 X79.13 Y67.2 E214.69472
G1 X79.041 Y67.453 E214.69918
G1 X78.979 Y67.6 E214.70184
G1 X41.028 Y67.6 E215.33296
G1 X41.116 Y67.826 E215.337
G1 X41.192 Y68 E215.34015
G1 X78.811 Y68 E215.96576
G1 X78.633 Y68.4 E215.97304
G1 X41.367 Y68.4 E216.59278
G1 X41.407 Y68.49 E216.59442
G1 X41.562 Y68.8 E216.60018
G1 X78.441 Y68.8 E217.21348
G1 X78.241 Y69.2 E217.22092
G1 X41.763 Y69.2 E217.82755
G1 X41.963 Y69.6 E217.83499
G1 X78.041 Y69.6 E218.43497
G1 X77.936 Y69.81 E218.43887
G1 X77.829 Y70 E218.4425
G1 X42.171 Y70 E219.03549
G1 X42.383 Y70.372 E219.04261
G1 X42.4 Y70.4 E219.04316
G1 X77.601 Y70.4 E219.62855
G1 X77.356 Y70.8 E219.63635
G1 X42.643 Y70.8 E220.21363
G1 X42.782 Y71.028 E220.21807
G1 X42.898 Y71.2 E220.22152
G1 X77.11 Y71.2 E220.79047
G1 X77.084 Y71.244 E220.79132
G1 X76.837 Y71.6 E220.79853
G1 X43.17 Y71.6 E221.35841
G1 X43.294 Y71.781 E221.36206
G1 X43.453 Y72 E221.36656
G1 X76.553 Y72 E221.91702
G1 X76.325 Y72.312 E221.92344
G1 X76.255 Y72.4 E221.92531
G1 X43.746 Y72.4 E222.46594
G1 X44.039 Y72.781 E222.47393
G1 X44.055 Y72.8 E222.47434
G1 X75.94 Y72.8 E223.00459
G1 X75.699 Y73.106 E223.01107
G1 X75.616 Y73.2 E223.01316
G1 X44.395 Y73.2 E223.53236
G1 X44.735 Y73.6 E223.54109
G1 X75.265 Y73.6 E224.04881
G1 X74.892 Y74 E224.05791
