;FLAVOR:Marlin
;TIME:938
;Filament used: 0.453485m
;Layer height: 0.1
;Generated with Cura_SteamEngine 3.1.0
M190 S65
M104 S200
M109 S200
M82 ; absolute extrusion mode
G28 ;Home
G1 Z15.0 F6000 ;Move the platform down 15mm
;Prime the extruder
G92 E0
G1 F200 E3
G92 E0
;LAYER_COUNT:105
;LAYER:-9
M107
G0 F3600 X46.074 Y45.314 Z0.36
G1 F1350 X46.522 Y44.901 E0.07296
G1 X47.355 Y44.188 E0.20425
G1 X47.962 Y43.729 E0.29537
G1 X48.439 Y43.389 E0.3655
G1 X49.161 Y42.904 E0.46965
G1 X49.707 Y42.576 E0.54591
G1 X50.33 Y42.222 E0.63171
G1 X51.078 Y41.828 E0.73294
G1 X51.986 Y41.414 E0.85243
G1 X52.487 Y41.208 E0.91729
G1 X53.54 Y40.82 E1.05166
G1 X54.573 Y40.505 E1.18097
G1 X55.682 Y40.222 E1.31801
G1 X56.212 Y40.119 E1.38266
G1 X56.848 Y40.009 E1.45994
G1 X57.929 Y39.864 E1.59054
G1 X58.678 Y39.809 E1.68046
G1 X59.434 Y39.776 E1.77107
G1 X60.997 Y39.789 E1.95822
G1 X61.548 Y39.822 E2.02432
G1 X62.678 Y39.935 E2.16029
G1 X63.275 Y40.028 E2.23264
G1 X63.94 Y40.15 E2.31359
G1 X65.331 Y40.475 E2.48463
G1 X66.001 Y40.67 E2.56818
G1 X67.311 Y41.123 E2.73415
G1 X68.469 Y41.613 E2.88471
G1 X69.675 Y42.225 E3.04664
G1 X70.267 Y42.56 E3.12809
G1 X71.143 Y43.102 E3.25143
G1 X71.678 Y43.472 E3.32931
G1 X72.193 Y43.849 E3.40574
G1 X73.047 Y44.521 E3.53585
G1 X73.454 Y44.879 E3.60075
G1 X73.86 Y45.254 E3.66693
G1 X74.992 Y46.406 E3.86032
G1 X75.312 Y46.767 E3.91808
G1 X76.038 Y47.642 E4.05422
G1 X76.576 Y48.383 E4.16386
G1 X76.906 Y48.869 E4.2342
G1 X77.416 Y49.678 E4.34871
G1 X77.733 Y50.241 E4.42607
G1 X78.041 Y50.825 E4.50513
G1 X78.465 Y51.702 E4.62176
G1 X78.728 Y52.328 E4.70306
G1 X79.001 Y53.024 E4.79258
G1 X79.351 Y54.041 E4.92136
G1 X79.545 Y54.74 E5.00822
G1 X79.682 Y55.276 E5.07447
G1 X79.895 Y56.23 E5.19151
G1 X80.028 Y57.054 E5.29145
G1 X80.183 Y58.222 E5.43252
G1 X80.283 Y59.244 E5.55548
G1 X80.293 Y59.406 E5.57491
G1 X80.314 Y60.317 E5.68402
G1 X80.267 Y61.365 E5.80963
G1 X80.249 Y61.562 E5.83332
G1 X80.12 Y62.585 E5.95678
G1 X80.023 Y63.112 E6.02094
G1 X79.764 Y64.366 E6.17426
G1 X79.42 Y65.707 E6.34002
G1 X79.202 Y66.411 E6.42827
G1 X78.862 Y67.375 E6.55066
G1 X78.471 Y68.292 E6.67003
G1 X78.213 Y68.839 E6.74244
G1 X77.469 Y70.23 E6.93132
G1 X77.152 Y70.754 E7.00465
G1 X76.546 Y71.674 E7.13656
G1 X76.26 Y72.06 E7.19408
G1 X75.872 Y72.566 E7.27043
G1 X75.198 Y73.383 E7.39725
G1 X74.816 Y73.8 E7.46496
G1 X74.402 Y74.232 E7.53661
G1 X73.975 Y74.657 E7.60874
G1 X73.002 Y75.519 E7.76439
G1 X72.371 Y76.027 E7.86138
G1 X71.174 Y76.883 E8.03759
G1 X70.637 Y77.227 E8.11395
G1 X69.702 Y77.778 E8.24389
G1 X69.207 Y78.035 E8.31067
G1 X68.684 Y78.292 E8.38045
G1 X68.036 Y78.591 E8.4659
G1 X67.081 Y78.969 E8.58888
G1 X66.591 Y79.143 E8.65114
G1 X65.442 Y79.508 E8.79549
G1 X64.87 Y79.653 E8.86615
G1 X64.288 Y79.788 E8.93768
G1 X63.14 Y80.008 E9.07764
G1 X62.633 Y80.076 E9.13889
G1 X61.922 Y80.155 E9.22455
G1 X60.839 Y80.235 E9.35458
G1 X60.261 Y80.246 E9.4238
G1 X59.703 Y80.245 E9.49061
G1 X58.597 Y80.203 E9.62313
G1 X58.055 Y80.152 E9.68832
G1 X57.407 Y80.076 E9.76644
G1 X56.35 Y79.918 E9.89441
G1 X56.173 Y79.885 E9.91597
G1 X55.158 Y79.66 E10.04045
G1 X54.221 Y79.413 E10.15647
G1 X53.481 Y79.172 E10.24966
G1 X52.9 Y78.965 E10.32351
G1 X51.98 Y78.598 E10.44211
G1 X51.434 Y78.349 E10.51396
G1 X50.864 Y78.071 E10.5899
G1 X49.899 Y77.555 E10.72092
G1 X49.277 Y77.171 E10.80845
G1 X48.802 Y76.866 E10.87604
G1 X48.035 Y76.336 E10.98767
G1 X47.636 Y76.019 E11.04869
G1 X47.412 Y75.853 E11.08207
G1 X47.095 Y75.598 E11.13078
G1 X45.961 Y74.593 E11.31221
G1 X45.296 Y73.922 E11.42533
G1 X44.61 Y73.164 E11.54774
G1 X44.12 Y72.563 E11.64059
G1 X43.739 Y72.065 E11.71567
G1 X43.084 Y71.134 E11.85197
G1 X42.806 Y70.688 E11.91489
G1 X42.44 Y70.071 E12.00079
G1 X41.787 Y68.84 E12.16764
G1 X41.703 Y68.669 E12.19045
G1 X41.439 Y68.087 E12.26697
G1 X41.05 Y67.138 E12.38978
G1 X40.802 Y66.42 E12.48073
G1 X40.674 Y66.027 E12.53022
G1 X40.302 Y64.68 E12.69755
G1 X40.114 Y63.782 E12.8074
G1 X39.923 Y62.629 E12.94734
G1 X39.863 Y62.062 E13.01561
G1 X39.803 Y61.34 E13.10235
G1 X39.753 Y60.146 E13.24545
G1 X39.76 Y59.603 E13.31047
G1 X39.78 Y59.016 E13.38079
G1 X39.855 Y57.948 E13.50899
G1 X39.932 Y57.345 E13.58177
G1 X40.041 Y56.635 E13.66778
G1 X40.236 Y55.61 E13.79271
G1 X40.356 Y55.118 E13.85335
G1 X40.498 Y54.586 E13.91928
G1 X40.849 Y53.441 E14.06268
G1 X41.017 Y52.983 E14.12109
G1 X41.278 Y52.315 E14.20696
G1 X41.711 Y51.319 E14.337
G1 X41.946 Y50.85 E14.39981
G1 X42.204 Y50.358 E14.46633
G1 X42.745 Y49.412 E14.59682
G1 X43.114 Y48.839 E14.67842
G1 X43.504 Y48.273 E14.76072
G1 X44.052 Y47.531 E14.87117
G1 X44.161 Y47.392 E14.89232
G1 X44.387 Y47.133 E14.93348
G1 X44.635 Y46.828 E14.98055
G1 X44.991 Y46.424 E15.04502
G1 X46.074 Y45.314 E15.23071
G0 F3600 X46.4 Y45.013
G1 F1350 X46.4 Y74.982 E18.81909
G0 F3600 X48 Y76.308
G1 F1350 X48 Y43.701 E22.72334
G0 F3600 X49.6 Y42.64
G1 F1350 X49.6 Y77.37 E26.88179
G0 F3600 X51.2 Y78.234
G1 F1350 X51.2 Y41.772 E31.24762
G0 F3600 X52.8 Y41.092
G1 F1350 X52.8 Y78.925 E35.77761
G0 F3600 X54.4 Y79.46
G1 F1350 X54.4 Y40.557 E40.43572
G0 F3600 X56 Y40.16
G1 F1350 X56 Y79.846 E45.18758
G0 F3600 X57.6 Y80.098
G1 F1350 X57.6 Y39.908 E49.99979
G0 F3600 X59.2 Y39.786
G1 F1350 X59.2 Y80.225 E54.84182
G0 F3600 X60.8 Y80.236
G1 F1350 X60.8 Y39.788 E59.68492
G0 F3600 X62.4 Y39.908
G1 F1350 X62.4 Y80.102 E64.49761
G0 F3600 X64 Y79.844
G1 F1350 X64 Y40.165 E69.24863
G0 F3600 X65.6 Y40.554
G1 F1350 X65.6 Y79.458 E73.90686
G0 F3600 X67.2 Y78.922
G1 F1350 X67.2 Y41.085 E78.43733
G0 F3600 X68.8 Y41.781
G1 F1350 X68.8 Y78.235 E82.8022
G0 F3600 X70.4 Y77.367
G1 F1350 X70.4 Y42.643 E86.95993
G0 F3600 X72 Y43.708
G1 F1350 X72 Y76.293 E90.86154
G0 F3600 X73.6 Y74.99
G1 F1350 X73.6 Y45.014 E94.45076
G0 F3600 X75.2 Y46.641
G1 F1350 X75.2 Y73.381 E97.65252
G0 F3600 X76.8 Y71.289
G1 F1350 X76.8 Y48.713 E100.35569
G0 F3600 X78.4 Y51.568
G1 F1350 X78.4 Y68.443 E102.37624
G0 F3600 X80 Y63.224
G1 F1350 X80 Y56.881 E103.13573
G0 F3600 X44.8 Y46.64
G1 F1350 X44.8 Y73.373 E106.33665
G0 F3600 X43.2 Y71.298
G1 F1350 X43.2 Y48.714 E109.04078
G0 F3600 X41.6 Y51.574
G1 F1350 X41.6 Y68.441 E111.06037
G0 F3600 X40 Y63.093
G1 F1350 X40 Y56.902 E111.80166
G0 F3600 X46.073 Y45.314
;TIME_ELAPSED:44.628685
;LAYER:-8
M140 S65
G0 X46.073 Y45.314 Z0.51
;TYPE:SUPPORT
G1 F1350 X45.698 Y45.698 E111.82844
G1 X74.316 Y74.316 E113.84759
G1 X73.974 Y74.656 E113.87165
G1 X73.585 Y74.999 E113.89753
G1 X44.999 Y46.413 E115.91442
G1 X44.991 Y46.423 E115.91506
G1 X44.635 Y46.827 E115.94193
G1 X44.387 Y47.132 E115.96154
G1 X44.347 Y47.176 E115.9645
G1 X72.829 Y75.657 E117.97403
G1 X72.37 Y76.026 E118.00341
G1 X72.028 Y76.271 E118.0244
G1 X43.726 Y47.969 E120.02126
G1 X43.504 Y48.272 E120.04
G1 X43.141 Y48.798 E120.07188
G1 X71.203 Y76.86 E122.05181
G1 X71.174 Y76.882 E122.05362
G1 X70.637 Y77.225 E122.08541
G1 X70.333 Y77.404 E122.10301
G1 X42.597 Y49.668 E124.05994
G1 X42.204 Y50.357 E124.09951
G1 X42.089 Y50.575 E124.11181
G1 X69.431 Y77.916 E126.0409
G1 X69.206 Y78.034 E126.05357
G1 X68.684 Y78.29 E126.08258
G1 X68.483 Y78.382 E126.09361
G1 X41.622 Y51.521 E127.9888
G1 X41.278 Y52.314 E128.03192
G1 X41.199 Y52.513 E128.0426
G1 X67.491 Y78.804 E129.89761
G1 X67.08 Y78.968 E129.91969
G1 X66.591 Y79.142 E129.94558
G1 X66.456 Y79.184 E129.95264
G1 X40.817 Y53.544 E131.76164
G1 X40.498 Y54.585 E131.81596
G1 X40.486 Y54.628 E131.81819
G1 X65.38 Y79.522 E133.57459
G1 X64.869 Y79.652 E133.6009
G1 X64.288 Y79.787 E133.63066
G1 X64.239 Y79.796 E133.63314
G1 X40.206 Y55.762 E135.32884
G1 X40.041 Y56.634 E135.37311
G1 X39.99 Y56.96 E135.38958
G1 X63.048 Y80.019 E137.01648
G1 X62.632 Y80.075 E137.03742
G1 X61.922 Y80.154 E137.07306
G1 X61.779 Y80.163 E137.08021
G1 X39.835 Y58.22 E138.62844
G1 X39.78 Y59.015 E138.6682
G1 X39.761 Y59.56 E138.69541
G1 X60.442 Y80.241 E140.15456
G1 X60.261 Y80.245 E140.16359
G1 X59.703 Y80.244 E140.19143
G1 X59.004 Y80.217 E140.22633
G1 X39.788 Y61.001 E141.58212
G1 X39.803 Y61.338 E141.59895
G1 X39.862 Y62.061 E141.63514
G1 X39.913 Y62.54 E141.65918
G1 X57.453 Y80.08 E142.89672
G1 X57.407 Y80.075 E142.89903
G1 X56.35 Y79.917 E142.95235
G1 X56.173 Y79.883 E142.96134
G1 X55.747 Y79.789 E142.9831
G1 X40.213 Y64.254 E144.07915
G1 X40.302 Y64.679 E144.10081
G1 X40.674 Y66.026 E144.17053
G1 X40.723 Y66.179 E144.17854
G1 X53.828 Y79.284 E145.10317
G1 X53.48 Y79.171 E145.12143
G1 X52.9 Y78.964 E145.15215
G1 X51.98 Y78.597 E145.20157
G1 X51.514 Y78.384 E145.22713
G1 X41.623 Y68.493 E145.92499
G1 X41.703 Y68.667 E145.93455
G1 X41.787 Y68.839 E145.9441
G1 X42.439 Y70.07 E146.01359
G1 X42.806 Y70.687 E146.04941
G1 X43.084 Y71.133 E146.07563
G1 X43.641 Y71.925 E146.12393
G1 X48.085 Y76.369 E146.43748
G1 X48.035 Y76.335 E146.4405
G1 X47.636 Y76.018 E146.46592
G1 X47.412 Y75.852 E146.47983
G1 X47.095 Y75.597 E146.50013
G1 X45.961 Y74.591 E146.57576
G1 X45.295 Y73.92 E146.62293
G1 X44.609 Y73.162 E146.67393
G1 X44.119 Y72.562 E146.71258
G1 X43.738 Y72.064 E146.74386
G0 F3600 X46.073 Y45.314
G1 F1350 X46.414 Y45 E146.76699
G1 X75.006 Y73.592 E148.78431
G1 X75.197 Y73.382 E148.79847
G1 X75.656 Y72.827 E148.8344
G1 X47.172 Y44.344 E150.84407
G1 X47.354 Y44.187 E150.85606
G1 X47.961 Y43.728 E150.89402
G0 F3600 X47.968 Y43.725
G1 F1350 X76.278 Y72.035 E152.89145
G1 X76.545 Y71.673 E152.91389
G1 X76.857 Y71.2 E152.94216
G1 X48.802 Y43.145 E154.92159
G1 X49.16 Y42.903 E154.94315
G1 X49.669 Y42.598 E154.97275
G1 X77.405 Y70.334 E156.92968
G1 X77.467 Y70.229 E156.93576
G1 X77.903 Y69.418 E156.9817
G1 X50.577 Y42.091 E158.90973
G1 X51.077 Y41.828 E158.93792
G1 X51.524 Y41.624 E158.96243
G1 X78.381 Y68.481 E160.85734
G1 X78.47 Y68.292 E160.86776
G1 X78.81 Y67.496 E160.91094
G1 X52.512 Y41.198 E162.76641
G1 X53.539 Y40.819 E162.82102
G0 F3600 X53.546 Y40.818
G1 F1350 X79.185 Y66.457 E164.62999
G1 X79.2 Y66.41 E164.63245
G1 X79.419 Y65.707 E164.66919
G1 X79.507 Y65.365 E164.68681
G1 X54.632 Y40.49 E166.44187
G1 X55.681 Y40.222 E166.49589
G1 X55.763 Y40.206 E166.50006
G1 X79.791 Y64.234 E168.19536
G1 X80.021 Y63.112 E168.2525
G1 X80.031 Y63.061 E168.2551
G1 X56.964 Y39.993 E169.88263
G1 X57.928 Y39.864 E169.93116
G1 X58.227 Y39.842 E169.94611
G1 X80.214 Y61.83 E171.49745
G1 X80.248 Y61.562 E171.51093
G1 X80.265 Y61.364 E171.52084
G1 X80.305 Y60.506 E171.56369
G1 X59.576 Y39.777 E173.02624
G1 X60.996 Y39.788 E173.09708
G0 F3600 X61.002 Y39.789
G1 F1350 X80.263 Y59.05 E174.45605
G1 X80.182 Y58.222 E174.49756
G1 X80.08 Y57.453 E174.53626
G1 X62.549 Y39.922 E175.77317
G1 X62.677 Y39.935 E175.77958
G1 X63.274 Y40.027 E175.80972
G1 X63.939 Y40.149 E175.84345
G1 X64.268 Y40.226 E175.86031
G1 X79.785 Y55.744 E176.95515
G1 X79.681 Y55.275 E176.97912
G1 X79.543 Y54.739 E177.00673
G1 X79.35 Y54.041 E177.04286
G1 X79.273 Y53.817 E177.05468
G1 X66.192 Y40.737 E177.97758
G1 X67.31 Y41.123 E178.03659
G1 X68.468 Y41.612 E178.0993
G1 X68.497 Y41.627 E178.10093
G1 X78.363 Y51.493 E178.79703
G1 X78.04 Y50.825 E178.83405
G1 X77.732 Y50.241 E178.86699
G1 X77.415 Y49.678 E178.89922
G1 X76.905 Y48.868 E178.94698
G1 X76.575 Y48.383 E178.97624
G1 X76.332 Y48.048 E178.99689
G1 X71.972 Y43.687 E179.30455
G1 X72.192 Y43.849 E179.31818
G1 X73.046 Y44.521 E179.37239
G1 X73.453 Y44.879 E179.39943
G1 X73.859 Y45.254 E179.42701
G1 X74.991 Y46.406 E179.50759
G1 X75.311 Y46.766 E179.53162
G1 X76.037 Y47.641 E179.58834
G0 F3600 X45.907 Y45.2
;TIME_ELAPSED:106.121258
;LAYER:-7
G0 X45.907 Y45.2 Z0.61
G1 F1800 X45.517 Y45.6 E179.59763
G1 X74.483 Y45.6 E180.07934
G1 X74.872 Y46 E180.08862
G1 X45.127 Y46 E180.58328
G1 X44.84 Y46.294 E180.59011
G1 X44.747 Y46.4 E180.59245
G1 X75.257 Y46.4 E181.09984
G1 X75.47 Y46.644 E181.10522
G1 X75.601 Y46.8 E181.10861
G1 X44.398 Y46.8 E181.62752
G1 X44.062 Y47.2 E181.63621
G1 X75.937 Y47.2 E182.16629
G1 X76.111 Y47.408 E182.1708
G1 X76.253 Y47.6 E182.17477
G1 X43.752 Y47.6 E182.71527
G1 X43.456 Y48 E182.72354
G1 X76.548 Y48 E183.27386
G1 X76.651 Y48.14 E183.27675
G1 X76.83 Y48.4 E183.282
G1 X43.173 Y48.4 E183.84172
G1 X42.949 Y48.726 E183.8483
G1 X42.901 Y48.8 E183.84977
G1 X77.098 Y48.8 E184.41846
G1 X77.351 Y49.2 E184.42634
G1 X42.641 Y49.2 E185.00356
G1 X42.409 Y49.6 E185.01125
G1 X77.603 Y49.6 E185.59653
G1 X77.828 Y50 E185.60417
G1 X42.177 Y50 E186.19704
G1 X42.103 Y50.127 E186.19949
G1 X41.959 Y50.4 E186.20462
G1 X78.044 Y50.4 E186.80472
G1 X78.217 Y50.728 E186.81088
G1 X78.252 Y50.8 E186.81222
G1 X41.749 Y50.8 E187.41926
G1 X41.548 Y51.2 E187.42671
G1 X78.446 Y51.2 E188.04032
G1 X78.639 Y51.6 E188.04771
G1 X41.372 Y51.6 E188.66746
G1 X41.198 Y52 E188.67472
G1 X78.808 Y52 E189.30017
G1 X78.952 Y52.345 E189.30639
G1 X78.974 Y52.4 E189.30738
G1 X41.031 Y52.4 E189.93837
G1 X40.874 Y52.8 E189.94552
G1 X79.129 Y52.8 E190.5817
G1 X79.19 Y52.958 E190.58452
G1 X79.274 Y53.2 E190.58878
G1 X40.727 Y53.2 E191.22982
G1 X40.622 Y53.49 E191.23494
G1 X40.589 Y53.6 E191.23685
G1 X79.412 Y53.6 E191.88248
G1 X79.539 Y53.971 E191.889
G1 X79.548 Y54 E191.88951
G1 X40.466 Y54 E192.53945
G1 X40.344 Y54.4 E192.5464
G1 X79.661 Y54.4 E193.20024
G1 X79.68 Y54.47 E193.20145
G1 X79.766 Y54.8 E193.20712
G1 X40.235 Y54.8 E193.86453
G1 X40.163 Y55.066 E193.86911
G1 X40.131 Y55.2 E193.8714
G1 X79.87 Y55.2 E194.53226
G1 X79.876 Y55.225 E194.53269
G1 X79.959 Y55.6 E194.53908
G1 X40.034 Y55.6 E195.20303
G1 X39.958 Y56 E195.2098
G1 X80.047 Y56 E195.87649
G1 X80.115 Y56.31 E195.88176
G1 X80.13 Y56.4 E195.88328
G1 X39.882 Y56.4 E196.55261
G1 X39.842 Y56.606 E196.5561
G1 X39.813 Y56.8 E196.55936
G1 X80.192 Y56.8 E197.23087
G1 X80.208 Y56.905 E197.23263
G1 X80.248 Y57.2 E197.23758
G1 X39.751 Y57.2 E197.91105
G1 X39.733 Y57.315 E197.91299
G1 X39.697 Y57.6 E197.91776
G1 X80.302 Y57.6 E198.59303
G1 X80.356 Y58 E198.59974
G1 X39.651 Y58 E199.27667
G1 X39.623 Y58.4 E199.28333
G1 X80.402 Y58.4 E199.96149
G1 X80.441 Y58.8 E199.96818
G1 X39.595 Y58.8 E200.64745
G1 X39.58 Y59.012 E200.65098
G1 X39.574 Y59.2 E200.65411
G1 X80.48 Y59.2 E201.33438
G1 X80.482 Y59.23 E201.33488
G1 X80.493 Y59.401 E201.33773
G1 X80.498 Y59.6 E201.34104
G1 X39.559 Y59.6 E202.02186
G1 X39.555 Y60 E202.02851
G1 X80.507 Y60 E202.70954
G1 X80.514 Y60.319 E202.71485
G1 X80.51 Y60.4 E202.7162
G1 X39.562 Y60.4 E203.39717
G1 X39.58 Y60.8 E203.40383
G1 X80.491 Y60.8 E204.08418
G1 X80.473 Y61.2 E204.09084
G1 X39.598 Y61.2 E204.77059
G1 X39.609 Y61.442 E204.77462
G1 X39.622 Y61.6 E204.77726
G1 X80.446 Y61.6 E205.45616
G1 X80.396 Y62 E205.46287
G1 X39.655 Y62 E206.14039
G1 X39.663 Y62.084 E206.1418
G1 X39.698 Y62.4 E206.14708
G1 X80.347 Y62.4 E206.82308
G1 X80.338 Y62.475 E206.82433
G1 X80.281 Y62.8 E206.82982
G1 X39.745 Y62.8 E207.50394
G1 X39.812 Y63.2 E207.51068
G1 X80.209 Y63.2 E208.18249
G1 X80.126 Y63.6 E208.18928
G1 X39.879 Y63.6 E208.85859
G1 X39.915 Y63.813 E208.86218
G1 X39.954 Y64 E208.86536
G1 X80.043 Y64 E209.53204
G1 X79.961 Y64.4 E209.53883
G1 X40.037 Y64.4 E210.20277
G1 X40.107 Y64.73 E210.20838
G1 X40.126 Y64.8 E210.20959
G1 X79.859 Y64.8 E210.87035
G1 X79.756 Y65.2 E210.87722
G1 X40.236 Y65.2 E211.53444
G1 X40.346 Y65.6 E211.54134
G1 X79.654 Y65.6 E212.19503
G1 X79.611 Y65.768 E212.19792
G1 X79.539 Y66 E212.20196
G1 X40.456 Y66 E212.85191
G0 F3600 X40.458 Y66.005
G1 F1800 X40.584 Y66.4 E212.85881
G1 X79.415 Y66.4 E213.50457
G1 X79.389 Y66.485 E213.50605
G1 X79.276 Y66.8 E213.51161
G1 X40.72 Y66.8 E214.1528
G1 X40.859 Y67.2 E214.15984
G1 X79.132 Y67.2 E214.79633
G1 X79.003 Y67.562 E214.80272
G1 X78.986 Y67.6 E214.80341
G1 X41.022 Y67.6 E215.43475
G1 X41.186 Y68 E215.44194
G1 X78.814 Y68 E216.0677
G1 X78.651 Y68.379 E216.07456
G1 X78.641 Y68.4 E216.07495
G1 X41.362 Y68.4 E216.6949
G1 X41.547 Y68.8 E216.70223
G1 X78.451 Y68.8 E217.31594
G1 X78.389 Y68.933 E217.31838
G1 X78.246 Y69.2 E217.32342
G1 X41.75 Y69.2 E217.93035
G1 X41.963 Y69.6 E217.93789
G1 X78.032 Y69.6 E218.53772
G1 X77.817 Y70 E218.54527
G1 X42.175 Y70 E219.138
G1 X42.265 Y70.169 E219.14118
G1 X42.401 Y70.4 E219.14564
G1 X77.599 Y70.4 E219.73099
G1 X77.38 Y70.766 E219.73808
G1 X77.357 Y70.8 E219.73876
G1 X42.639 Y70.8 E220.31612
G1 X42.892 Y71.2 E220.324
G1 X77.097 Y71.2 E220.89283
G1 X76.837 Y71.6 E220.90076
G1 X43.164 Y71.6 E221.46074
G1 X43.447 Y72 E221.46889
