;FLAVOR:Marlin
;TIME:18735
;Filament used: 11.7188m
;Layer height: 0.1
;Generated with Cura_SteamEngine 3.1.0
M190 S60
M104 S200
M109 S200
M82 ; absolute extrusion mode
G28 ;Home
G1 Z15.0 F6000 ;Move the platform down 15mm
;Prime the extruder
G92 E0
G1 F200 E3
G92 E0
;LAYER_COUNT:328
;LAYER:-9
M107
G0 F3600 X16.768 Y20.455 Z0.36
G1 F1350 X20.455 Y16.768 E0.62433
G1 X20.878 Y16.372 E0.69371
G1 X21.132 Y16.159 E0.7334
G1 X25.238 Y12.838 E1.36572
G1 X25.796 Y12.427 E1.4487
G1 X30.351 Y9.467 E2.09914
G1 X31.123 Y9.025 E2.20566
G1 X35.769 Y6.655 E2.83015
G1 X36.17 Y6.465 E2.88329
G1 X36.59 Y6.29 E2.93777
G1 X41.45 Y4.423 E3.56115
G1 X42.113 Y4.199 E3.64494
G1 X47.418 Y2.777 E4.30257
G1 X48.093 Y2.627 E4.38536
G1 X53.457 Y1.776 E5.03566
G1 X53.963 Y1.713 E5.09671
G1 X54.302 Y1.688 E5.13741
G1 X59.661 Y1.409 E5.77995
G1 X60 Y1.401 E5.82055
G1 X60.536 Y1.416 E5.88476
G1 X65.698 Y1.688 E6.50369
G1 X66.037 Y1.714 E6.5444
G1 X66.543 Y1.777 E6.60546
G1 X71.907 Y2.627 E7.25574
G1 X72.582 Y2.777 E7.33853
G1 X77.887 Y4.199 E7.99616
G1 X78.55 Y4.423 E8.07995
G1 X83.41 Y6.29 E8.70333
G1 X83.83 Y6.465 E8.75781
G1 X84.227 Y6.653 E8.81041
G1 X88.919 Y9.048 E9.44117
G1 X89.747 Y9.527 E9.55571
G1 X94.07 Y12.336 E10.173
G1 X94.762 Y12.838 E10.27537
G1 X98.868 Y16.159 E10.90769
G1 X99.118 Y16.368 E10.9467
G1 X99.545 Y16.768 E11.01676
G1 X103.232 Y20.455 E11.64109
G1 X103.629 Y20.879 E11.71064
G1 X103.841 Y21.132 E11.75016
G1 X107.162 Y25.238 E12.38248
G1 X107.665 Y25.93 E12.48492
G1 X110.533 Y30.351 E13.1159
G1 X110.975 Y31.123 E13.22242
G1 X113.336 Y35.749 E13.84429
G1 X113.532 Y36.161 E13.89892
G1 X113.71 Y36.59 E13.95453
G1 X115.577 Y41.45 E14.57791
G1 X115.801 Y42.113 E14.66171
G1 X117.197 Y47.309 E15.30592
G1 X117.356 Y48.01 E15.39199
G1 X117.391 Y48.202 E15.41536
G1 X118.209 Y53.366 E16.04139
G1 X118.281 Y53.908 E16.10685
G1 X118.31 Y54.265 E16.14974
G1 X118.591 Y59.665 E16.79719
G1 X118.599 Y59.995 E16.83672
G1 X118.583 Y60.536 E16.90152
G1 X118.318 Y65.609 E17.50977
G1 X118.287 Y66.02 E17.55912
G1 X118.21 Y66.63 E17.63274
G1 X117.373 Y71.907 E18.27249
G1 X117.223 Y72.582 E18.35528
G1 X115.865 Y77.661 E18.98479
G1 X115.782 Y77.945 E19.02022
G1 X115.572 Y78.562 E19.09826
G1 X113.703 Y83.427 E19.72228
G1 X113.531 Y83.839 E19.77574
G1 X113.331 Y84.26 E19.83155
G1 X111.047 Y88.742 E20.43387
G1 X110.955 Y88.913 E20.45712
G1 X110.479 Y89.738 E20.57117
G1 X107.664 Y94.07 E21.18976
G1 X107.165 Y94.758 E21.29152
G1 X103.841 Y98.868 E21.92444
G1 X103.626 Y99.124 E21.96447
G1 X103.234 Y99.543 E22.03317
G1 X99.545 Y103.232 E22.65784
G1 X99.121 Y103.629 E22.72739
G1 X98.868 Y103.841 E22.76691
G1 X94.762 Y107.162 E23.39924
G1 X94.204 Y107.573 E23.48222
G1 X89.649 Y110.533 E24.13266
G1 X88.877 Y110.975 E24.23917
G1 X84.231 Y113.345 E24.86367
G1 X83.839 Y113.531 E24.91562
G1 X83.432 Y113.701 E24.96843
G1 X78.563 Y115.572 E25.59299
G1 X77.887 Y115.8 E25.67841
G1 X72.691 Y117.197 E26.32266
G1 X71.894 Y117.375 E26.42044
G1 X66.543 Y118.224 E27.06916
G1 X66.037 Y118.287 E27.13022
G1 X65.698 Y118.312 E27.17092
G1 X60.339 Y118.591 E27.81346
G1 X60 Y118.599 E27.85406
G1 X59.464 Y118.584 E27.91826
G1 X54.302 Y118.312 E28.5372
G1 X53.931 Y118.283 E28.58176
G1 X53.415 Y118.217 E28.64404
G1 X48.024 Y117.358 E29.29769
G1 X47.442 Y117.228 E29.36909
G1 X42.113 Y115.801 E30.02965
G1 X41.437 Y115.572 E30.11511
G1 X36.568 Y113.701 E30.73967
G1 X36.161 Y113.531 E30.79248
G1 X35.769 Y113.345 E30.84443
G1 X31.081 Y110.952 E31.47466
G1 X30.247 Y110.469 E31.59005
G1 X25.796 Y107.572 E32.22594
G1 X25.238 Y107.162 E32.30885
G1 X21.132 Y103.841 E32.94117
G1 X20.867 Y103.618 E32.98264
G1 X20.455 Y103.232 E33.05024
G1 X16.766 Y99.543 E33.67491
G1 X16.346 Y99.091 E33.74879
G1 X16.159 Y98.868 E33.78364
G1 X12.835 Y94.758 E34.41656
G1 X12.427 Y94.204 E34.49894
G1 X12.336 Y94.07 E34.51833
G1 X9.521 Y89.738 E35.13693
G1 X9.025 Y88.877 E35.2559
G1 X6.645 Y84.21 E35.88318
G1 X6.467 Y83.834 E35.93299
G1 X6.296 Y83.423 E35.98629
G1 X4.428 Y78.562 E36.60983
G1 X4.195 Y77.871 E36.69714
G1 X2.803 Y72.691 E37.33938
G1 X2.643 Y71.985 E37.42606
G1 X2.599 Y71.738 E37.4561
G1 X1.776 Y66.543 E38.08589
G1 X1.717 Y66.074 E38.14249
G1 X1.688 Y65.698 E38.18764
G1 X1.409 Y60.335 E38.83066
G1 X1.401 Y60.005 E38.87018
G1 X1.417 Y59.464 E38.93499
G1 X1.682 Y54.391 E39.54324
G1 X1.713 Y53.98 E39.59259
G1 X1.779 Y53.446 E39.65702
G1 X2.643 Y48.015 E40.31548
G1 X2.803 Y47.309 E40.40216
G1 X4.136 Y42.335 E41.01875
G1 X4.218 Y42.055 E41.05368
G1 X4.424 Y41.45 E41.13021
G1 X6.29 Y36.59 E41.75354
G1 X6.469 Y36.161 E41.8092
G1 X6.669 Y35.74 E41.86501
G1 X9.045 Y31.087 E42.49058
G1 X9.527 Y30.253 E42.60592
G1 X12.336 Y25.93 E43.22321
G1 X12.445 Y25.772 E43.2462
G1 X12.909 Y25.145 E43.33959
G1 X16.159 Y21.132 E43.95791
G1 X16.374 Y20.876 E43.99794
G1 X16.768 Y20.455 E44.06698
G0 F3600 X16 Y21.328
G1 F1350 X16 Y98.671 E53.32776
G0 F3600 X17.6 Y100.377
G1 F1350 X17.6 Y19.623 E62.99696
G0 F3600 X19.2 Y18.023
G1 F1350 X19.2 Y101.977 E73.04932
G0 F3600 X20.8 Y103.555
G1 F1350 X20.8 Y16.445 E83.47956
G0 F3600 X22.4 Y15.133
G1 F1350 X22.4 Y104.866 E94.22388
G0 F3600 X24 Y106.16
G1 F1350 X24 Y13.839 E105.27807
G0 F3600 X25.6 Y12.571
G1 F1350 X25.6 Y107.427 E116.63579
G0 F3600 X27.2 Y108.485
G1 F1350 X27.2 Y11.514 E128.24676
G0 F3600 X28.8 Y10.474
G1 F1350 X28.8 Y109.527 E140.10702
G0 F3600 X30.4 Y110.557
G1 F1350 X30.4 Y9.438 E152.21465
G0 F3600 X32 Y8.577
G1 F1350 X32 Y111.421 E164.52883
G0 F3600 X33.6 Y112.237
G1 F1350 X33.6 Y7.761 E177.03842
G0 F3600 X35.2 Y6.945
G1 F1350 X35.2 Y113.054 E189.74354
G0 F3600 X36.8 Y113.79
G1 F1350 X36.8 Y6.209 E202.62491
G0 F3600 X38.4 Y5.594
G1 F1350 X38.4 Y114.404 E215.65344
G0 F3600 X40 Y115.019
G1 F1350 X40 Y4.98 E228.82912
G0 F3600 X41.6 Y4.372
G1 F1350 X41.6 Y115.627 E242.1504
G0 F3600 X43.2 Y116.092
G1 F1350 X43.2 Y3.907 E255.58304
G0 F3600 X44.8 Y3.478
G1 F1350 X44.8 Y116.52 E269.11829
G0 F3600 X46.4 Y116.948
G1 F1350 X46.4 Y3.049 E282.75616
G0 F3600 X48 Y2.647
G1 F1350 X48 Y117.352 E296.49053
G0 F3600 X49.6 Y117.609
G1 F1350 X49.6 Y2.387 E310.28681
G0 F3600 X51.2 Y2.134
G1 F1350 X51.2 Y117.864 E324.14391
G0 F3600 X52.8 Y118.119
G1 F1350 X52.8 Y1.88 E338.06196
G0 F3600 X54.4 Y1.682
G1 F1350 X54.4 Y118.317 E352.02743
G0 F3600 X56 Y118.401
G1 F1350 X56 Y1.599 E366.01289
G0 F3600 X57.6 Y1.516
G1 F1350 X57.6 Y118.485 E380.01834
G0 F3600 X59.2 Y118.57
G1 F1350 X59.2 Y1.433 E394.04392
G0 F3600 X60.8 Y1.43
G1 F1350 X60.8 Y118.567 E408.06949
G0 F3600 X62.4 Y118.484
G1 F1350 X62.4 Y1.515 E422.07495
G0 F3600 X64 Y1.599
G1 F1350 X64 Y118.401 E436.06041
G0 F3600 X65.6 Y118.318
G1 F1350 X65.6 Y1.683 E450.02587
G0 F3600 X67.2 Y1.882
G1 F1350 X67.2 Y118.12 E463.9438
G0 F3600 X68.8 Y117.866
G1 F1350 X68.8 Y2.135 E477.80103
G0 F3600 X70.4 Y2.389
G1 F1350 X70.4 Y117.613 E491.59754
G0 F3600 X72 Y117.352
G1 F1350 X72 Y2.648 E505.3318
G0 F3600 X73.6 Y3.05
G1 F1350 X73.6 Y116.953 E518.97014
G0 F3600 X75.2 Y116.523
G1 F1350 X75.2 Y3.479 E532.50563
G0 F3600 X76.8 Y3.908
G1 F1350 X76.8 Y116.093 E545.93827
G0 F3600 X78.4 Y115.627
G1 F1350 X78.4 Y4.373 E559.25943
G0 F3600 X80 Y4.981
G1 F1350 X80 Y115.02 E572.43512
G0 F3600 X81.6 Y114.405
G1 F1350 X81.6 Y5.595 E585.46364
G0 F3600 X83.2 Y6.21
G1 F1350 X83.2 Y113.791 E598.34502
G0 F3600 X84.8 Y113.055
G1 F1350 X84.8 Y6.946 E611.05013
G0 F3600 X86.4 Y7.763
G1 F1350 X86.4 Y112.239 E623.55972
G0 F3600 X88 Y111.423
G1 F1350 X88 Y8.579 E635.8739
G0 F3600 X89.6 Y9.442
G1 F1350 X89.6 Y110.562 E647.98166
G0 F3600 X91.2 Y109.526
G1 F1350 X91.2 Y10.472 E659.84203
G0 F3600 X92.8 Y11.511
G1 F1350 X92.8 Y108.486 E671.45348
G0 F3600 X94.4 Y107.429
G1 F1350 X94.4 Y12.576 E682.81084
G0 F3600 X96 Y13.84
G1 F1350 X96 Y106.161 E693.86504
G0 F3600 X97.6 Y104.867
G1 F1350 X97.6 Y15.134 E704.60935
G0 F3600 X99.2 Y16.445
G1 F1350 X99.2 Y103.556 E715.03972
G0 F3600 X100.8 Y101.977
G1 F1350 X100.8 Y18.023 E725.09207
G0 F3600 X102.4 Y19.623
G1 F1350 X102.4 Y100.377 E734.76127
G0 F3600 X104 Y98.672
G1 F1350 X104 Y21.329 E744.02205
G0 F3600 X105.6 Y23.307
G1 F1350 X105.6 Y96.694 E752.80915
G0 F3600 X107.2 Y94.71
G1 F1350 X107.2 Y25.291 E761.12114
G0 F3600 X108.8 Y27.68
G1 F1350 X108.8 Y92.322 E768.86115
G0 F3600 X110.4 Y89.86
G1 F1350 X110.4 Y30.146 E776.01109
G0 F3600 X112 Y33.132
G1 F1350 X112 Y86.872 E782.44573
G0 F3600 X113.6 Y83.674
G1 F1350 X113.6 Y36.325 E788.11513
G0 F3600 X115.2 Y40.469
G1 F1350 X115.2 Y79.531 E792.79228
G0 F3600 X116.8 Y74.165
G1 F1350 X116.8 Y45.832 E796.18477
G0 F3600 X118.4 Y55.995
G1 F1350 X118.4 Y64.04 E797.14805
G0 F3600 X14.4 Y96.693
G1 F1350 X14.4 Y23.303 E805.93551
G0 F3600 X12.8 Y25.292
G1 F1350 X12.8 Y94.71 E814.24738
G0 F3600 X11.2 Y92.321
G1 F1350 X11.2 Y27.678 E821.98751
G0 F3600 X9.6 Y30.14
G1 F1350 X9.6 Y89.859 E829.13805
G0 F3600 X8 Y86.867
G1 F1350 X8 Y33.133 E835.57197
G0 F3600 X6.4 Y36.326
G1 F1350 X6.4 Y83.672 E841.24101
G0 F3600 X4.8 Y79.53
G1 F1350 X4.8 Y40.47 E845.91792
G0 F3600 X3.2 Y45.827
G1 F1350 X3.2 Y74.168 E849.31137
G0 F3600 X1.6 Y64.006
G1 F1350 X1.6 Y55.96 E850.27477
G0 F3600 X18.611 Y18.611
;TIME_ELAPSED:322.271166
;LAYER:-8
M140 S60
G0 X18.611 Y18.611 Z0.51
;TYPE:SUPPORT
G1 F1350 X19.318 Y17.903 E850.32469
G1 X102.094 Y100.68 E856.16502
G1 X102.802 Y99.973 E856.21494
G1 X20.025 Y17.196 E862.0553
G1 X20.454 Y16.767 E862.08557
G1 X20.741 Y16.498 E862.1052
G1 X103.5 Y99.257 E867.94429
G1 X103.625 Y99.123 E867.95343
G1 X103.84 Y98.867 E867.97011
G1 X104.146 Y98.489 E867.99437
G1 X21.51 Y15.853 E873.82479
G1 X22.291 Y15.22 E873.87495
G1 X104.779 Y97.708 E879.69492
G1 X105.411 Y96.925 E879.74512
G1 X23.073 Y14.588 E885.55448
G1 X23.855 Y13.956 E885.60464
G1 X106.044 Y96.144 E891.40348
G1 X106.676 Y95.362 E891.45364
G1 X24.637 Y13.323 E897.24194
G1 X25.237 Y12.837 E897.28046
G1 X25.426 Y12.698 E897.29217
G1 X107.299 Y94.571 E903.06875
G1 X107.663 Y94.069 E903.09968
G1 X107.879 Y93.737 E903.11944
G1 X26.264 Y12.122 E908.87782
G1 X27.121 Y11.565 E908.92882
G1 X108.436 Y92.88 E914.66603
G1 X108.994 Y92.023 E914.71705
G1 X27.978 Y11.008 E920.43313
G1 X28.835 Y10.451 E920.48412
G1 X109.55 Y91.165 E926.17897
G1 X110.107 Y90.308 E926.22996
G1 X29.693 Y9.894 E931.9036
G1 X30.35 Y9.466 E931.94272
G1 X30.56 Y9.347 E931.95476
G1 X110.651 Y89.438 E937.60562
G1 X110.954 Y88.913 E937.63586
G1 X111.046 Y88.741 E937.64559
G1 X111.155 Y88.528 E937.65753
G1 X31.473 Y8.845 E943.27956
G1 X32.41 Y8.368 E943.33201
G1 X111.633 Y87.591 E948.92162
G1 X112.11 Y86.654 E948.97408
G1 X33.346 Y7.89 E954.53131
G1 X34.283 Y7.413 E954.58376
G1 X112.587 Y85.717 E960.10853
G1 X113.064 Y84.78 E960.16099
G1 X35.219 Y6.935 E965.65337
G1 X35.768 Y6.655 E965.68412
G1 X36.165 Y6.467 E965.70603
G1 X113.532 Y83.833 E971.16466
G1 X113.702 Y83.426 E971.18666
G1 X113.934 Y82.822 E971.21894
G1 X37.176 Y6.064 E976.63464
G1 X38.198 Y5.671 E976.68926
G1 X114.327 Y81.8 E982.06058
G1 X114.72 Y80.779 E982.11516
G1 X39.22 Y5.279 E987.44209
G1 X40.242 Y4.886 E987.49672
G1 X115.112 Y79.757 E992.77923
G1 X115.505 Y78.735 E992.83386
G1 X41.264 Y4.495 E998.07193
G1 X41.449 Y4.422 E998.08185
G1 X42.112 Y4.198 E998.11677
G1 X42.325 Y4.142 E998.12775
G1 X115.86 Y77.676 E1003.31601
G1 X115.864 Y77.66 E1003.31683
G1 X116.158 Y76.56 E1003.37364
G1 X43.441 Y3.843 E1008.50422
G1 X44.556 Y3.544 E1008.56181
G1 X116.456 Y75.444 E1013.63474
G1 X116.755 Y74.328 E1013.69238
G1 X45.672 Y3.245 E1018.70767
G1 X46.787 Y2.946 E1018.76527
G1 X117.053 Y73.213 E1023.72295
G1 X117.222 Y72.582 E1023.75554
G1 X117.334 Y72.079 E1023.78125
G1 X47.92 Y2.665 E1028.67878
G1 X48.092 Y2.626 E1028.68758
G1 X49.131 Y2.462 E1028.74006
G1 X117.537 Y70.868 E1033.56647
G1 X117.731 Y69.647 E1033.62815
G1 X50.352 Y2.269 E1038.38207
G1 X51.572 Y2.075 E1038.4437
G1 X117.924 Y68.427 E1043.12519
G1 X118.117 Y67.206 E1043.18686
G1 X52.793 Y1.881 E1047.79586
G1 X53.455 Y1.776 E1047.8293
G1 X53.962 Y1.712 E1047.85479
G1 X54.033 Y1.707 E1047.85834
G1 X118.29 Y65.964 E1052.39202
G1 X118.317 Y65.609 E1052.40978
G1 X118.368 Y64.628 E1052.45879
G1 X55.372 Y1.632 E1056.9035
G1 X56.717 Y1.562 E1056.97069
G1 X118.438 Y63.284 E1061.32548
G1 X118.509 Y61.941 E1061.39258
G1 X58.061 Y1.492 E1065.65754
G1 X59.405 Y1.422 E1065.72469
G1 X118.579 Y60.596 E1069.89973
G1 X118.582 Y60.536 E1069.90273
G1 X118.598 Y59.995 E1069.92973
G1 X118.59 Y59.665 E1069.9462
G1 X118.564 Y59.167 E1069.97108
G1 X60.828 Y1.431 E1074.04467
G1 X62.321 Y1.51 E1074.11926
G1 X118.487 Y57.675 E1078.08204
G1 X118.409 Y56.183 E1078.15657
G1 X63.814 Y1.589 E1082.00851
G1 X65.307 Y1.668 E1082.0831
G1 X118.331 Y54.691 E1085.82419
G1 X118.308 Y54.264 E1085.84553
G1 X118.28 Y53.908 E1085.86334
G1 X118.207 Y53.366 E1085.89063
G1 X118.168 Y53.114 E1085.90335
G1 X66.885 Y1.831 E1089.52164
G1 X68.566 Y2.097 E1089.60655
G1 X117.902 Y51.434 E1093.08751
G1 X117.636 Y49.754 E1093.17237
G1 X70.246 Y2.363 E1096.51602
G1 X71.906 Y2.626 E1096.59988
G1 X71.928 Y2.631 E1096.601
G1 X117.366 Y48.07 E1099.80693
G1 X117.355 Y48.009 E1099.81003
G1 X117.196 Y47.308 E1099.84589
G1 X116.894 Y46.183 E1099.904
G1 X73.819 Y3.109 E1102.94314
G1 X75.751 Y3.626 E1103.04292
G1 X116.374 Y44.25 E1105.90913
G1 X115.855 Y42.316 E1106.00903
G1 X77.684 Y4.145 E1108.7022
G1 X77.886 Y4.198 E1108.71262
G1 X78.548 Y4.422 E1108.74748
G1 X79.892 Y4.939 E1108.81933
G1 X115.06 Y40.107 E1111.30062
G1 X114.179 Y37.811 E1111.42331
G1 X82.188 Y5.82 E1113.68045
G1 X83.409 Y6.289 E1113.7457
G1 X83.829 Y6.465 E1113.76842
G1 X84.226 Y6.652 E1113.79031
G1 X84.651 Y6.869 E1113.81412
G1 X113.132 Y35.351 E1115.82365
G1 X111.657 Y32.461 E1115.98552
G1 X87.54 Y8.344 E1117.68711
G1 X88.918 Y9.048 E1117.76431
G1 X89.746 Y9.526 E1117.81201
G1 X90.861 Y10.251 E1117.87836
G1 X109.741 Y29.131 E1119.21044
G1 X107.664 Y25.929 E1119.40086
G1 X107.161 Y25.237 E1119.44354
G1 X106.737 Y24.712 E1119.47721
G1 X95.286 Y13.262 E1120.2851
G1 X98.867 Y16.158 E1120.51487
G1 X99.117 Y16.367 E1120.53113
G1 X99.544 Y16.767 E1120.56032
G1 X103.231 Y20.454 E1120.82045
G1 X103.628 Y20.878 E1120.84943
G1 X103.84 Y21.131 E1120.8659
G0 F3600 X101.387 Y101.387
G1 F1350 X100.68 Y102.094 E1120.91578
G1 X17.903 Y19.318 E1126.75611
G1 X17.196 Y20.025 E1126.80599
G1 X99.973 Y102.802 E1132.64636
G1 X99.544 Y103.231 E1132.67663
G1 X99.257 Y103.499 E1132.69622
G1 X16.498 Y20.74 E1138.53531
G1 X16.373 Y20.875 E1138.54449
G1 X16.158 Y21.131 E1138.56117
G1 X15.851 Y21.508 E1138.58543
G1 X98.488 Y104.145 E1144.41591
G1 X97.707 Y104.778 E1144.46607
G1 X15.219 Y22.29 E1150.28604
G1 X14.586 Y23.072 E1150.33624
G1 X96.925 Y105.41 E1156.14566
G1 X96.143 Y106.042 E1156.19582
G1 X13.954 Y23.853 E1161.9947
G1 X13.321 Y24.634 E1162.04486
G1 X95.361 Y106.675 E1167.83326
G1 X94.761 Y107.161 E1167.87178
G1 X94.571 Y107.299 E1167.88349
G1 X12.698 Y25.426 E1173.66008
G1 X12.445 Y25.771 E1173.68142
G1 X12.336 Y25.929 E1173.691
G1 X12.119 Y26.261 E1173.71079
G1 X93.734 Y107.876 E1179.46916
G1 X92.877 Y108.433 E1179.52016
G1 X11.562 Y27.118 E1185.25737
G1 X11.005 Y27.975 E1185.30836
G1 X92.02 Y108.99 E1191.02441
G1 X91.163 Y109.547 E1191.0754
G1 X10.448 Y28.832 E1196.77028
G1 X9.891 Y29.69 E1196.82132
G1 X90.306 Y110.105 E1202.49503
G1 X89.649 Y110.532 E1202.53412
G1 X89.439 Y110.652 E1202.54619
G1 X9.347 Y30.561 E1208.19708
G1 X9.044 Y31.086 E1208.22732
G1 X8.846 Y31.474 E1208.24905
G1 X88.525 Y111.152 E1213.8708
G1 X87.589 Y111.63 E1213.92323
G1 X8.368 Y32.41 E1219.51267
G1 X7.89 Y33.346 E1219.5651
G1 X86.652 Y112.108 E1225.12219
G1 X85.716 Y112.586 E1225.17462
G1 X7.411 Y34.281 E1230.69946
G1 X6.933 Y35.218 E1230.75194
G1 X84.779 Y113.064 E1236.24439
G1 X84.231 Y113.344 E1236.2751
G1 X83.838 Y113.53 E1236.29679
G0 F3600 X83.833 Y113.531
G1 F1350 X6.466 Y36.164 E1241.75545
G1 X6.289 Y36.589 E1241.77842
G1 X6.063 Y37.176 E1241.8098
G1 X82.822 Y113.934 E1247.22552
G1 X81.8 Y114.327 E1247.28015
G1 X5.671 Y38.198 E1252.65146
G1 X5.279 Y39.22 E1252.70607
G1 X80.778 Y114.719 E1258.03294
G1 X79.756 Y115.112 E1258.08756
G1 X4.886 Y40.242 E1263.37005
G1 X4.494 Y41.263 E1263.42461
G1 X78.735 Y115.505 E1268.66275
G1 X78.563 Y115.571 E1268.67194
G1 X77.887 Y115.799 E1268.70753
G1 X77.672 Y115.856 E1268.71863
G1 X4.138 Y42.322 E1273.90685
G1 X4.135 Y42.333 E1273.90742
