;FLAVOR:Marlin
;TIME:16144
;Filament used: 9.72093m
;Layer height: 0.1
;Generated with Cura_SteamEngine 3.1.0
M190 S65
M104 S200
M109 S200
M82 ; absolute extrusion mode
G28 ;Home
G1 Z15.0 F6000 ;Move the platform down 15mm
;Prime the extruder
G92 E0
G1 F200 E3
G92 E0
;LAYER_COUNT:328
;LAYER:0
M107
G0 F3600 X21.027 Y17.328 Z0.3
;TYPE:SKIRT
G1 F1800 X21.635 Y16.781 E0.0408
G1 X25.704 Y13.487 E0.30199
G1 X26.364 Y13.007 E0.3427
G1 X30.751 Y10.158 E0.60367
G1 X31.458 Y9.75 E0.6444
G1 X36.121 Y7.374 E0.9055
G1 X36.866 Y7.042 E0.94619
G1 X41.754 Y5.165 E1.20741
G1 X42.531 Y4.913 E1.24817
G1 X47.584 Y3.559 E1.50915
G1 X48.383 Y3.389 E1.54991
G1 X53.555 Y2.57 E1.81116
G1 X54.367 Y2.485 E1.85189
G1 X59.592 Y2.211 E2.11292
G1 X60.408 Y2.211 E2.15363
G1 X65.633 Y2.485 E2.41467
G1 X66.445 Y2.57 E2.4554
G1 X71.617 Y3.389 E2.71665
G1 X72.416 Y3.559 E2.7574
G1 X77.469 Y4.913 E3.01839
G1 X78.246 Y5.165 E3.05914
G1 X83.134 Y7.042 E3.32037
G1 X83.879 Y7.374 E3.36106
G1 X88.54 Y9.749 E3.62205
G1 X89.247 Y10.157 E3.66277
G1 X93.636 Y13.007 E3.92385
G1 X94.297 Y13.487 E3.96461
G1 X98.366 Y16.782 E4.22582
G1 X98.972 Y17.328 E4.26652
G1 X102.672 Y21.027 E4.52754
G1 X103.219 Y21.635 E4.56834
G1 X106.513 Y25.704 E4.82953
G1 X106.993 Y26.364 E4.87024
G1 X109.842 Y30.751 E5.13121
G1 X110.25 Y31.458 E5.17194
G1 X112.626 Y36.121 E5.43303
G1 X112.958 Y36.866 E5.47373
G1 X114.835 Y41.754 E5.73495
G1 X115.087 Y42.531 E5.7757
G1 X116.441 Y47.584 E6.03669
G1 X116.611 Y48.383 E6.07745
G1 X117.43 Y53.553 E6.3386
G1 X117.515 Y54.365 E6.37933
G1 X117.789 Y59.591 E6.64041
G1 X117.789 Y60.407 E6.68112
G1 X117.515 Y65.633 E6.94221
G1 X117.43 Y66.445 E6.98294
G1 X116.611 Y71.617 E7.24419
G1 X116.441 Y72.416 E7.28494
G1 X115.087 Y77.469 E7.54593
G1 X114.835 Y78.246 E7.58668
G1 X112.959 Y83.132 E7.8478
G1 X112.627 Y83.877 E7.88849
G1 X110.251 Y88.54 E8.14959
G1 X109.843 Y89.247 E8.19031
G1 X106.993 Y93.636 E8.45139
G1 X106.513 Y94.297 E8.49215
G1 X103.218 Y98.366 E8.75336
G1 X102.672 Y98.972 E8.79406
G1 X98.973 Y102.672 E9.05508
G1 X98.365 Y103.219 E9.09588
G1 X94.296 Y106.513 E9.35707
G1 X93.636 Y106.993 E9.39778
G1 X89.249 Y109.842 E9.65875
G1 X88.542 Y110.25 E9.69948
G1 X83.879 Y112.626 E9.96057
G1 X83.134 Y112.958 E10.00127
G1 X78.246 Y114.835 E10.26249
G1 X77.469 Y115.087 E10.30324
G1 X72.416 Y116.441 E10.56423
G1 X71.617 Y116.611 E10.60499
G1 X66.445 Y117.43 E10.86623
G1 X65.633 Y117.515 E10.90697
G1 X60.408 Y117.789 E11.168
G1 X59.592 Y117.789 E11.20871
G1 X54.367 Y117.515 E11.46975
G1 X53.556 Y117.43 E11.51043
G1 X48.412 Y116.616 E11.77026
G1 X47.616 Y116.447 E11.81085
G1 X42.535 Y115.088 E12.07326
G1 X41.754 Y114.835 E12.11422
G1 X36.866 Y112.958 E12.37544
G1 X36.121 Y112.626 E12.41613
G1 X31.458 Y110.25 E12.67723
G1 X30.751 Y109.842 E12.71795
G1 X26.364 Y106.993 E12.97893
G1 X25.703 Y106.513 E13.01968
G1 X21.634 Y103.218 E13.2809
G1 X21.028 Y102.672 E13.32159
G1 X17.328 Y98.973 E13.58261
G1 X16.781 Y98.365 E13.62341
G1 X13.487 Y94.296 E13.8846
G1 X13.007 Y93.636 E13.92531
G1 X10.157 Y89.247 E14.1864
G1 X9.749 Y88.54 E14.22712
G1 X7.373 Y83.877 E14.48822
G1 X7.041 Y83.132 E14.52891
G1 X5.165 Y78.246 E14.79002
G1 X4.913 Y77.469 E14.83078
G1 X3.559 Y72.416 E15.09177
G1 X3.389 Y71.617 E15.13252
G1 X2.57 Y66.445 E15.39377
G1 X2.485 Y65.634 E15.43445
G1 X2.211 Y60.41 E15.69543
G1 X2.211 Y59.593 E15.7362
G1 X2.485 Y54.367 E15.99728
G1 X2.57 Y53.555 E16.03801
G1 X3.389 Y48.383 E16.29926
G1 X3.559 Y47.584 E16.34001
G1 X4.913 Y42.531 E16.601
G1 X5.165 Y41.754 E16.64175
G1 X7.041 Y36.868 E16.90287
G1 X7.373 Y36.123 E16.94356
G1 X9.749 Y31.46 E17.20466
G1 X10.157 Y30.753 E17.24538
G1 X13.007 Y26.364 E17.50647
G1 X13.487 Y25.703 E17.54722
G1 X16.782 Y21.634 E17.80844
G1 X17.328 Y21.028 E17.84913
G1 X21.027 Y17.328 E18.11015
G0 F3600 X21.31 Y17.611
G1 F1800 X21.887 Y17.091 E18.1489
G1 X25.956 Y13.797 E18.41009
G1 X26.582 Y13.343 E18.44867
G1 X30.969 Y10.494 E18.70964
G1 X31.639 Y10.107 E18.74824
G1 X36.302 Y7.731 E19.00934
G1 X37.009 Y7.416 E19.04795
G1 X41.897 Y5.539 E19.30918
G1 X42.635 Y5.299 E19.3479
G1 X47.688 Y3.945 E19.60888
G1 X48.446 Y3.784 E19.64755
G1 X53.618 Y2.965 E19.90879
G1 X54.387 Y2.884 E19.94737
G1 X59.612 Y2.61 E20.2084
G1 X60.388 Y2.61 E20.24712
G1 X65.613 Y2.884 E20.50815
G1 X66.382 Y2.965 E20.54673
G1 X71.554 Y3.784 E20.80798
G1 X72.312 Y3.945 E20.84664
G1 X77.365 Y5.299 E21.10763
G1 X78.103 Y5.539 E21.14635
G1 X82.991 Y7.416 E21.40757
G1 X83.698 Y7.731 E21.44619
G1 X88.359 Y10.106 E21.70717
G1 X89.029 Y10.493 E21.74577
G1 X93.418 Y13.343 E22.00686
G1 X94.045 Y13.798 E22.04551
G1 X98.114 Y17.093 E22.30672
G1 X98.689 Y17.611 E22.34533
G1 X102.389 Y21.31 E22.60635
G1 X102.909 Y21.887 E22.6451
G1 X106.203 Y25.956 E22.90629
G1 X106.657 Y26.582 E22.94487
G1 X109.506 Y30.969 E23.20584
G1 X109.893 Y31.639 E23.24444
G1 X112.269 Y36.302 E23.50554
G1 X112.584 Y37.009 E23.54416
G1 X114.461 Y41.897 E23.80538
G1 X114.701 Y42.635 E23.8441
G1 X116.055 Y47.688 E24.10509
G1 X116.216 Y48.445 E24.1437
G1 X117.035 Y53.615 E24.40485
G1 X117.116 Y54.386 E24.44352
G1 X117.39 Y59.612 E24.70461
G1 X117.39 Y60.386 E24.74322
G1 X117.116 Y65.612 E25.00431
G1 X117.035 Y66.382 E25.04293
G1 X116.216 Y71.554 E25.30418
G1 X116.055 Y72.312 E25.34284
G1 X114.701 Y77.365 E25.60383
G1 X114.461 Y78.102 E25.6425
G1 X112.585 Y82.988 E25.90361
G1 X112.27 Y83.696 E25.94227
G1 X109.894 Y88.359 E26.20337
G1 X109.507 Y89.029 E26.24197
G1 X106.657 Y93.418 E26.50306
G1 X106.202 Y94.045 E26.54171
G1 X102.907 Y98.114 E26.80292
G1 X102.389 Y98.689 E26.84153
G1 X98.69 Y102.389 E27.10255
G1 X98.113 Y102.909 E27.14131
G1 X94.044 Y106.203 E27.40249
G1 X93.418 Y106.657 E27.44107
G1 X89.031 Y109.506 E27.70204
G1 X88.361 Y109.893 E27.74064
G1 X83.698 Y112.269 E28.00174
G1 X82.991 Y112.584 E28.04036
G1 X78.103 Y114.461 E28.30158
G1 X77.365 Y114.701 E28.3403
G1 X72.312 Y116.055 E28.60129
G1 X71.554 Y116.216 E28.63995
G1 X66.382 Y117.035 E28.90119
G1 X65.613 Y117.116 E28.93977
G1 X60.388 Y117.39 E29.20081
G1 X59.612 Y117.39 E29.23952
G1 X54.387 Y117.116 E29.50056
G1 X53.618 Y117.035 E29.53913
G1 X48.474 Y116.221 E29.79896
G1 X47.719 Y116.061 E29.83747
G1 X42.638 Y114.702 E30.09987
G1 X41.897 Y114.461 E30.13874
G1 X37.009 Y112.584 E30.39997
G1 X36.302 Y112.269 E30.43858
G1 X31.639 Y109.893 E30.69968
G1 X30.969 Y109.506 E30.73828
G1 X26.582 Y106.657 E30.99926
G1 X25.955 Y106.202 E31.0379
G1 X21.886 Y102.907 E31.29912
G1 X21.311 Y102.389 E31.33773
G1 X17.611 Y98.69 E31.59875
G1 X17.091 Y98.113 E31.6375
G1 X13.797 Y94.044 E31.89869
G1 X13.343 Y93.418 E31.93727
G1 X10.493 Y89.029 E32.19835
G1 X10.106 Y88.359 E32.23695
G1 X7.73 Y83.696 E32.49805
G1 X7.415 Y82.988 E32.53671
G1 X5.539 Y78.102 E32.79782
G1 X5.299 Y77.365 E32.83649
G1 X3.945 Y72.312 E33.09748
G1 X3.784 Y71.554 E33.13614
G1 X2.965 Y66.382 E33.39739
G1 X2.884 Y65.613 E33.43597
G1 X2.61 Y60.389 E33.69695
G1 X2.61 Y59.614 E33.73562
G1 X2.884 Y54.388 E33.9967
G1 X2.965 Y53.618 E34.03533
G1 X3.784 Y48.446 E34.29658
G1 X3.945 Y47.688 E34.33524
G1 X5.299 Y42.635 E34.59623
G1 X5.539 Y41.898 E34.6349
G1 X7.415 Y37.012 E34.89601
G1 X7.73 Y36.304 E34.93467
G1 X10.106 Y31.641 E35.19577
G1 X10.493 Y30.971 E35.23437
G1 X13.343 Y26.582 E35.49545
G1 X13.798 Y25.955 E35.5341
G1 X17.093 Y21.886 E35.79532
G1 X17.611 Y21.311 E35.83393
G1 X21.31 Y17.611 E36.09495
G0 F3600 X21.593 Y17.894
G1 F1800 X22.139 Y17.402 E36.13162
G1 X26.208 Y14.108 E36.3928
G1 X26.799 Y13.678 E36.42927
G1 X31.186 Y10.829 E36.69024
G1 X31.821 Y10.463 E36.7268
G1 X36.484 Y8.087 E36.9879
G1 X37.153 Y7.789 E37.02444
G1 X42.041 Y5.912 E37.28566
G1 X42.738 Y5.686 E37.32222
G1 X47.791 Y4.332 E37.58321
G1 X48.508 Y4.179 E37.61978
G1 X53.68 Y3.36 E37.88103
G1 X54.408 Y3.284 E37.91755
G1 X59.633 Y3.01 E38.17858
G1 X60.367 Y3.01 E38.2152
G1 X65.592 Y3.284 E38.47624
G1 X66.32 Y3.36 E38.51276
G1 X71.492 Y4.179 E38.774
G1 X72.209 Y4.332 E38.81058
G1 X77.262 Y5.686 E39.07157
G1 X77.959 Y5.912 E39.10812
G1 X82.847 Y7.789 E39.36935
G1 X83.516 Y8.087 E39.40589
G1 X88.177 Y10.462 E39.66687
G1 X88.811 Y10.828 E39.7034
G1 X93.2 Y13.678 E39.96448
G1 X93.793 Y14.109 E40.00105
G1 X97.862 Y17.404 E40.26227
G1 X98.406 Y17.894 E40.29879
G1 X102.106 Y21.593 E40.55981
G1 X102.598 Y22.139 E40.59648
G1 X105.892 Y26.208 E40.85767
G1 X106.322 Y26.799 E40.89413
G1 X109.171 Y31.186 E41.1551
G1 X109.537 Y31.821 E41.19167
G1 X111.913 Y36.484 E41.45277
G1 X112.211 Y37.153 E41.4893
G1 X114.088 Y42.041 E41.75053
G1 X114.314 Y42.738 E41.78708
G1 X115.668 Y47.791 E42.04807
G1 X115.821 Y48.508 E42.08465
G1 X116.64 Y53.678 E42.3458
G1 X116.716 Y54.406 E42.38232
G1 X116.99 Y59.632 E42.6434
G1 X116.99 Y60.366 E42.68002
G1 X116.716 Y65.592 E42.9411
G1 X116.64 Y66.32 E42.97762
G1 X115.821 Y71.492 E43.23887
G1 X115.668 Y72.209 E43.27545
G1 X114.314 Y77.262 E43.53643
G1 X114.088 Y77.959 E43.57299
G1 X112.212 Y82.845 E43.8341
G1 X111.914 Y83.514 E43.87064
G1 X109.538 Y88.177 E44.13174
G1 X109.172 Y88.811 E44.16826
G1 X106.322 Y93.2 E44.42935
G1 X105.891 Y93.793 E44.46592
G1 X102.596 Y97.862 E44.72713
G1 X102.106 Y98.406 E44.76366
G1 X98.407 Y102.106 E45.02468
G1 X97.861 Y102.598 E45.06135
G1 X93.792 Y105.892 E45.32253
G1 X93.201 Y106.322 E45.359
G1 X88.814 Y109.171 E45.61997
G1 X88.179 Y109.537 E45.65653
G1 X83.516 Y111.913 E45.91763
G1 X82.847 Y112.211 E45.95417
G1 X77.959 Y114.088 E46.2154
G1 X77.262 Y114.314 E46.25195
G1 X72.209 Y115.668 E46.51294
G1 X71.492 Y115.821 E46.54952
G1 X66.32 Y116.64 E46.81076
G1 X65.592 Y116.716 E46.84728
G1 X60.367 Y116.99 E47.10832
G1 X59.633 Y116.99 E47.14494
G1 X54.408 Y116.716 E47.40597
G1 X53.681 Y116.64 E47.44244
G1 X48.537 Y115.826 E47.70227
G1 X47.822 Y115.674 E47.73873
G1 X42.741 Y114.315 E48.00114
G1 X42.041 Y114.088 E48.03785
G1 X37.153 Y112.211 E48.29908
G1 X36.484 Y111.913 E48.33561
G1 X31.821 Y109.537 E48.59671
G1 X31.186 Y109.171 E48.63328
G1 X26.799 Y106.322 E48.89425
G1 X26.207 Y105.891 E48.93078
G1 X22.138 Y102.596 E49.192
G1 X21.594 Y102.106 E49.22853
G1 X17.894 Y98.407 E49.48955
G1 X17.402 Y97.861 E49.52621
G1 X14.108 Y93.792 E49.7874
G1 X13.678 Y93.2 E49.8239
G1 X10.828 Y88.811 E50.08498
G1 X10.462 Y88.177 E50.12151
G1 X8.086 Y83.514 E50.3826
G1 X7.788 Y82.845 E50.41914
G1 X5.912 Y77.959 E50.68026
G1 X5.686 Y77.262 E50.71681
G1 X4.332 Y72.209 E50.9778
G1 X4.179 Y71.492 E51.01438
G1 X3.36 Y66.32 E51.27563
G1 X3.284 Y65.592 E51.31214
G1 X3.01 Y60.368 E51.57313
G1 X3.01 Y59.634 E51.60975
G1 X3.284 Y54.408 E51.87083
G1 X3.36 Y53.68 E51.90735
G1 X4.179 Y48.508 E52.1686
G1 X4.332 Y47.791 E52.20517
G1 X5.686 Y42.738 E52.46616
G1 X5.912 Y42.041 E52.50272
G1 X7.788 Y37.155 E52.76383
G1 X8.086 Y36.486 E52.80037
G1 X10.462 Y31.823 E53.06147
G1 X10.828 Y31.189 E53.09799
G1 X13.678 Y26.8 E53.35907
G1 X14.109 Y26.207 E53.39565
G1 X17.404 Y22.138 E53.65686
G1 X17.894 Y21.594 E53.69339
G1 X21.593 Y17.894 E53.95441
G0 F3600 X21.875 Y18.177
G1 F1800 X22.39 Y17.713 E53.98899
G1 X26.459 Y14.419 E54.25018
G1 X27.017 Y14.014 E54.28457
G1 X31.404 Y11.165 E54.54555
G1 X32.003 Y10.819 E54.58006
G1 X36.666 Y8.443 E54.84116
G1 X37.296 Y8.163 E54.87555
G1 X42.184 Y6.286 E55.13678
G1 X42.842 Y6.072 E55.1713
G1 X47.895 Y4.718 E55.43229
G1 X48.571 Y4.574 E55.46677
G1 X53.743 Y3.755 E55.72802
G1 X54.429 Y3.683 E55.76243
G1 X59.654 Y3.409 E56.02346
G1 X60.346 Y3.409 E56.05799
G1 X65.571 Y3.683 E56.31902
G1 X66.257 Y3.755 E56.35343
G1 X71.429 Y4.574 E56.61468
G1 X72.105 Y4.718 E56.64916
G1 X77.158 Y6.072 E56.91015
G1 X77.816 Y6.286 E56.94467
G1 X82.704 Y8.163 E57.2059
G1 X83.334 Y8.443 E57.24029
G1 X87.995 Y10.818 E57.50128
G1 X88.593 Y11.164 E57.53575
G1 X92.982 Y14.014 E57.79683
G1 X93.542 Y14.42 E57.83134
G1 X97.611 Y17.715 E58.09255
G1 X98.123 Y18.176 E58.12693
G1 X101.823 Y21.875 E58.38795
G1 X102.287 Y22.39 E58.42253
G1 X105.581 Y26.459 E58.68371
G1 X105.986 Y27.017 E58.71811
G1 X108.835 Y31.404 E58.97909
G1 X109.181 Y32.003 E59.0136
G1 X111.557 Y36.666 E59.27469
G1 X111.837 Y37.296 E59.30909
G1 X113.714 Y42.184 E59.57031
G1 X113.928 Y42.842 E59.60483
G1 X115.282 Y47.895 E59.86582
G1 X115.426 Y48.57 E59.90026
G1 X116.245 Y53.74 E60.16141
G1 X116.317 Y54.427 E60.19587
G1 X116.591 Y59.653 E60.45695
G1 X116.591 Y60.345 E60.49148
G1 X116.317 Y65.571 E60.75256
G1 X116.245 Y66.257 E60.78697
G1 X115.426 Y71.429 E61.04822
G1 X115.282 Y72.105 E61.0827
G1 X113.928 Y77.158 E61.34369
G1 X113.714 Y77.816 E61.37821
G1 X111.838 Y82.702 E61.63933
G1 X111.558 Y83.332 E61.67372
G1 X109.182 Y87.995 E61.93482
G1 X108.836 Y88.593 E61.96929
G1 X105.986 Y92.982 E62.23037
G1 X105.58 Y93.542 E62.26488
G1 X102.285 Y97.611 E62.52609
G1 X101.824 Y98.123 E62.56047
G1 X98.125 Y101.823 E62.82149
G1 X97.61 Y102.287 E62.85607
G1 X93.541 Y105.581 E63.11726
G1 X92.983 Y105.986 E63.15165
G1 X88.596 Y108.835 E63.41263
G1 X87.997 Y109.181 E63.44714
G1 X83.334 Y111.557 E63.70823
G1 X82.704 Y111.837 E63.74263
G1 X77.816 Y113.714 E64.00386
G1 X77.158 Y113.928 E64.03838
G1 X72.105 Y115.282 E64.29936
G1 X71.429 Y115.426 E64.33385
G1 X66.257 Y116.245 E64.59509
G1 X65.571 Y116.317 E64.62951
G1 X60.346 Y116.591 E64.89054
G1 X59.654 Y116.591 E64.92507
G1 X54.429 Y116.317 E65.1861
G1 X53.743 Y116.245 E65.22051
G1 X48.599 Y115.431 E65.48034
G1 X47.926 Y115.288 E65.51467
G1 X42.845 Y113.929 E65.77707
G1 X42.184 Y113.714 E65.81175
G1 X37.296 Y111.837 E66.07297
G1 X36.666 Y111.557 E66.10737
G1 X32.003 Y109.181 E66.36847
G1 X31.404 Y108.835 E66.40298
G1 X27.017 Y105.986 E66.66395
G1 X26.458 Y105.58 E66.69842
G1 X22.389 Y102.285 E66.95963
G1 X21.877 Y101.824 E66.994
G1 X18.177 Y98.125 E67.25502
G1 X17.713 Y97.61 E67.28961
G1 X14.419 Y93.541 E67.55079
G1 X14.014 Y92.982 E67.58523
G1 X11.164 Y88.593 E67.84631
G1 X10.818 Y87.995 E67.88078
G1 X8.442 Y83.332 E68.14188
G1 X8.162 Y82.702 E68.17628
G1 X6.286 Y77.816 E68.43739
G1 X6.072 Y77.158 E68.47191
G1 X4.718 Y72.105 E68.7329
G1 X4.574 Y71.429 E68.76738
G1 X3.755 Y66.257 E69.02863
G1 X3.683 Y65.571 E69.06304
G1 X3.409 Y60.347 E69.32403
G1 X3.409 Y59.655 E69.35855
G1 X3.683 Y54.429 E69.61963
G1 X3.755 Y53.743 E69.65405
G1 X4.574 Y48.571 E69.91529
G1 X4.718 Y47.895 E69.94978
G1 X6.072 Y42.842 E70.21077
G1 X6.286 Y42.184 E70.24529
G1 X8.162 Y37.298 E70.5064
G1 X8.442 Y36.668 E70.5408
G1 X10.818 Y32.005 E70.80189
G1 X11.164 Y31.407 E70.83636
G1 X14.014 Y27.018 E71.09744
G1 X14.42 Y26.458 E71.13195
G1 X17.715 Y22.389 E71.39317
G1 X18.176 Y21.877 E71.42754
G1 X21.875 Y18.177 E71.68856
G0 F3600 X22.158 Y18.46
G1 F1800 X22.642 Y18.024 E71.72106
G1 X26.711 Y14.73 E71.98224
G1 X27.235 Y14.349 E72.01457
G1 X31.622 Y11.5 E72.27554
G1 X32.184 Y11.176 E72.3079
G1 X36.847 Y8.8 E72.569
G1 X37.439 Y8.536 E72.60134
G1 X42.327 Y6.659 E72.86256
G1 X42.945 Y6.458 E72.89499
G1 X47.998 Y5.104 E73.15598
G1 X48.633 Y4.969 E73.18836
G1 X53.805 Y4.15 E73.44961
G1 X54.45 Y4.083 E73.48196
G1 X59.675 Y3.809 E73.743
G1 X60.325 Y3.809 E73.77543
G1 X65.55 Y4.083 E74.03646
G1 X66.195 Y4.15 E74.06881
G1 X71.367 Y4.969 E74.33006
G1 X72.002 Y5.104 E74.36245
G1 X77.055 Y6.458 E74.62344
G1 X77.673 Y6.659 E74.65586
G1 X82.561 Y8.536 E74.91708
G1 X83.153 Y8.8 E74.94942
G1 X87.814 Y11.175 E75.21041
G1 X88.376 Y11.499 E75.24277
G1 X92.765 Y14.349 E75.50386
G1 X93.29 Y14.731 E75.53625
G1 X97.359 Y18.026 E75.79746
G1 X97.84 Y18.459 E75.82975
G1 X101.54 Y22.158 E76.09077
G1 X101.976 Y22.642 E76.12327
G1 X105.27 Y26.711 E76.38446
G1 X105.651 Y27.235 E76.41678
G1 X108.5 Y31.622 E76.67775
G1 X108.824 Y32.184 E76.71011
G1 X111.2 Y36.847 E76.97121
G1 X111.464 Y37.439 E77.00355
G1 X113.341 Y42.327 E77.26478
G1 X113.542 Y42.945 E77.2972
G1 X114.896 Y47.998 E77.55819
G1 X115.031 Y48.633 E77.59057
G1 X115.85 Y53.803 E77.85172
G1 X115.917 Y54.448 E77.88408
G1 X116.191 Y59.674 E78.14516
G1 X116.191 Y60.324 E78.17759
G1 X115.917 Y65.55 E78.43867
G1 X115.85 Y66.195 E78.47103
G1 X115.031 Y71.367 E78.73227
G1 X114.896 Y72.002 E78.76466
G1 X113.542 Y77.055 E79.02565
G1 X113.341 Y77.672 E79.05802
G1 X111.465 Y82.558 E79.31914
G1 X111.201 Y83.151 E79.35152
G1 X108.825 Y87.814 E79.61262
G1 X108.501 Y88.376 E79.64498
G1 X105.651 Y92.765 E79.90607
G1 X105.269 Y93.29 E79.93846
G1 X101.974 Y97.359 E80.19968
G1 X101.541 Y97.84 E80.23196
