;FLAVOR:Marlin
;TIME:4898
;Filament used: 2.65971m
;Layer height: 0.1
;Generated with Cura_SteamEngine 3.1.0
M190 S65
M104 S200
M109 S200
M82 ; absolute extrusion mode
G28 ;Home
G1 Z15.0 F6000 ;Move the platform down 15mm
;Prime the extruder
G92 E0
G1 F200 E3
G92 E0
;LAYER_COUNT:105
;LAYER:0
M107
G0 F3600 X35.461 Y35.086 Z0.3
;TYPE:SKIRT
G1 F1800 X36.072 Y34.587 E0.03936
G1 X36.9 Y34.056 E0.08843
G1 X37.486 Y33.73 E0.12189
G1 X38.195 Y33.381 E0.16131
G1 X38.935 Y33.106 E0.2007
G1 X39.938 Y32.862 E0.2522
G1 X47.455 Y31.551 E0.63288
G1 X48.69 Y24.358 E0.99699
G1 X48.863 Y23.588 E1.03637
G1 X49.039 Y23.036 E1.06527
G1 X49.264 Y22.411 E1.09841
G1 X49.569 Y21.682 E1.13784
G1 X49.946 Y20.989 E1.1772
G1 X50.488 Y20.211 E1.2245
G1 X50.895 Y19.697 E1.25721
G1 X51.416 Y19.103 E1.29663
G1 X51.994 Y18.566 E1.33599
G1 X52.788 Y17.98 E1.38522
G1 X53.355 Y17.615 E1.41887
G1 X54.04 Y17.222 E1.45827
G1 X54.761 Y16.9 E1.49766
G1 X55.716 Y16.599 E1.54762
G1 X56.355 Y16.442 E1.58044
G1 X57.13 Y16.293 E1.61982
G1 X57.917 Y16.223 E1.65924
G1 X58.852 Y16.243 E1.70589
G1 X59.488 Y16.295 E1.73773
G1 X60.27 Y16.399 E1.77709
G1 X61.039 Y16.582 E1.81652
G1 X61.929 Y16.901 E1.86369
G1 X62.565 Y17.174 E1.89822
G1 X63.274 Y17.522 E1.93763
G1 X63.944 Y17.94 E1.97702
G1 X64.774 Y18.606 E2.03012
G1 X65.258 Y19.052 E2.06295
G1 X65.811 Y19.616 E2.10236
G1 X66.304 Y20.233 E2.14176
G1 X66.812 Y21.039 E2.18929
G1 X67.131 Y21.621 E2.2224
G1 X67.475 Y22.332 E2.26181
G1 X67.745 Y23.074 E2.3012
G1 X67.971 Y24.009 E2.34919
G1 X69.303 Y31.522 E2.72986
G1 X76.49 Y32.777 E3.09385
G1 X77.26 Y32.952 E3.13325
G1 X77.739 Y33.104 E3.15832
G1 X78.358 Y33.322 E3.19106
G1 X79.089 Y33.622 E3.23048
G1 X79.785 Y33.994 E3.26985
G1 X80.569 Y34.532 E3.31729
G1 X81.09 Y34.939 E3.35027
G1 X81.687 Y35.456 E3.38967
G1 X82.228 Y36.031 E3.42906
G1 X82.816 Y36.817 E3.47803
G1 X83.179 Y37.372 E3.51112
G1 X83.577 Y38.053 E3.55047
G1 X83.904 Y38.772 E3.58988
G1 X84.203 Y39.688 E3.63795
G1 X84.369 Y40.33 E3.67103
G1 X84.527 Y41.104 E3.71045
G1 X84.607 Y41.89 E3.74986
G1 X84.594 Y42.88 E3.79926
G1 X84.543 Y43.544 E3.83248
G1 X84.443 Y44.328 E3.87191
G1 X84.264 Y45.097 E3.9113
G1 X83.931 Y46.03 E3.96073
G1 X83.669 Y46.639 E3.9938
G1 X83.321 Y47.347 E4.03316
G1 X82.693 Y48.303 E4.09023
G1 X82.489 Y48.569 E4.10695
G1 X81.978 Y49.17 E4.14631
G1 X81.142 Y49.937 E4.20291
G1 X80.623 Y50.348 E4.23594
G1 X79.98 Y50.806 E4.27532
G1 X79.294 Y51.197 E4.31472
G1 X78.418 Y51.574 E4.3623
G1 X77.786 Y51.801 E4.3958
G1 X77.03 Y52.03 E4.43521
G1 X76.468 Y52.148 E4.46386
G1 X69.294 Y53.379 E4.827
G1 X68.85 Y55.971 E4.9582
G1 X68.901 Y55.942 E4.96113
G1 X70.74 Y55.022 E5.06372
G1 X71.474 Y54.701 E5.10369
G1 X73.404 Y53.972 E5.20661
G1 X74.173 Y53.726 E5.24689
G1 X76.155 Y53.204 E5.34915
G1 X76.938 Y53.04 E5.38906
G1 X78.98 Y52.721 E5.49217
G1 X79.783 Y52.638 E5.53245
G1 X81.84 Y52.532 E5.63521
G1 X82.639 Y52.532 E5.67507
G1 X84.692 Y52.637 E5.77763
G1 X85.493 Y52.72 E5.8178
G1 X87.537 Y53.038 E5.92101
G1 X88.323 Y53.202 E5.96106
G1 X90.303 Y53.723 E6.06321
G1 X91.068 Y53.967 E6.10327
G1 X93 Y54.695 E6.20627
G1 X93.734 Y55.015 E6.24622
G1 X95.573 Y55.933 E6.34877
G1 X96.274 Y56.33 E6.38896
G1 X98.015 Y57.437 E6.49189
G1 X98.667 Y57.9 E6.53178
G1 X100.28 Y59.175 E6.63436
G1 X100.884 Y59.705 E6.67445
G1 X102.358 Y61.14 E6.77708
G1 X102.904 Y61.73 E6.81719
G1 X104.225 Y63.312 E6.92001
G1 X104.711 Y63.959 E6.96038
G1 X105.86 Y65.668 E7.06312
G1 X106.271 Y66.352 E7.10294
G1 X107.244 Y68.178 E7.20616
G1 X107.584 Y68.905 E7.2462
G1 X108.355 Y70.799 E7.34822
G1 X108.621 Y71.562 E7.38854
G1 X109.197 Y73.543 E7.49146
G1 X109.379 Y74.315 E7.53103
G1 X109.752 Y76.351 E7.6343
G1 X109.857 Y77.154 E7.6747
G1 X110.015 Y79.192 E7.77669
G1 X110.035 Y79.995 E7.81676
G1 X109.982 Y82.062 E7.91992
G1 X109.921 Y82.856 E7.95965
G1 X109.659 Y84.896 E8.06226
G1 X109.513 Y85.7 E8.10303
G1 X109.036 Y87.713 E8.20624
G1 X108.812 Y88.48 E8.2461
G1 X108.134 Y90.427 E8.34896
G1 X107.832 Y91.169 E8.38892
G1 X106.958 Y93.036 E8.49177
G1 X106.579 Y93.747 E8.53197
G1 X105.523 Y95.504 E8.63424
G1 X105.076 Y96.168 E8.67417
G1 X103.839 Y97.816 E8.77698
G1 X103.327 Y98.43 E8.81686
G1 X101.924 Y99.947 E8.91995
G1 X101.345 Y100.512 E8.96031
G1 X99.803 Y101.866 E9.06269
G1 X99.173 Y102.364 E9.10276
G1 X97.488 Y103.561 E9.20587
G1 X96.809 Y103.992 E9.246
G1 X95.022 Y105.002 E9.34841
G1 X94.31 Y105.358 E9.38812
G1 X92.426 Y106.182 E9.49071
G1 X91.667 Y106.468 E9.53118
G1 X89.698 Y107.095 E9.63427
G1 X88.923 Y107.299 E9.67425
G1 X86.909 Y107.719 E9.77689
G1 X86.119 Y107.842 E9.81678
G1 X84.069 Y108.054 E9.9196
G1 X83.263 Y108.095 E9.95986
G1 X81.207 Y108.094 E10.06244
G1 X80.407 Y108.053 E10.1024
G1 X78.36 Y107.841 E10.20507
G1 X77.573 Y107.718 E10.24481
G1 X75.567 Y107.3 E10.34704
G1 X74.787 Y107.095 E10.38728
G1 X72.819 Y106.467 E10.49034
G1 X72.066 Y106.183 E10.53049
G1 X70.183 Y105.36 E10.63302
G1 X69.469 Y105.004 E10.67282
G1 X67.68 Y103.993 E10.77534
G1 X67 Y103.56 E10.81556
G1 X65.317 Y102.364 E10.91857
G1 X64.688 Y101.867 E10.95856
G1 X63.145 Y100.512 E11.06101
G1 X62.569 Y99.951 E11.10113
G1 X61.166 Y98.436 E11.20414
G1 X60.649 Y97.817 E11.24438
G1 X59.412 Y96.168 E11.34722
G1 X58.967 Y95.506 E11.38702
G1 X57.91 Y93.748 E11.48936
G1 X57.531 Y93.037 E11.52955
G1 X56.657 Y91.171 E11.63235
G1 X56.354 Y90.425 E11.67253
G1 X55.677 Y88.478 E11.77537
G1 X55.453 Y87.708 E11.81537
G1 X54.975 Y85.683 E11.91918
G1 X54.83 Y84.886 E11.95959
G1 X54.569 Y82.857 E12.06165
G1 X54.508 Y82.062 E12.10143
G1 X54.496 Y81.598 E12.12459
G1 X54.303 Y82.315 E12.16164
G1 X54.052 Y83.086 E12.20209
G1 X53.579 Y84.317 E12.26788
G1 X53.245 Y85.065 E12.30875
G1 X52.654 Y86.223 E12.37361
G1 X52.247 Y86.928 E12.41422
G1 X51.53 Y88.031 E12.47986
G1 X51.052 Y88.688 E12.52039
G1 X50.235 Y89.697 E12.58517
G1 X49.688 Y90.304 E12.62593
G1 X48.762 Y91.23 E12.69127
G1 X48.158 Y91.775 E12.73185
G1 X47.14 Y92.6 E12.79722
G1 X46.478 Y93.081 E12.83805
G1 X45.385 Y93.791 E12.90307
G1 X44.672 Y94.203 E12.94416
G1 X43.504 Y94.797 E13.00953
G1 X42.764 Y95.126 E13.04994
G1 X41.532 Y95.599 E13.11577
G1 X40.756 Y95.851 E13.15648
G1 X39.503 Y96.187 E13.2212
G1 X38.699 Y96.358 E13.26221
G1 X37.4 Y96.563 E13.32782
G1 X36.584 Y96.648 E13.36875
G1 X35.278 Y96.715 E13.43399
G1 X34.472 Y96.714 E13.4742
G1 X33.168 Y96.646 E13.53935
G1 X32.354 Y96.561 E13.58018
G1 X31.053 Y96.355 E13.6459
G1 X30.246 Y96.183 E13.68706
G1 X28.994 Y95.846 E13.75175
G1 X28.222 Y95.595 E13.79225
G1 X26.989 Y95.121 E13.85815
G1 X26.242 Y94.787 E13.89897
G1 X25.084 Y94.196 E13.96384
G1 X24.378 Y93.788 E14.00452
G1 X23.277 Y93.072 E14.07004
G1 X22.621 Y92.595 E14.11051
G1 X21.612 Y91.778 E14.17528
G1 X21.005 Y91.231 E14.21604
G1 X20.079 Y90.305 E14.28138
G1 X19.534 Y89.701 E14.32197
G1 X18.709 Y88.683 E14.38734
G1 X18.228 Y88.021 E14.42816
G1 X17.518 Y86.928 E14.49319
G1 X17.106 Y86.215 E14.53427
G1 X16.512 Y85.047 E14.59965
G1 X16.183 Y84.307 E14.64005
G1 X15.71 Y83.075 E14.70589
G1 X15.458 Y82.298 E14.74664
G1 X15.122 Y81.044 E14.81141
G1 X14.951 Y80.236 E14.85261
G1 X14.747 Y78.938 E14.91817
G1 X14.663 Y78.133 E14.95855
G1 X14.595 Y76.827 E15.02379
G1 X14.595 Y76.009 E15.0646
G1 X14.664 Y74.705 E15.12975
G1 X14.748 Y73.903 E15.16998
G1 X14.953 Y72.602 E15.23569
G1 X15.126 Y71.789 E15.27716
G1 X15.463 Y70.537 E15.34184
G1 X15.714 Y69.766 E15.38229
G1 X16.187 Y68.535 E15.44809
G1 X16.521 Y67.787 E15.48896
G1 X17.112 Y66.629 E15.55382
G1 X17.519 Y65.924 E15.59443
G1 X18.236 Y64.821 E15.66006
G1 X18.714 Y64.164 E15.7006
G1 X19.531 Y63.155 E15.76537
G1 X20.078 Y62.548 E15.80614
G1 X21.004 Y61.622 E15.87147
G1 X21.608 Y61.077 E15.91206
G1 X22.626 Y60.252 E15.97743
G1 X23.288 Y59.771 E16.01826
G1 X24.381 Y59.061 E16.08328
G1 X25.094 Y58.649 E16.12436
G1 X26.262 Y58.055 E16.18974
G1 X27.002 Y57.726 E16.23014
G1 X28.234 Y57.253 E16.29598
G1 X29.011 Y57.001 E16.33673
G1 X30.265 Y56.665 E16.4015
G1 X31.074 Y56.493 E16.44277
G1 X32.373 Y56.289 E16.50837
G1 X33.177 Y56.206 E16.54869
G1 X34.482 Y56.138 E16.61389
G1 X35.3 Y56.138 E16.6547
G1 X36.605 Y56.207 E16.71989
G1 X37.408 Y56.291 E16.76018
G1 X38.708 Y56.496 E16.82583
G1 X39.52 Y56.669 E16.86725
G1 X40.772 Y57.006 E16.93194
G1 X41.544 Y57.257 E16.97244
G1 X42.777 Y57.731 E17.03834
G1 X43.524 Y58.065 E17.07917
G1 X44.68 Y58.655 E17.14392
G1 X45.385 Y59.062 E17.18453
G1 X46.488 Y59.779 E17.25016
G1 X47.145 Y60.257 E17.2907
G1 X48.154 Y61.074 E17.35547
G1 X48.761 Y61.621 E17.39624
G1 X49.018 Y61.878 E17.41437
G1 X48.997 Y61.82 E17.41745
G1 X48.777 Y60.904 E17.46445
G1 X47.447 Y53.399 E17.84471
G1 X40.268 Y52.145 E18.20829
G1 X39.498 Y51.97 E18.24769
G1 X39.035 Y51.824 E18.27191
G1 X38.406 Y51.604 E18.30515
G1 X37.675 Y51.306 E18.34453
G1 X36.977 Y50.935 E18.38397
G1 X36.18 Y50.388 E18.4322
G1 X35.664 Y49.985 E18.46486
G1 X35.067 Y49.468 E18.50426
G1 X34.525 Y48.894 E18.54365
G1 X33.936 Y48.106 E18.59273
G1 X33.568 Y47.543 E18.62629
G1 X33.17 Y46.861 E18.66568
G1 X32.843 Y46.142 E18.70509
G1 X32.542 Y45.214 E18.75376
G1 X32.378 Y44.575 E18.78667
G1 X32.221 Y43.801 E18.82608
G1 X32.142 Y43.015 E18.86549
G1 X32.158 Y42.016 E18.91533
G1 X32.211 Y41.351 E18.94862
G1 X32.313 Y40.568 E18.98801
G1 X32.494 Y39.8 E19.02738
G1 X32.82 Y38.891 E19.07555
G1 X33.08 Y38.286 E19.10841
G1 X33.428 Y37.577 E19.14781
G1 X33.846 Y36.907 E19.18721
G1 X34.456 Y36.139 E19.23614
G1 X34.902 Y35.645 E19.26934
G1 X35.461 Y35.086 E19.30878
G0 F3600 X35.744 Y35.37
G1 F1800 X36.342 Y34.886 E19.34717
G1 X37.094 Y34.405 E19.3917
G1 X37.68 Y34.079 E19.42516
G1 X38.371 Y33.741 E19.46353
G1 X39.093 Y33.476 E19.5019
G1 X40.007 Y33.256 E19.54881
G1 X47.803 Y31.897 E19.94362
G1 X49.085 Y24.426 E20.32179
G1 X49.254 Y23.676 E20.36015
G1 X49.415 Y23.171 E20.38659
G1 X49.64 Y22.546 E20.41973
G1 X49.938 Y21.837 E20.4581
G1 X50.308 Y21.163 E20.49646
G1 X50.802 Y20.459 E20.53937
G1 X51.209 Y19.945 E20.57208
G1 X51.717 Y19.368 E20.61043
G1 X52.282 Y18.846 E20.64881
G1 X53.005 Y18.317 E20.6935
G1 X53.572 Y17.952 E20.72715
G1 X54.239 Y17.57 E20.76549
G1 X54.943 Y17.259 E20.80389
G1 X55.811 Y16.988 E20.84926
G1 X56.45 Y16.831 E20.88209
G1 X57.206 Y16.686 E20.92049
G1 X57.972 Y16.621 E20.95884
G1 X58.819 Y16.642 E21.00111
G1 X59.455 Y16.694 E21.03295
G1 X60.217 Y16.796 E21.07131
G1 X60.965 Y16.977 E21.1097
G1 X61.771 Y17.269 E21.15247
G1 X62.407 Y17.542 E21.187
G1 X63.097 Y17.882 E21.22538
G1 X63.748 Y18.291 E21.26373
G1 X64.503 Y18.9 E21.31213
G1 X64.987 Y19.346 E21.34496
G1 X65.524 Y19.896 E21.38331
G1 X66.002 Y20.499 E21.4217
G1 X66.461 Y21.231 E21.46481
G1 X66.78 Y21.813 E21.49792
G1 X67.114 Y22.506 E21.5363
G1 X67.375 Y23.23 E21.57469
G1 X67.577 Y24.079 E21.61823
G1 X68.957 Y31.867 E22.01283
G1 X76.421 Y33.171 E22.39085
G1 X77.171 Y33.343 E22.42924
G1 X77.606 Y33.481 E22.45201
G1 X78.225 Y33.699 E22.48475
G1 X78.936 Y33.992 E22.52311
G1 X79.613 Y34.357 E22.56149
G1 X80.323 Y34.847 E22.60453
G1 X80.844 Y35.254 E22.63751
G1 X81.424 Y35.759 E22.67588
G1 X81.949 Y36.321 E22.71425
G1 X82.481 Y37.035 E22.75867
G1 X82.844 Y37.59 E22.79175
G1 X83.231 Y38.255 E22.83014
G1 X83.547 Y38.956 E22.8685
G1 X83.815 Y39.789 E22.91216
G1 X83.981 Y40.431 E22.94524
G1 X84.135 Y41.184 E22.98359
G1 X84.209 Y41.95 E23.02198
G1 X84.195 Y42.85 E23.06689
G1 X84.144 Y43.514 E23.10011
G1 X84.046 Y44.277 E23.13849
G1 X83.868 Y45.025 E23.17685
G1 X83.564 Y45.871 E23.2217
G1 X83.302 Y46.48 E23.25478
G1 X82.961 Y47.17 E23.29317
G1 X82.376 Y48.059 E23.34627
G1 X82.172 Y48.325 E23.36299
G1 X81.673 Y48.911 E23.40139
G1 X80.894 Y49.623 E23.45404
G1 X80.375 Y50.034 E23.48707
G1 X79.748 Y50.48 E23.52546
G1 X79.078 Y50.858 E23.56384
G1 X78.282 Y51.197 E23.607
G1 X77.65 Y51.424 E23.64051
G1 X76.914 Y51.646 E23.67886
G1 X76.401 Y51.753 E23.705
G1 X68.947 Y53.032 E24.08232
G1 X68.31 Y56.743 E24.27017
G1 X68.421 Y56.673 E24.27672
G1 X69.08 Y56.3 E24.3145
G1 X70.919 Y55.38 E24.41708
G1 X71.615 Y55.075 E24.455
G1 X73.545 Y54.346 E24.55792
G1 X74.275 Y54.113 E24.59615
G1 X76.257 Y53.591 E24.69841
G1 X77 Y53.436 E24.73627
G1 X79.042 Y53.117 E24.83939
G1 X79.803 Y53.038 E24.87756
G1 X81.86 Y52.932 E24.98032
G1 X82.619 Y52.932 E25.01818
G1 X84.672 Y53.037 E25.12074
G1 X85.432 Y53.115 E25.15886
G1 X87.476 Y53.433 E25.26206
G1 X88.221 Y53.589 E25.30003
G1 X90.201 Y54.11 E25.40218
G1 X90.927 Y54.341 E25.44019
G1 X92.859 Y55.069 E25.54319
G1 X93.555 Y55.373 E25.58108
G1 X95.394 Y56.291 E25.68363
G1 X96.06 Y56.667 E25.72178
G1 X97.801 Y57.774 E25.82471
G1 X98.419 Y58.214 E25.86256
G1 X100.032 Y59.489 E25.96514
G1 X100.605 Y59.992 E26.00318
G1 X102.079 Y61.427 E26.10581
G1 X102.597 Y61.986 E26.14383
G1 X103.918 Y63.568 E26.24666
G1 X104.379 Y64.182 E26.28496
G1 X105.528 Y65.891 E26.3877
G1 X105.918 Y66.54 E26.42548
G1 X106.891 Y68.366 E26.52871
G1 X107.214 Y69.056 E26.56671
G1 X107.985 Y70.95 E26.66874
G1 X108.237 Y71.674 E26.70698
G1 X108.813 Y73.655 E26.80991
G1 X108.986 Y74.387 E26.84743
G1 X109.359 Y76.423 E26.9507
G1 X109.458 Y77.185 E26.98904
G1 X109.616 Y79.223 E27.09102
G1 X109.636 Y79.985 E27.12905
G1 X109.583 Y82.052 E27.2322
G1 X109.525 Y82.805 E27.26988
G1 X109.263 Y84.845 E27.37249
G1 X109.124 Y85.608 E27.41119
G1 X108.647 Y87.621 E27.5144
G1 X108.434 Y88.349 E27.55224
G1 X107.756 Y90.296 E27.6551
G1 X107.47 Y90.999 E27.69296
G1 X106.596 Y92.866 E27.79581
G1 X106.237 Y93.541 E27.83395
G1 X105.181 Y95.298 E27.93622
G1 X104.756 Y95.928 E27.97413
G1 X103.519 Y97.576 E28.07694
G1 X103.034 Y98.158 E28.11473
G1 X101.631 Y99.675 E28.21782
G1 X101.081 Y100.212 E28.25617
G1 X99.539 Y101.566 E28.35855
G1 X98.942 Y102.038 E28.39652
G1 X97.257 Y103.235 E28.49964
G1 X96.612 Y103.644 E28.53774
G1 X94.825 Y104.654 E28.64015
G1 X94.149 Y104.992 E28.67786
G1 X92.265 Y105.816 E28.78045
G1 X91.545 Y106.087 E28.81883
G1 X89.576 Y106.714 E28.92192
G1 X88.842 Y106.907 E28.95979
G1 X86.828 Y107.327 E29.06243
G1 X86.078 Y107.444 E29.1003
G1 X84.028 Y107.656 E29.20312
G1 X83.263 Y107.695 E29.24133
G1 X81.207 Y107.694 E29.34391
G1 X80.449 Y107.655 E29.38177
G1 X78.402 Y107.443 E29.48445
G1 X77.654 Y107.326 E29.52222
G1 X75.648 Y106.908 E29.62445
G1 X74.908 Y106.714 E29.66261
G1 X72.94 Y106.086 E29.76568
G1 X72.226 Y105.817 E29.80374
G1 X70.343 Y104.994 E29.90627
G1 X69.666 Y104.655 E29.94404
G1 X67.877 Y103.644 E30.04656
G1 X67.231 Y103.234 E30.08473
G1 X65.548 Y102.038 E30.18774
G1 X64.952 Y101.566 E30.22567
G1 X63.409 Y100.211 E30.32812
G1 X62.863 Y99.679 E30.36615
G1 X61.46 Y98.164 E30.46917
G1 X60.969 Y97.577 E30.50735
G1 X59.732 Y95.928 E30.61019
G1 X59.31 Y95.3 E30.64794
G1 X58.253 Y93.542 E30.75028
G1 X57.894 Y92.868 E30.78838
G1 X57.02 Y91.002 E30.89118
G1 X56.731 Y90.293 E30.92937
G1 X56.054 Y88.346 E31.03222
G1 X55.842 Y87.616 E31.07014
G1 X55.364 Y85.591 E31.17394
G1 X55.226 Y84.835 E31.21228
G1 X54.965 Y82.806 E31.31435
G1 X54.907 Y82.052 E31.35207
G1 X54.854 Y79.987 E31.45513
G1 X54.874 Y79.229 E31.49296
G1 X55.031 Y77.191 E31.59494
G1 X55.13 Y76.425 E31.63347
G1 X55.502 Y74.396 E31.73639
G1 X55.673 Y73.672 E31.7735
G1 X56.246 Y71.693 E31.87629
G1 X56.5 Y70.962 E31.9149
G1 X57.27 Y69.07 E32.01681
G1 X57.592 Y68.382 E32.05471
G1 X57.659 Y68.256 E32.06182
G1 X57.227 Y68.218 E32.08346
G1 X56.465 Y68.111 E32.12185
G1 X55.719 Y67.926 E32.1602
G1 X54.885 Y67.617 E32.20457
G1 X54.275 Y67.348 E32.23783
G1 X53.588 Y67.001 E32.27623
G1 X52.941 Y66.585 E32.3146
G1 X52.253 Y66.025 E32.35886
G1 X51.771 Y65.582 E32.39152
G1 X51.233 Y65.033 E32.42987
G1 X50.754 Y64.431 E32.46825
G1 X50.281 Y63.674 E32.51278
G1 X49.959 Y63.083 E32.54636
G1 X49.626 Y62.39 E32.58472
G1 X49.368 Y61.665 E32.62311
G1 X49.171 Y60.834 E32.66572
G1 X47.792 Y53.054 E33.05992
G1 X40.336 Y51.751 E33.43753
G1 X39.587 Y51.579 E33.47588
G1 X39.167 Y51.446 E33.49785
G1 X38.538 Y51.226 E33.5311
G1 X37.826 Y50.935 E33.56947
G1 X37.148 Y50.571 E33.60787
G1 X36.426 Y50.073 E33.65162
G1 X35.91 Y49.67 E33.68429
G1 X35.329 Y49.166 E33.72266
G1 X34.804 Y48.604 E33.76103
G1 X34.271 Y47.887 E33.8056
G1 X33.903 Y47.324 E33.83916
G1 X33.516 Y46.659 E33.87754
G1 X33.2 Y45.958 E33.91591
G1 X32.929 Y45.115 E33.96008
G1 X32.765 Y44.476 E33.993
G1 X32.613 Y43.722 E34.03137
G1 X32.54 Y42.956 E34.06976
G1 X32.556 Y42.048 E34.11507
